; generated by Slic3r 0.9.10b on 2013-10-03 at 22:01:46

; layer_height = 0.3
; perimeters = 2
; top_solid_layers = 3
; bottom_solid_layers = 3
; fill_density = 0.3
; perimeter_speed = 30
; infill_speed = 60
; travel_speed = 130
; nozzle_diameter = 0.35
; filament_diameter = 1.75
; extrusion_multiplier = 1
; perimeters extrusion width = 0.37mm
; infill extrusion width = 0.37mm
; solid infill extrusion width = 0.37mm
; top infill extrusion width = 0.37mm
; first layer extrusion width = 0.60mm

G21 ; set units to millimeters
M107
M190 S65 ; wait for bed temperature to be reached
M104 S180 ; set temperature
G28 ; home all axes
M109 S180 ; wait for temperature to be reached
G90 ; use absolute coordinates
G92 E0
M82 ; use absolute distances for extrusion
G1 F1800.000 E-1.90000
G92 E0
G1 Z0.300 F7800.000
G1 X93.050 Y67.680
G1 F1800.000 E1.90000
G1 X93.950 Y66.930 F540.000 E1.97983
G1 X94.370 Y66.630 E2.01500
G1 X94.940 Y66.260 E2.06131
G1 X95.530 Y65.950 E2.10673
G1 X96.010 Y65.730 E2.14271
G1 X97.060 Y65.350 E2.21880
G1 X97.560 Y65.210 E2.25418
G1 X98.220 Y65.060 E2.30031
G1 X98.890 Y64.970 E2.34637
G1 X99.380 Y64.930 E2.37987
G1 X99.960 Y64.910 E2.41942
G1 X100.520 Y64.930 E2.45761
G1 X101.750 Y65.050 E2.54182
G1 X102.930 Y65.350 E2.62479
G1 X104.030 Y65.760 E2.70478
G1 X104.500 Y65.980 E2.74015
G1 X105.550 Y66.580 E2.82256
G1 X105.980 Y66.880 E2.85828
G1 X106.470 Y67.260 E2.90054
G1 X106.940 Y67.680 E2.94349
G1 X132.310 Y93.050 E5.38839
G1 X133.060 Y93.950 E5.46822
G1 X133.360 Y94.370 E5.50340
G1 X133.730 Y94.940 E5.54970
G1 X134.040 Y95.530 E5.59512
G1 X134.260 Y96.010 E5.63110
G1 X134.640 Y97.060 E5.70719
G1 X134.780 Y97.560 E5.74258
G1 X134.930 Y98.240 E5.79003
G1 X135.020 Y98.930 E5.83745
G1 X135.060 Y99.450 E5.87298
G1 X135.060 Y100.520 E5.94590
G1 X135.020 Y101.050 E5.98212
G1 X134.940 Y101.750 E6.03013
G1 X134.640 Y102.930 E6.11310
G1 X134.230 Y104.030 E6.19309
G1 X134.010 Y104.500 E6.22845
G1 X133.410 Y105.550 E6.31086
G1 X133.110 Y105.980 E6.34659
G1 X132.730 Y106.470 E6.38885
G1 X132.310 Y106.940 E6.43180
G1 X106.940 Y132.310 E8.87670
G1 X106.470 Y132.730 E8.91965
G1 X105.980 Y133.110 E8.96191
G1 X105.550 Y133.410 E8.99763
G1 X104.500 Y134.010 E9.08004
G1 X104.030 Y134.230 E9.11541
G1 X102.930 Y134.640 E9.19540
G1 X101.750 Y134.940 E9.27837
G1 X100.520 Y135.060 E9.36258
G1 X99.450 Y135.060 E9.43550
G1 X98.930 Y135.020 E9.47104
G1 X98.240 Y134.930 E9.51845
G1 X97.560 Y134.780 E9.56591
G1 X97.060 Y134.640 E9.60129
G1 X96.010 Y134.260 E9.67738
G1 X95.530 Y134.040 E9.71336
G1 X94.940 Y133.730 E9.75878
G1 X94.370 Y133.360 E9.80509
G1 X93.950 Y133.060 E9.84026
G1 X93.050 Y132.310 E9.92009
G1 X67.680 Y106.940 E12.36499
G1 X67.260 Y106.470 E12.40794
G1 X66.880 Y105.980 E12.45020
G1 X66.580 Y105.550 E12.48593
G1 X65.980 Y104.500 E12.56834
G1 X65.760 Y104.030 E12.60370
G1 X65.350 Y102.930 E12.68369
G1 X65.050 Y101.750 E12.76666
G1 X64.930 Y100.520 E12.85088
G1 X64.930 Y99.450 E12.92379
G1 X64.970 Y98.930 E12.95933
G1 X65.060 Y98.240 E13.00675
G1 X65.210 Y97.560 E13.05420
G1 X65.350 Y97.060 E13.08958
G1 X65.730 Y96.010 E13.16567
G1 X65.950 Y95.530 E13.20165
G1 X66.260 Y94.940 E13.24707
G1 X66.630 Y94.370 E13.29338
G1 X66.930 Y93.950 E13.32855
G1 X67.680 Y93.050 E13.40838
G1 X92.992 Y67.738 E15.84770
G1 X93.440 Y68.070 F7800.000
G1 X94.270 Y67.370 F540.000 E15.92169
G1 X94.690 Y67.070 E15.95686
G1 X95.210 Y66.740 E15.99883
G1 X95.760 Y66.450 E16.04120
G1 X96.240 Y66.230 E16.07718
G1 X97.200 Y65.880 E16.14681
G1 X97.700 Y65.740 E16.18219
G1 X98.320 Y65.600 E16.22550
G1 X98.940 Y65.520 E16.26810
G1 X99.430 Y65.480 E16.30161
G1 X99.990 Y65.450 E16.33982
G1 X101.010 Y65.510 E16.40945
G1 X101.650 Y65.590 E16.45340
G1 X102.790 Y65.880 E16.53356
G1 X103.800 Y66.250 E16.60685
G1 X104.270 Y66.470 E16.64222
G1 X105.240 Y67.030 E16.71854
G1 X105.670 Y67.330 E16.75427
G1 X106.120 Y67.680 E16.79312
G1 X106.550 Y68.070 E16.83268
G1 X131.920 Y93.440 E19.27758
G1 X132.620 Y94.270 E19.35157
G1 X132.920 Y94.690 E19.38674
G1 X133.250 Y95.210 E19.42871
G1 X133.540 Y95.760 E19.47108
G1 X133.760 Y96.240 E19.50706
G1 X134.110 Y97.200 E19.57669
G1 X134.400 Y98.330 E19.65618
G1 X134.480 Y98.970 E19.70014
G1 X134.520 Y99.490 E19.73567
G1 X134.520 Y100.480 E19.80314
G1 X134.480 Y101.010 E19.83936
G1 X134.400 Y101.650 E19.88331
G1 X134.110 Y102.790 E19.96347
G1 X133.740 Y103.800 E20.03676
G1 X133.520 Y104.270 E20.07213
G1 X132.960 Y105.240 E20.14845
G1 X132.660 Y105.670 E20.18418
G1 X132.310 Y106.120 E20.22303
G1 X131.920 Y106.550 E20.26258
G1 X106.550 Y131.920 E22.70749
G1 X106.120 Y132.310 E22.74704
G1 X105.670 Y132.660 E22.78589
G1 X105.240 Y132.960 E22.82162
G1 X104.270 Y133.520 E22.89794
G1 X103.800 Y133.740 E22.93331
G1 X102.790 Y134.110 E23.00661
G1 X102.290 Y134.250 E23.04199
G1 X101.650 Y134.400 E23.08678
G1 X101.010 Y134.480 E23.13073
G1 X100.480 Y134.520 E23.16695
G1 X99.490 Y134.520 E23.23441
G1 X98.970 Y134.480 E23.26995
G1 X98.330 Y134.400 E23.31390
G1 X97.200 Y134.110 E23.39340
G1 X96.240 Y133.760 E23.46303
G1 X95.760 Y133.540 E23.49901
G1 X95.210 Y133.250 E23.54138
G1 X94.690 Y132.920 E23.58335
G1 X94.270 Y132.620 E23.61852
G1 X93.440 Y131.920 E23.69251
G1 X68.070 Y106.550 E26.13741
G1 X67.680 Y106.120 E26.17697
G1 X67.330 Y105.670 E26.21582
G1 X67.030 Y105.240 E26.25155
G1 X66.470 Y104.270 E26.32787
G1 X66.250 Y103.800 E26.36323
G1 X65.880 Y102.790 E26.43653
G1 X65.740 Y102.290 E26.47191
G1 X65.590 Y101.650 E26.51671
G1 X65.510 Y101.010 E26.56066
G1 X65.470 Y100.480 E26.59688
G1 X65.470 Y99.490 E26.66434
G1 X65.510 Y98.970 E26.69988
G1 X65.590 Y98.330 E26.74383
G1 X65.880 Y97.200 E26.82333
G1 X66.230 Y96.240 E26.89296
G1 X66.450 Y95.760 E26.92894
G1 X66.740 Y95.210 E26.97131
G1 X67.070 Y94.690 E27.01328
G1 X67.370 Y94.270 E27.04845
G1 X68.070 Y93.440 E27.12244
G1 X93.382 Y68.128 E29.56175
G1 F1800.000 E27.66175
G92 E0
G1 X123.860 Y98.641 F7800.000
G1 F1800.000 E1.90000
G1 X124.113 Y98.463 F540.000 E1.92107
G1 X124.393 Y98.333 E1.94215
G1 X124.692 Y98.253 E1.96322
G1 X125.000 Y98.226 E1.98430
G1 X125.308 Y98.253 E2.00537
G1 X125.607 Y98.333 E2.02645
G1 X125.887 Y98.463 E2.04752
G1 X126.140 Y98.641 E2.06860
G1 X126.359 Y98.860 E2.08967
G1 X126.537 Y99.113 E2.11075
G1 X126.667 Y99.393 E2.13182
G1 X126.747 Y99.692 E2.15290
G1 X126.770 Y100.043 E2.17689
G1 X126.747 Y100.308 E2.19500
G1 X126.667 Y100.607 E2.21608
G1 X126.537 Y100.887 E2.23715
G1 X126.359 Y101.140 E2.25823
G1 X126.140 Y101.359 E2.27930
G1 X125.887 Y101.537 E2.30038
G1 X125.607 Y101.667 E2.32145
G1 X125.308 Y101.747 E2.34253
G1 X125.000 Y101.774 E2.36360
G1 X124.692 Y101.747 E2.38468
G1 X124.393 Y101.667 E2.40575
G1 X124.113 Y101.537 E2.42682
G1 X123.860 Y101.359 E2.44790
G1 X123.641 Y101.140 E2.46898
G1 X123.463 Y100.887 E2.49005
G1 X123.333 Y100.607 E2.51112
G1 X123.253 Y100.308 E2.53220
G1 X123.226 Y100.000 E2.55327
G1 X123.253 Y99.692 E2.57435
G1 X123.333 Y99.393 E2.59542
G1 X123.463 Y99.113 E2.61650
G1 X123.641 Y98.860 E2.63757
G1 X123.802 Y98.699 E2.65306
G1 X124.147 Y98.755 F7800.000
G1 F1800.000 E0.75306
G92 E0
G1 X101.359 Y76.140 F7800.000
G1 F1800.000 E1.90000
G1 X101.140 Y76.359 F540.000 E1.92107
G1 X100.887 Y76.537 E1.94215
G1 X100.607 Y76.667 E1.96322
G1 X100.308 Y76.747 E1.98430
G1 X100.000 Y76.774 E2.00537
G1 X99.692 Y76.747 E2.02645
G1 X99.393 Y76.667 E2.04752
G1 X99.113 Y76.537 E2.06860
G1 X98.860 Y76.359 E2.08967
G1 X98.641 Y76.140 E2.11075
G1 X98.445 Y75.848 E2.13475
G1 X98.333 Y75.607 E2.15285
G1 X98.253 Y75.308 E2.17393
G1 X98.226 Y75.000 E2.19501
G1 X98.253 Y74.692 E2.21608
G1 X98.333 Y74.393 E2.23715
G1 X98.463 Y74.113 E2.25823
G1 X98.641 Y73.860 E2.27930
G1 X98.860 Y73.641 E2.30038
G1 X99.113 Y73.463 E2.32145
G1 X99.393 Y73.333 E2.34253
G1 X99.735 Y73.249 E2.36653
G1 X100.000 Y73.226 E2.38464
G1 X100.308 Y73.253 E2.40571
G1 X100.607 Y73.333 E2.42678
G1 X100.887 Y73.463 E2.44786
G1 X101.140 Y73.641 E2.46893
G1 X101.359 Y73.860 E2.49001
G1 X101.537 Y74.113 E2.51108
G1 X101.667 Y74.393 E2.53216
G1 X101.747 Y74.692 E2.55323
G1 X101.774 Y75.000 E2.57431
G1 X101.747 Y75.308 E2.59538
G1 X101.667 Y75.607 E2.61646
G1 X101.537 Y75.887 E2.63753
G1 X101.406 Y76.073 E2.65302
G1 X101.056 Y76.078 F7800.000
G1 F1800.000 E0.75302
G92 E0
G1 X76.359 Y98.860 F7800.000
G1 F1800.000 E1.90000
G1 X76.537 Y99.113 F540.000 E1.92107
G1 X76.667 Y99.393 E1.94215
G1 X76.747 Y99.692 E1.96322
G1 X76.774 Y100.000 E1.98430
G1 X76.747 Y100.308 E2.00537
G1 X76.667 Y100.607 E2.02645
G1 X76.537 Y100.887 E2.04752
G1 X76.359 Y101.140 E2.06860
G1 X76.140 Y101.359 E2.08967
G1 X75.887 Y101.537 E2.11075
G1 X75.607 Y101.667 E2.13182
G1 X75.308 Y101.747 E2.15289
G1 X75.000 Y101.774 E2.17397
G1 X74.692 Y101.747 E2.19504
G1 X74.393 Y101.667 E2.21612
G1 X74.113 Y101.537 E2.23719
G1 X73.860 Y101.359 E2.25827
G1 X73.641 Y101.140 E2.27934
G1 X73.463 Y100.887 E2.30042
G1 X73.333 Y100.607 E2.32149
G1 X73.253 Y100.308 E2.34257
G1 X73.226 Y100.000 E2.36364
G1 X73.264 Y99.650 E2.38764
G1 X73.333 Y99.393 E2.40575
G1 X73.463 Y99.113 E2.42682
G1 X73.641 Y98.860 E2.44790
G1 X73.860 Y98.641 E2.46897
G1 X74.113 Y98.463 E2.49005
G1 X74.393 Y98.333 E2.51112
G1 X74.692 Y98.253 E2.53220
G1 X75.000 Y98.226 E2.55327
G1 X75.308 Y98.253 E2.57435
G1 X75.607 Y98.333 E2.59542
G1 X75.887 Y98.463 E2.61650
G1 X76.140 Y98.641 E2.63757
G1 X76.301 Y98.802 E2.65306
G1 X76.245 Y99.147 F7800.000
G1 F1800.000 E0.75306
G92 E0
G1 X98.860 Y123.641 F7800.000
G1 F1800.000 E1.90000
G1 X99.113 Y123.463 F540.000 E1.92107
G1 X99.393 Y123.333 E1.94215
G1 X99.692 Y123.253 E1.96322
G1 X100.000 Y123.226 E1.98430
G1 X100.308 Y123.253 E2.00537
G1 X100.607 Y123.333 E2.02645
G1 X100.887 Y123.463 E2.04752
G1 X101.140 Y123.641 E2.06859
G1 X101.359 Y123.860 E2.08967
G1 X101.537 Y124.113 E2.11074
G1 X101.667 Y124.393 E2.13182
G1 X101.747 Y124.692 E2.15289
G1 X101.774 Y125.000 E2.17397
G1 X101.747 Y125.308 E2.19504
G1 X101.667 Y125.607 E2.21612
G1 X101.537 Y125.887 E2.23719
G1 X101.359 Y126.140 E2.25826
G1 X101.140 Y126.359 E2.27934
G1 X100.887 Y126.537 E2.30041
G1 X100.607 Y126.667 E2.32149
G1 X100.308 Y126.747 E2.34257
G1 X99.957 Y126.770 E2.36656
G1 X99.692 Y126.747 E2.38467
G1 X99.393 Y126.667 E2.40575
G1 X99.113 Y126.537 E2.42682
G1 X98.860 Y126.359 E2.44790
G1 X98.641 Y126.140 E2.46897
G1 X98.463 Y125.887 E2.49005
G1 X98.333 Y125.607 E2.51112
G1 X98.253 Y125.308 E2.53220
G1 X98.226 Y125.000 E2.55327
G1 X98.253 Y124.692 E2.57435
G1 X98.333 Y124.393 E2.59542
G1 X98.463 Y124.113 E2.61649
G1 X98.641 Y123.860 E2.63757
G1 X98.802 Y123.699 E2.65306
G1 X99.147 Y123.755 F7800.000
G1 X102.244 Y75.829
G1 X103.868 Y96.132 F540.000 E4.04098
G1 X124.171 Y97.756 E5.42889
G1 X123.507 Y98.221 E5.48413
G1 X123.221 Y98.507 E5.51172
G1 X122.989 Y98.839 E5.53930
G1 X122.817 Y99.206 E5.56689
G1 X122.713 Y99.597 E5.59448
G1 X122.677 Y100.000 E5.62207
G1 X122.713 Y100.403 E5.64966
G1 X122.817 Y100.794 E5.67725
G1 X122.989 Y101.161 E5.70484
G1 X123.221 Y101.493 E5.73242
G1 X123.507 Y101.779 E5.76002
G1 X124.171 Y102.244 E5.81525
G1 X103.868 Y103.868 E7.20317
G1 X102.244 Y124.171 E8.59108
G1 X101.779 Y123.507 E8.64632
G1 X101.493 Y123.221 E8.67391
G1 X101.161 Y122.989 E8.70150
G1 X100.794 Y122.817 E8.72908
G1 X100.403 Y122.713 E8.75667
G1 X100.000 Y122.677 E8.78426
G1 X99.597 Y122.713 E8.81185
G1 X99.206 Y122.817 E8.83944
G1 X98.839 Y122.989 E8.86703
G1 X98.507 Y123.221 E8.89461
G1 X98.221 Y123.507 E8.92221
G1 X97.756 Y124.171 E8.97744
G1 X96.150 Y104.102 E10.34938
G1 X75.818 Y102.252 E11.74060
G1 X76.493 Y101.779 E11.79671
G1 X76.779 Y101.493 E11.82430
G1 X77.011 Y101.161 E11.85189
G1 X77.183 Y100.794 E11.87948
G1 X77.287 Y100.403 E11.90707
G1 X77.323 Y100.000 E11.93465
G1 X77.287 Y99.597 E11.96224
G1 X77.206 Y99.294 E11.98361
G1 X77.183 Y99.206 E11.98983
G1 X77.011 Y98.839 E12.01742
G1 X76.779 Y98.507 E12.04501
G1 X76.493 Y98.221 E12.07260
G1 X75.829 Y97.756 E12.12784
G1 X96.132 Y96.132 E13.51575
G1 X97.756 Y75.829 E14.90367
G1 X98.221 Y76.493 E14.95890
G1 X98.507 Y76.779 E14.98649
G1 X98.839 Y77.011 E15.01408
G1 X99.206 Y77.183 E15.04167
G1 X99.597 Y77.287 E15.06926
G1 X100.000 Y77.323 E15.09685
G1 X100.403 Y77.287 E15.12444
G1 X100.706 Y77.206 E15.14580
G1 X100.794 Y77.183 E15.15203
G1 X101.161 Y77.011 E15.17962
G1 X101.493 Y76.779 E15.20720
G1 X101.779 Y76.493 E15.23479
G1 X102.197 Y75.896 E15.28444
G1 X102.728 Y75.023 F7800.000
G1 X104.376 Y95.624 F540.000 E16.69278
G1 X125.473 Y97.316 E18.13505
G1 X125.932 Y97.439 E18.16743
G1 X126.363 Y97.639 E18.19981
G1 X126.752 Y97.912 E18.23219
G1 X127.088 Y98.248 E18.26456
G1 X127.361 Y98.637 E18.29694
G1 X127.561 Y99.068 E18.32932
G1 X127.684 Y99.527 E18.36169
G1 X127.726 Y100.000 E18.39407
G1 X127.684 Y100.473 E18.42645
G1 X127.561 Y100.932 E18.45883
G1 X127.361 Y101.363 E18.49120
G1 X127.088 Y101.752 E18.52358
G1 X126.752 Y102.088 E18.55596
G1 X126.363 Y102.361 E18.58834
G1 X125.932 Y102.561 E18.62071
G1 X125.473 Y102.684 E18.65309
G1 X104.376 Y104.376 E20.09536
G1 X102.684 Y125.473 E21.53764
G1 X102.561 Y125.932 E21.57001
G1 X102.361 Y126.363 E21.60239
G1 X102.088 Y126.752 E21.63477
G1 X101.752 Y127.088 E21.66715
G1 X101.363 Y127.361 E21.69952
G1 X100.932 Y127.561 E21.73190
G1 X100.473 Y127.684 E21.76428
G1 X100.000 Y127.726 E21.79665
G1 X99.527 Y127.684 E21.82903
G1 X99.068 Y127.561 E21.86141
G1 X98.637 Y127.361 E21.89379
G1 X98.248 Y127.088 E21.92616
G1 X97.912 Y126.752 E21.95854
G1 X97.639 Y126.363 E21.99092
G1 X97.439 Y125.932 E22.02330
G1 X97.316 Y125.473 E22.05567
G1 X95.642 Y104.605 E23.48232
G1 X74.527 Y102.684 E24.92716
G1 X74.068 Y102.561 E24.95954
G1 X73.637 Y102.361 E24.99191
G1 X73.248 Y102.088 E25.02429
G1 X72.912 Y101.752 E25.05667
G1 X72.639 Y101.363 E25.08905
G1 X72.439 Y100.932 E25.12142
G1 X72.316 Y100.473 E25.15380
G1 X72.274 Y100.000 E25.18618
G1 X72.316 Y99.527 E25.21856
G1 X72.439 Y99.068 E25.25093
G1 X72.639 Y98.637 E25.28331
G1 X72.912 Y98.248 E25.31569
G1 X73.248 Y97.912 E25.34807
G1 X73.637 Y97.639 E25.38044
G1 X74.068 Y97.439 E25.41282
G1 X74.527 Y97.316 E25.44520
G1 X95.624 Y95.624 E26.88747
G1 X97.272 Y75.023 E28.29581
G1 X97.316 Y74.527 E28.32974
G1 X97.439 Y74.068 E28.36212
G1 X97.639 Y73.637 E28.39450
G1 X97.912 Y73.248 E28.42687
G1 X98.248 Y72.912 E28.45925
G1 X98.637 Y72.639 E28.49163
G1 X99.068 Y72.439 E28.52401
G1 X99.527 Y72.316 E28.55638
G1 X100.000 Y72.274 E28.58876
G1 X100.473 Y72.316 E28.62114
G1 X100.932 Y72.439 E28.65352
G1 X101.363 Y72.639 E28.68589
G1 X101.752 Y72.912 E28.71827
G1 X102.088 Y73.248 E28.75065
G1 X102.361 Y73.637 E28.78303
G1 X102.561 Y74.068 E28.81540
G1 X102.684 Y74.527 E28.84778
G1 X102.721 Y74.941 E28.87613
G1 X102.279 Y75.334 F7800.000
G1 X101.949 Y77.103
G1 X101.855 Y77.009 F1080.000 E28.88522
G1 X101.398 Y77.329 E28.92339
G1 X102.016 Y77.947 E28.98324
G1 X102.084 Y78.791 E29.04122
G1 X100.866 Y77.573 E29.15913
G1 X100.218 Y77.701 E29.20440
G1 X102.151 Y79.635 E29.39166
G1 X102.219 Y80.479 E29.44963
G1 X99.379 Y77.639 E29.72463
G1 X98.052 Y77.089 E29.82300
G1 X102.286 Y81.323 E30.23304
G1 X102.354 Y82.167 E30.29101
G1 X97.995 Y77.807 E30.71316
G1 X97.937 Y78.526 E30.76254
G1 X102.421 Y83.011 E31.19679
G1 X102.489 Y83.855 E31.25477
G1 X97.880 Y79.245 E31.70113
G1 X97.822 Y79.964 E31.75052
G1 X102.556 Y84.698 E32.20898
G1 X102.624 Y85.542 E32.26696
G1 X97.765 Y80.683 E32.73753
G1 X97.707 Y81.402 E32.78692
G1 X102.692 Y86.386 E33.26960
G1 X102.759 Y87.230 E33.32758
G1 X97.650 Y82.121 E33.82237
G1 X97.592 Y82.840 E33.87176
G1 X102.827 Y88.074 E34.37866
G1 X102.894 Y88.918 E34.43663
G1 X97.535 Y83.559 E34.95564
G1 X97.477 Y84.278 E35.00503
G1 X102.962 Y89.762 E35.53614
G1 X103.029 Y90.606 E35.59412
G1 X97.420 Y84.997 E36.13734
G1 X97.362 Y85.716 E36.18673
G1 X103.097 Y91.450 E36.74206
G1 X103.164 Y92.294 E36.80003
G1 X97.305 Y86.435 E37.36747
G1 X97.247 Y87.153 E37.41686
G1 X103.232 Y93.138 E37.99641
G1 X103.299 Y93.982 E38.05438
G1 X97.190 Y87.872 E38.64604
G1 X97.132 Y88.591 E38.69542
G1 X103.367 Y94.826 E39.29919
G1 X103.434 Y95.670 E39.35716
G1 X97.075 Y89.310 E39.97303
G1 X97.017 Y90.029 E40.02242
G1 X109.971 Y102.983 E41.27688
G1 X109.252 Y103.040 E41.32627
G1 X96.960 Y90.748 E42.51668
G1 X96.902 Y91.467 E42.56607
