; generated by Slic3r 0.9.10b on 2013-09-25 at 07:06:53

; layer_height = 0.3
; perimeters = 2
; top_solid_layers = 3
; bottom_solid_layers = 3
; fill_density = 0.3
; perimeter_speed = 30
; infill_speed = 60
; travel_speed = 130
; nozzle_diameter = 0.35
; filament_diameter = 1.75
; extrusion_multiplier = 1
; perimeters extrusion width = 0.37mm
; infill extrusion width = 0.37mm
; solid infill extrusion width = 0.37mm
; top infill extrusion width = 0.37mm
; first layer extrusion width = 0.60mm

G21 ; set units to millimeters
M107
M190 S65 ; wait for bed temperature to be reached
M104 S180 ; set temperature
G28 ; home all axes
M109 S180 ; wait for temperature to be reached
G90 ; use absolute coordinates
G92 E0
M82 ; use absolute distances for extrusion
G1 F1800.000 E-1.90000
G92 E0
G1 Z0.300 F7800.000
G1 X65.290 Y64.560
G1 F1800.000 E1.90000
G1 X65.750 Y64.140 F540.000 E1.94245
G1 X70.640 Y60.040 E2.37730
G1 X71.960 Y59.090 E2.48812
G1 X72.500 Y58.750 E2.53161
G1 X78.030 Y55.560 E2.96664
G1 X78.540 Y55.290 E3.00597
G1 X79.470 Y54.850 E3.07607
G1 X80.080 Y54.590 E3.12126
G1 X86.080 Y52.410 E3.55627
G1 X87.620 Y51.970 E3.66541
G1 X88.260 Y51.830 E3.71006
G1 X94.550 Y50.720 E4.14530
G1 X95.230 Y50.630 E4.19205
G1 X96.250 Y50.550 E4.26177
G1 X96.800 Y50.530 E4.29927
G1 X103.190 Y50.530 E4.73471
G1 X103.740 Y50.550 E4.77221
G1 X104.760 Y50.630 E4.84193
G1 X105.440 Y50.720 E4.88867
G1 X111.730 Y51.830 E5.32392
G1 X112.370 Y51.970 E5.36856
G1 X113.910 Y52.410 E5.47771
G1 X119.910 Y54.590 E5.91272
G1 X120.480 Y54.830 E5.95486
G1 X121.340 Y55.230 E6.01950
G1 X121.870 Y55.500 E6.06003
G1 X127.490 Y58.750 E6.50242
G1 X128.030 Y59.090 E6.54591
G1 X129.350 Y60.040 E6.65673
G1 X134.240 Y64.140 E7.09158
G1 X134.700 Y64.560 E7.13403
G1 X135.430 Y65.290 E7.20438
G1 X135.850 Y65.750 E7.24682
G1 X139.950 Y70.640 E7.68167
G1 X140.900 Y71.960 E7.79250
G1 X141.240 Y72.500 E7.83598
G1 X144.430 Y78.030 E8.27102
G1 X144.700 Y78.540 E8.31034
G1 X145.140 Y79.470 E8.38045
G1 X145.400 Y80.080 E8.42564
G1 X147.580 Y86.080 E8.86065
G1 X148.020 Y87.620 E8.96979
G1 X148.160 Y88.260 E9.01443
G1 X149.270 Y94.550 E9.44968
G1 X149.360 Y95.230 E9.49642
G1 X149.440 Y96.250 E9.56614
G1 X149.460 Y96.800 E9.60365
G1 X149.460 Y103.190 E10.03909
G1 X149.440 Y103.740 E10.07659
G1 X149.360 Y104.760 E10.14631
G1 X149.270 Y105.440 E10.19305
G1 X148.160 Y111.730 E10.62830
G1 X148.020 Y112.370 E10.67294
G1 X147.580 Y113.910 E10.78208
G1 X145.400 Y119.910 E11.21709
G1 X145.140 Y120.520 E11.26228
G1 X144.700 Y121.450 E11.33239
G1 X144.430 Y121.960 E11.37171
G1 X141.240 Y127.490 E11.80675
G1 X140.900 Y128.030 E11.85023
G1 X139.950 Y129.350 E11.96106
G1 X135.850 Y134.240 E12.39591
G1 X135.430 Y134.700 E12.43836
G1 X134.700 Y135.430 E12.50871
G1 X134.240 Y135.850 E12.55115
G1 X129.350 Y139.950 E12.98600
G1 X128.030 Y140.900 E13.09683
G1 X127.490 Y141.240 E13.14031
G1 X121.960 Y144.430 E13.57535
G1 X121.450 Y144.700 E13.61467
G1 X120.520 Y145.140 E13.68478
G1 X119.910 Y145.400 E13.72997
G1 X113.910 Y147.580 E14.16498
G1 X112.370 Y148.020 E14.27412
G1 X111.730 Y148.160 E14.31876
G1 X105.440 Y149.270 E14.75401
G1 X104.760 Y149.360 E14.80075
G1 X103.740 Y149.440 E14.87047
G1 X103.190 Y149.460 E14.90798
G1 X96.800 Y149.460 E15.34341
G1 X96.250 Y149.440 E15.38092
G1 X95.230 Y149.360 E15.45064
G1 X94.550 Y149.270 E15.49738
G1 X88.260 Y148.160 E15.93263
G1 X87.620 Y148.020 E15.97727
G1 X86.080 Y147.580 E16.08641
G1 X80.080 Y145.400 E16.52142
G1 X79.470 Y145.140 E16.56661
G1 X78.540 Y144.700 E16.63672
G1 X78.030 Y144.430 E16.67604
G1 X72.500 Y141.240 E17.11108
G1 X71.960 Y140.900 E17.15456
G1 X70.640 Y139.950 E17.26539
G1 X65.750 Y135.850 E17.70024
G1 X65.290 Y135.430 E17.74268
G1 X64.560 Y134.700 E17.81303
G1 X64.140 Y134.240 E17.85548
G1 X60.040 Y129.350 E18.29033
G1 X59.090 Y128.030 E18.40116
G1 X58.750 Y127.490 E18.44464
G1 X55.560 Y121.960 E18.87968
G1 X55.290 Y121.450 E18.91900
G1 X54.850 Y120.520 E18.98911
G1 X54.590 Y119.910 E19.03429
G1 X52.410 Y113.910 E19.46931
G1 X51.970 Y112.370 E19.57845
G1 X51.830 Y111.730 E19.62309
G1 X50.720 Y105.440 E20.05834
G1 X50.630 Y104.760 E20.10508
G1 X50.550 Y103.740 E20.17480
G1 X50.530 Y103.190 E20.21230
G1 X50.530 Y96.800 E20.64774
G1 X50.550 Y96.250 E20.68525
G1 X50.630 Y95.230 E20.75497
G1 X50.720 Y94.550 E20.80171
G1 X51.830 Y88.260 E21.23696
G1 X51.970 Y87.620 E21.28160
G1 X52.410 Y86.080 E21.39074
G1 X54.590 Y80.080 E21.82575
G1 X54.850 Y79.470 E21.87094
G1 X55.290 Y78.540 E21.94105
G1 X55.560 Y78.030 E21.98037
G1 X58.750 Y72.500 E22.41541
G1 X59.090 Y71.960 E22.45889
G1 X60.040 Y70.640 E22.56972
G1 X64.140 Y65.750 E23.00457
G1 X64.560 Y65.290 E23.04701
G1 X65.232 Y64.618 E23.11178
G1 X65.680 Y64.950 F7800.000
G1 X66.100 Y64.560 F540.000 E23.15084
G1 X70.990 Y60.460 E23.58569
G1 X71.440 Y60.120 E23.62412
G1 X72.280 Y59.530 E23.69407
G1 X72.770 Y59.220 E23.73358
G1 X78.300 Y56.030 E24.16862
G1 X78.770 Y55.780 E24.20490
G1 X79.700 Y55.340 E24.27500
G1 X80.260 Y55.110 E24.31626
G1 X86.260 Y52.930 E24.75127
G1 X86.780 Y52.760 E24.78855
G1 X87.770 Y52.490 E24.85848
G1 X88.350 Y52.360 E24.89898
G1 X94.640 Y51.250 E25.33423
G1 X95.270 Y51.170 E25.37750
G1 X96.290 Y51.090 E25.44722
G1 X96.800 Y51.070 E25.48200
G1 X103.190 Y51.070 E25.91744
G1 X103.700 Y51.090 E25.95222
G1 X104.720 Y51.170 E26.02194
G1 X105.350 Y51.250 E26.06522
G1 X111.640 Y52.360 E26.50046
G1 X112.220 Y52.490 E26.54097
G1 X113.210 Y52.760 E26.61089
G1 X113.730 Y52.930 E26.64817
G1 X119.730 Y55.110 E27.08319
G1 X120.250 Y55.320 E27.12140
G1 X121.110 Y55.720 E27.18604
G1 X121.600 Y55.980 E27.22384
G1 X127.220 Y59.220 E27.66589
G1 X127.710 Y59.530 E27.70540
G1 X128.550 Y60.120 E27.77535
G1 X129.000 Y60.460 E27.81378
G1 X133.890 Y64.560 E28.24863
G1 X134.310 Y64.950 E28.28769
G1 X135.040 Y65.680 E28.35804
G1 X135.430 Y66.100 E28.39710
G1 X139.530 Y70.990 E28.83195
G1 X139.870 Y71.440 E28.87038
G1 X140.460 Y72.280 E28.94033
G1 X140.770 Y72.770 E28.97984
G1 X143.960 Y78.300 E29.41488
G1 X144.210 Y78.770 E29.45116
G1 X144.650 Y79.700 E29.52127
G1 X144.880 Y80.260 E29.56252
G1 X147.060 Y86.260 E29.99753
G1 X147.230 Y86.780 E30.03481
G1 X147.500 Y87.770 E30.10474
G1 X147.630 Y88.350 E30.14524
G1 X148.740 Y94.640 E30.58049
G1 X148.820 Y95.270 E30.62377
G1 X148.900 Y96.290 E30.69349
G1 X148.920 Y96.800 E30.72827
G1 X148.920 Y103.190 E31.16370
G1 X148.900 Y103.700 E31.19848
G1 X148.820 Y104.720 E31.26820
G1 X148.740 Y105.350 E31.31148
G1 X147.630 Y111.640 E31.74673
G1 X147.500 Y112.220 E31.78723
G1 X147.230 Y113.210 E31.85716
G1 X147.060 Y113.730 E31.89444
G1 X144.880 Y119.730 E32.32945
G1 X144.650 Y120.290 E32.37070
G1 X144.210 Y121.220 E32.44081
G1 X143.960 Y121.690 E32.47709
G1 X140.770 Y127.220 E32.91213
G1 X140.460 Y127.710 E32.95164
G1 X139.870 Y128.550 E33.02159
G1 X139.530 Y129.000 E33.06002
G1 X135.430 Y133.890 E33.49487
G1 X135.040 Y134.310 E33.53393
G1 X134.310 Y135.040 E33.60428
G1 X133.890 Y135.430 E33.64333
G1 X129.000 Y139.530 E34.07819
G1 X128.550 Y139.870 E34.11662
G1 X127.710 Y140.460 E34.18657
G1 X127.220 Y140.770 E34.22608
G1 X121.690 Y143.960 E34.66112
G1 X121.220 Y144.210 E34.69739
G1 X120.290 Y144.650 E34.76750
G1 X119.730 Y144.880 E34.80876
G1 X113.730 Y147.060 E35.24377
G1 X113.210 Y147.230 E35.28105
G1 X112.220 Y147.500 E35.35098
G1 X111.640 Y147.630 E35.39148
G1 X105.350 Y148.740 E35.82673
G1 X104.720 Y148.820 E35.87000
G1 X103.700 Y148.900 E35.93972
G1 X103.190 Y148.920 E35.97450
G1 X96.800 Y148.920 E36.40994
G1 X96.290 Y148.900 E36.44472
G1 X95.270 Y148.820 E36.51444
G1 X94.640 Y148.740 E36.55772
G1 X88.350 Y147.630 E36.99296
G1 X87.770 Y147.500 E37.03347
G1 X86.780 Y147.230 E37.10339
G1 X86.260 Y147.060 E37.14067
G1 X80.260 Y144.880 E37.57569
G1 X79.700 Y144.650 E37.61694
G1 X78.770 Y144.210 E37.68705
G1 X78.300 Y143.960 E37.72333
G1 X72.770 Y140.770 E38.15836
G1 X72.280 Y140.460 E38.19788
G1 X71.440 Y139.870 E38.26783
G1 X70.990 Y139.530 E38.30626
G1 X66.100 Y135.430 E38.74111
G1 X65.680 Y135.040 E38.78017
G1 X64.950 Y134.310 E38.85052
G1 X64.560 Y133.890 E38.88957
G1 X60.460 Y129.000 E39.32442
G1 X60.120 Y128.550 E39.36286
G1 X59.530 Y127.710 E39.43281
G1 X59.220 Y127.220 E39.47232
G1 X56.030 Y121.690 E39.90736
G1 X55.780 Y121.220 E39.94363
G1 X55.340 Y120.290 E40.01374
G1 X55.110 Y119.730 E40.05500
G1 X52.930 Y113.730 E40.49001
G1 X52.760 Y113.210 E40.52729
G1 X52.490 Y112.220 E40.59721
G1 X52.360 Y111.640 E40.63772
G1 X51.250 Y105.350 E41.07297
G1 X51.170 Y104.720 E41.11624
G1 X51.090 Y103.700 E41.18596
G1 X51.070 Y103.190 E41.22074
G1 X51.070 Y96.800 E41.65618
G1 X51.090 Y96.290 E41.69096
G1 X51.170 Y95.270 E41.76068
G1 X51.250 Y94.640 E41.80395
G1 X52.360 Y88.350 E42.23920
G1 X52.490 Y87.770 E42.27971
G1 X52.760 Y86.780 E42.34963
G1 X52.930 Y86.260 E42.38691
G1 X55.110 Y80.260 E42.82193
G1 X55.340 Y79.700 E42.86318
G1 X55.780 Y78.770 E42.93329
G1 X56.030 Y78.300 E42.96956
G1 X59.220 Y72.770 E43.40460
G1 X59.530 Y72.280 E43.44411
G1 X60.120 Y71.440 E43.51406
G1 X60.460 Y70.990 E43.55250
G1 X64.560 Y66.100 E43.98735
G1 X64.950 Y65.680 E44.02640
G1 X65.622 Y65.008 E44.09117
G1 F1800.000 E42.19117
G92 E0
G1 X126.654 Y103.839 F7800.000
G1 F1800.000 E1.90000
G1 X126.886 Y103.507 F540.000 E1.92759
G1 X127.172 Y103.221 E1.95518
G1 X127.504 Y102.989 E1.98277
G1 X127.871 Y102.817 E2.01036
G1 X128.262 Y102.713 E2.03795
G1 X128.665 Y102.677 E2.06553
G1 X129.069 Y102.713 E2.09312
G1 X129.460 Y102.817 E2.12071
G1 X129.827 Y102.989 E2.14830
G1 X130.158 Y103.221 E2.17590
G1 X130.445 Y103.507 E2.20348
G1 X130.677 Y103.839 E2.23107
G1 X130.848 Y104.206 E2.25866
G1 X130.953 Y104.597 E2.28625
G1 X130.988 Y105.000 E2.31383
G1 X130.953 Y105.403 E2.34143
G1 X130.848 Y105.794 E2.36901
G1 X130.677 Y106.161 E2.39660
G1 X130.445 Y106.493 E2.42419
G1 X130.158 Y106.779 E2.45178
G1 X129.827 Y107.011 E2.47937
G1 X129.460 Y107.183 E2.50696
G1 X129.372 Y107.206 E2.51318
G1 X129.069 Y107.287 E2.53454
G1 X128.665 Y107.323 E2.56214
G1 X128.262 Y107.287 E2.58972
G1 X127.871 Y107.183 E2.61732
G1 X127.504 Y107.011 E2.64490
G1 X127.172 Y106.779 E2.67249
G1 X126.886 Y106.493 E2.70008
G1 X126.654 Y106.161 E2.72767
G1 X126.483 Y105.794 E2.75525
G1 X126.378 Y105.403 E2.78284
G1 X126.343 Y105.000 E2.81044
G1 X126.378 Y104.597 E2.83802
G1 X126.483 Y104.206 E2.86562
G1 X126.619 Y103.913 E2.88762
G1 X127.129 Y104.113 F7800.000
G1 X127.306 Y103.860 F540.000 E2.90869
G1 X127.525 Y103.641 E2.92977
G1 X127.778 Y103.463 E2.95084
G1 X128.059 Y103.333 E2.97192
G1 X128.357 Y103.253 E2.99299
G1 X128.665 Y103.226 E3.01407
G1 X128.973 Y103.253 E3.03514
G1 X129.272 Y103.333 E3.05622
G1 X129.552 Y103.463 E3.07729
G1 X129.806 Y103.641 E3.09837
G1 X130.025 Y103.860 E3.11944
G1 X130.202 Y104.113 E3.14051
G1 X130.333 Y104.393 E3.16159
G1 X130.413 Y104.692 E3.18267
G1 X130.440 Y105.000 E3.20374
G1 X130.413 Y105.308 E3.22482
G1 X130.333 Y105.607 E3.24589
G1 X130.202 Y105.887 E3.26696
G1 X130.025 Y106.140 E3.28804
G1 X129.806 Y106.359 E3.30911
G1 X129.552 Y106.537 E3.33019
G1 X129.230 Y106.678 E3.35419
G1 X128.973 Y106.747 E3.37230
G1 X128.665 Y106.774 E3.39337
G1 X128.357 Y106.747 E3.41445
G1 X128.059 Y106.667 E3.43552
G1 X127.778 Y106.537 E3.45660
G1 X127.525 Y106.359 E3.47767
G1 X127.306 Y106.140 E3.49874
G1 X127.129 Y105.887 E3.51982
G1 X126.998 Y105.607 E3.54089
G1 X126.918 Y105.308 E3.56197
G1 X126.891 Y105.000 E3.58304
G1 X126.918 Y104.692 E3.60412
G1 X126.998 Y104.393 E3.62519
G1 X127.094 Y104.187 E3.64068
G1 X127.438 Y104.122 F7800.000
G1 X128.262 Y97.287
G1 X127.871 Y97.183 F540.000 E3.66828
G1 X127.504 Y97.011 E3.69586
G1 X127.172 Y96.779 E3.72344
G1 X126.886 Y96.493 E3.75104
G1 X126.654 Y96.161 E3.77863
G1 X126.615 Y96.079 E3.78485
G1 X126.483 Y95.794 E3.80621
G1 X126.378 Y95.403 E3.83380
G1 X126.343 Y95.000 E3.86140
G1 X126.378 Y94.597 E3.88898
G1 X126.483 Y94.206 E3.91658
G1 X126.654 Y93.839 E3.94416
G1 X126.886 Y93.507 E3.97175
G1 X126.951 Y93.442 E3.97797
G1 X127.172 Y93.221 E3.99934
G1 X127.504 Y92.989 E4.02693
G1 X127.871 Y92.817 E4.05452
G1 X128.262 Y92.713 E4.08211
G1 X128.665 Y92.677 E4.10969
G1 X129.069 Y92.713 E4.13728
G1 X129.460 Y92.817 E4.16487
G1 X129.827 Y92.989 E4.19246
G1 X129.901 Y93.041 E4.19869
G1 X130.158 Y93.221 E4.22005
G1 X130.445 Y93.507 E4.24764
G1 X130.677 Y93.839 E4.27523
G1 X130.848 Y94.206 E4.30282
G1 X130.953 Y94.597 E4.33042
G1 X130.988 Y95.000 E4.35799
G1 X130.953 Y95.403 E4.38559
G1 X130.848 Y95.794 E4.41317
G1 X130.677 Y96.161 E4.44076
G1 X130.445 Y96.493 E4.46835
G1 X130.158 Y96.779 E4.49594
G1 X129.827 Y97.011 E4.52353
G1 X129.460 Y97.183 E4.55112
G1 X129.069 Y97.287 E4.57871
G1 X128.665 Y97.323 E4.60630
G1 X128.344 Y97.295 E4.62830
G1 X128.357 Y96.747 F7800.000
G1 X128.059 Y96.667 F540.000 E4.64938
G1 X127.778 Y96.537 E4.67045
G1 X127.494 Y96.328 E4.69445
G1 X127.306 Y96.140 E4.71256
G1 X127.129 Y95.887 E4.73363
G1 X126.998 Y95.607 E4.75471
G1 X126.918 Y95.308 E4.77578
G1 X126.891 Y95.000 E4.79686
G1 X126.918 Y94.692 E4.81793
G1 X126.998 Y94.393 E4.83901
G1 X127.129 Y94.113 E4.86008
G1 X127.337 Y93.829 E4.88408
G1 X127.525 Y93.641 E4.90219
G1 X127.778 Y93.463 E4.92327
G1 X128.059 Y93.333 E4.94434
G1 X128.357 Y93.253 E4.96542
G1 X128.665 Y93.226 E4.98649
G1 X128.973 Y93.253 E5.00757
G1 X129.272 Y93.333 E5.02864
G1 X129.588 Y93.488 E5.05264
G1 X129.806 Y93.641 E5.07075
G1 X130.024 Y93.860 E5.09182
G1 X130.202 Y94.113 E5.11290
G1 X130.333 Y94.393 E5.13397
G1 X130.413 Y94.692 E5.15505
G1 X130.440 Y95.000 E5.17612
G1 X130.413 Y95.308 E5.19720
G1 X130.333 Y95.607 E5.21827
G1 X130.202 Y95.887 E5.23935
G1 X130.025 Y96.140 E5.26042
G1 X129.806 Y96.359 E5.28150
G1 X129.552 Y96.537 E5.30257
G1 X129.272 Y96.667 E5.32364
G1 X128.973 Y96.747 E5.34472
G1 X128.665 Y96.774 E5.36579
G1 X128.439 Y96.754 E5.38128
G1 X128.260 Y96.454 F7800.000
G1 F1800.000 E3.48128
G92 E0
G1 X106.493 Y73.114 F7800.000
G1 F1800.000 E1.90000
G1 X106.161 Y73.346 F540.000 E1.92759
G1 X105.794 Y73.517 E1.95517
G1 X105.403 Y73.622 E1.98276
G1 X105.000 Y73.657 E2.01036
G1 X104.909 Y73.649 E2.01658
G1 X104.597 Y73.622 E2.03794
G1 X104.206 Y73.517 E2.06554
G1 X103.839 Y73.346 E2.09312
G1 X103.507 Y73.114 E2.12071
G1 X103.221 Y72.828 E2.14830
G1 X102.989 Y72.496 E2.17589
G1 X102.817 Y72.129 E2.20348
G1 X102.713 Y71.738 E2.23107
G1 X102.677 Y71.335 E2.25866
G1 X102.713 Y70.931 E2.28625
G1 X102.817 Y70.540 E2.31384
G1 X102.989 Y70.173 E2.34142
G1 X103.221 Y69.842 E2.36901
G1 X103.507 Y69.555 E2.39661
G1 X103.839 Y69.323 E2.42419
G1 X104.206 Y69.152 E2.45178
G1 X104.597 Y69.047 E2.47937
G1 X105.000 Y69.012 E2.50696
G1 X105.403 Y69.047 E2.53455
G1 X105.794 Y69.152 E2.56214
G1 X106.161 Y69.323 E2.58972
G1 X106.493 Y69.555 E2.61731
G1 X106.779 Y69.842 E2.64491
G1 X107.011 Y70.173 E2.67249
G1 X107.183 Y70.540 E2.70008
G1 X107.287 Y70.931 E2.72767
G1 X107.323 Y71.335 E2.75526
G1 X107.287 Y71.738 E2.78284
G1 X107.183 Y72.129 E2.81044
G1 X107.011 Y72.496 E2.83803
G1 X106.779 Y72.828 E2.86561
G1 X106.551 Y73.056 E2.88762
G1 X106.140 Y72.694 F7800.000
G1 X105.887 Y72.871 F540.000 E2.90869
G1 X105.607 Y73.002 E2.92977
G1 X105.308 Y73.082 E2.95084
G1 X104.957 Y73.105 E2.97484
G1 X104.692 Y73.082 E2.99295
G1 X104.393 Y73.002 E3.01403
G1 X104.113 Y72.871 E3.03510
G1 X103.860 Y72.694 E3.05618
G1 X103.641 Y72.475 E3.07725
G1 X103.463 Y72.222 E3.09833
G1 X103.333 Y71.941 E3.11940
G1 X103.253 Y71.643 E3.14048
G1 X103.226 Y71.335 E3.16155
G1 X103.253 Y71.027 E3.18263
G1 X103.333 Y70.728 E3.20370
G1 X103.463 Y70.448 E3.22477
G1 X103.641 Y70.194 E3.24585
G1 X103.860 Y69.975 E3.26692
G1 X104.113 Y69.798 E3.28800
G1 X104.393 Y69.667 E3.30907
G1 X104.692 Y69.587 E3.33015
G1 X105.000 Y69.560 E3.35122
G1 X105.308 Y69.587 E3.37230
G1 X105.607 Y69.667 E3.39337
G1 X105.887 Y69.798 E3.41445
G1 X106.140 Y69.975 E3.43552
G1 X106.359 Y70.194 E3.45660
G1 X106.537 Y70.448 E3.47767
G1 X106.667 Y70.728 E3.49874
G1 X106.747 Y71.027 E3.51982
G1 X106.774 Y71.335 E3.54089
G1 X106.747 Y71.643 E3.56197
G1 X106.667 Y71.941 E3.58304
G1 X106.537 Y72.222 E3.60412
G1 X106.359 Y72.475 E3.62519
G1 X106.198 Y72.636 E3.64068
G1 X105.853 Y72.580 F7800.000
G1 X106.683 Y75.059
G1 X109.881 Y76.144 F540.000 E3.87084
G1 X112.911 Y77.638 E4.10101
