; generated by Slic3r 0.9.9-dev on 2013-09-25 at 06:46:43

; layer_height = 0.4
; perimeters = 3
; top_solid_layers = 3
; bottom_solid_layers = 3
; fill_density = 0.4
; perimeter_speed = 30
; infill_speed = 60
; travel_speed = 130
; nozzle_diameter = 0.5
; filament_diameter = 3
; extrusion_multiplier = 1
; perimeters extrusion width = 0.53mm
; infill extrusion width = 0.53mm
; solid infill extrusion width = 0.53mm
; top infill extrusion width = 0.53mm
; first layer extrusion width = 0.70mm

G21 ; set units to millimeters
M107
M104 S200 ; set temperature
G28 ; home all axes
G1 Z5 F5000 ; lift nozzle

M109 S200 ; wait for temperature to be reached
G90 ; use absolute coordinates
G92 E0
M82 ; use absolute distances for extrusion
G1 F1800.000 E-1.00000
G92 E0
G1 Z0.350 F7800.000
G1 X64.870 Y65.600
G1 F1800.000 E1.00000
G1 X65.600 Y64.870 F540.000 E1.03359
G1 X66.030 Y64.480 E1.05248
G1 X70.920 Y60.380 E1.26010
G1 X71.370 Y60.030 E1.27864
G1 X72.210 Y59.440 E1.31204
G1 X72.710 Y59.120 E1.33135
G1 X78.240 Y55.930 E1.53906
G1 X78.720 Y55.680 E1.55667
G1 X79.650 Y55.240 E1.59015
G1 X80.230 Y55.000 E1.61057
G1 X86.230 Y52.820 E1.81826
G1 X87.740 Y52.390 E1.86935
G1 X88.330 Y52.250 E1.88907
G1 X94.620 Y51.140 E2.09688
G1 X95.260 Y51.060 E2.11787
G1 X96.280 Y50.980 E2.15116
G1 X96.800 Y50.960 E2.16809
G1 X103.190 Y50.960 E2.37599
G1 X103.710 Y50.980 E2.39292
G1 X104.730 Y51.060 E2.42620
G1 X105.370 Y51.140 E2.44719
G1 X111.660 Y52.250 E2.65500
G1 X112.250 Y52.390 E2.67473
G1 X113.760 Y52.820 E2.72581
G1 X119.760 Y55.000 E2.93351
G1 X121.180 Y55.640 E2.98418
G1 X121.710 Y55.910 E3.00353
G1 X127.280 Y59.120 E3.21269
G1 X127.780 Y59.440 E3.23201
G1 X128.620 Y60.030 E3.26541
G1 X129.070 Y60.380 E3.28395
G1 X133.960 Y64.480 E3.49157
G1 X134.390 Y64.870 E3.51046
G1 X135.120 Y65.600 E3.54405
G1 X135.510 Y66.030 E3.56294
G1 X139.610 Y70.920 E3.77056
G1 X139.960 Y71.370 E3.78910
G1 X140.550 Y72.210 E3.82250
G1 X140.870 Y72.710 E3.84182
G1 X144.060 Y78.240 E4.04952
G1 X144.310 Y78.720 E4.06713
G1 X144.750 Y79.650 E4.10061
G1 X144.990 Y80.230 E4.12103
G1 X147.170 Y86.230 E4.32872
G1 X147.600 Y87.740 E4.37981
G1 X147.740 Y88.330 E4.39953
G1 X148.850 Y94.620 E4.60734
G1 X148.930 Y95.260 E4.62833
G1 X149.010 Y96.280 E4.66162
G1 X149.030 Y96.800 E4.67855
G1 X149.030 Y103.190 E4.88645
G1 X149.010 Y103.710 E4.90338
G1 X148.930 Y104.730 E4.93667
G1 X148.850 Y105.370 E4.95765
G1 X147.740 Y111.660 E5.16546
G1 X147.600 Y112.250 E5.18519
G1 X147.170 Y113.760 E5.23627
G1 X144.990 Y119.760 E5.44397
G1 X144.750 Y120.340 E5.46439
G1 X144.310 Y121.270 E5.49786
G1 X144.060 Y121.750 E5.51547
G1 X140.870 Y127.280 E5.72318
G1 X140.550 Y127.780 E5.74249
G1 X139.960 Y128.620 E5.77589
G1 X139.610 Y129.070 E5.79444
G1 X135.510 Y133.960 E6.00206
G1 X135.120 Y134.390 E6.02094
G1 X134.390 Y135.120 E6.05453
G1 X133.960 Y135.510 E6.07342
G1 X129.070 Y139.610 E6.28104
G1 X128.620 Y139.960 E6.29959
G1 X127.780 Y140.550 E6.33299
G1 X127.280 Y140.870 E6.35230
G1 X121.750 Y144.060 E6.56001
G1 X121.270 Y144.310 E6.57762
G1 X120.340 Y144.750 E6.61109
G1 X119.760 Y144.990 E6.63151
G1 X113.760 Y147.170 E6.83921
G1 X112.250 Y147.600 E6.89029
G1 X111.660 Y147.740 E6.91002
G1 X105.370 Y148.850 E7.11783
G1 X104.730 Y148.930 E7.13881
G1 X103.710 Y149.010 E7.17210
G1 X103.190 Y149.030 E7.18903
G1 X96.800 Y149.030 E7.39693
G1 X96.280 Y149.010 E7.41386
G1 X95.260 Y148.930 E7.44715
G1 X94.620 Y148.850 E7.46813
G1 X88.330 Y147.740 E7.67594
G1 X87.740 Y147.600 E7.69567
G1 X86.230 Y147.170 E7.74675
G1 X80.230 Y144.990 E7.95445
G1 X79.650 Y144.750 E7.97487
G1 X78.720 Y144.310 E8.00835
G1 X78.240 Y144.060 E8.02595
G1 X72.710 Y140.870 E8.23366
G1 X72.210 Y140.550 E8.25298
G1 X71.370 Y139.960 E8.28637
G1 X70.920 Y139.610 E8.30492
G1 X66.030 Y135.510 E8.51254
G1 X65.600 Y135.120 E8.53143
G1 X64.870 Y134.390 E8.56502
G1 X64.480 Y133.960 E8.58390
G1 X60.380 Y129.070 E8.79152
G1 X60.030 Y128.620 E8.81007
G1 X59.440 Y127.780 E8.84347
G1 X59.120 Y127.280 E8.86278
G1 X55.930 Y121.750 E9.07049
G1 X55.680 Y121.270 E9.08810
G1 X55.240 Y120.340 E9.12157
G1 X55.000 Y119.760 E9.14200
G1 X52.820 Y113.760 E9.34969
G1 X52.390 Y112.250 E9.40077
G1 X52.250 Y111.660 E9.42050
G1 X51.140 Y105.370 E9.62831
G1 X51.070 Y104.760 E9.64829
G1 X50.960 Y103.250 E9.69755
G1 X50.960 Y96.800 E9.90740
G1 X50.980 Y96.280 E9.92433
G1 X51.060 Y95.260 E9.95762
G1 X51.140 Y94.620 E9.97860
G1 X52.250 Y88.330 E10.18641
G1 X52.390 Y87.740 E10.20614
G1 X52.820 Y86.230 E10.25722
G1 X55.000 Y80.230 E10.46492
G1 X55.640 Y78.810 E10.51559
G1 X55.910 Y78.280 E10.53495
G1 X59.120 Y72.710 E10.74411
G1 X59.440 Y72.210 E10.76342
G1 X60.030 Y71.370 E10.79682
G1 X60.380 Y70.920 E10.81537
G1 X64.480 Y66.030 E11.02299
G1 X64.804 Y65.673 E11.03867
G1 F1800.000 E10.03867
G92 E0
G1 X81.158 Y81.158 F7800.000
G1 F1800.000 E1.00000
G1 X83.779 Y78.860 F540.000 E1.11340
G1 X86.677 Y76.924 E1.22680
G1 X89.803 Y75.382 E1.34020
G1 X93.513 Y74.123 E1.46767
G1 X92.976 Y73.747 E1.48899
G1 X92.588 Y73.359 E1.50685
G1 X92.273 Y72.909 E1.52471
G1 X92.041 Y72.412 E1.54257
G1 X91.899 Y71.881 E1.56042
G1 X91.851 Y71.335 E1.57828
G1 X91.899 Y70.788 E1.59614
G1 X92.041 Y70.258 E1.61400
G1 X92.273 Y69.760 E1.63186
G1 X92.588 Y69.310 E1.64972
G1 X92.976 Y68.922 E1.66757
G1 X93.426 Y68.607 E1.68544
G1 X93.923 Y68.376 E1.70330
G1 X94.453 Y68.233 E1.72115
G1 X95.000 Y68.186 E1.73901
G1 X95.547 Y68.233 E1.75687
G1 X96.077 Y68.376 E1.77473
G1 X96.575 Y68.608 E1.79259
G1 X97.024 Y68.922 E1.81045
G1 X97.412 Y69.310 E1.82830
G1 X97.727 Y69.760 E1.84617
G1 X97.959 Y70.258 E1.86402
G1 X98.101 Y70.788 E1.88188
G1 X98.149 Y71.335 E1.89974
G1 X98.101 Y71.881 E1.91760
G1 X97.959 Y72.412 E1.93546
G1 X97.727 Y72.909 E1.95331
G1 X97.292 Y73.531 E1.97803
G1 X100.000 Y73.354 E2.06634
G1 X102.709 Y73.531 E2.15465
G1 X102.273 Y72.909 E2.17936
G1 X102.041 Y72.412 E2.19722
G1 X101.899 Y71.881 E2.21508
G1 X101.851 Y71.335 E2.23294
G1 X101.899 Y70.788 E2.25080
G1 X102.041 Y70.258 E2.26865
G1 X102.273 Y69.760 E2.28651
G1 X102.588 Y69.310 E2.30438
G1 X102.976 Y68.922 E2.32223
G1 X103.426 Y68.607 E2.34009
G1 X103.923 Y68.376 E2.35795
G1 X104.453 Y68.233 E2.37581
G1 X105.000 Y68.186 E2.39367
G1 X105.547 Y68.233 E2.41152
G1 X106.077 Y68.376 E2.42939
G1 X106.575 Y68.608 E2.44724
G1 X107.024 Y68.922 E2.46510
G1 X107.412 Y69.310 E2.48296
G1 X107.727 Y69.760 E2.50082
G1 X107.959 Y70.258 E2.51868
G1 X108.101 Y70.788 E2.53653
G1 X108.149 Y71.335 E2.55440
G1 X108.101 Y71.881 E2.57225
G1 X107.959 Y72.412 E2.59011
G1 X107.727 Y72.909 E2.60797
G1 X107.412 Y73.359 E2.62583
G1 X107.024 Y73.747 E2.64369
G1 X106.487 Y74.123 E2.66501
G1 X110.197 Y75.382 E2.79248
G1 X113.323 Y76.924 E2.90588
G1 X116.221 Y78.860 E3.01928
G1 X118.842 Y81.158 E3.13268
G1 X121.140 Y83.779 E3.24608
G1 X123.076 Y86.677 E3.35948
G1 X124.618 Y89.803 E3.47288
G1 X125.877 Y93.513 E3.60035
G1 X126.253 Y92.976 E3.62167
G1 X126.641 Y92.588 E3.63952
G1 X127.091 Y92.273 E3.65738
G1 X127.588 Y92.041 E3.67525
G1 X128.119 Y91.899 E3.69310
G1 X128.665 Y91.851 E3.71096
G1 X129.212 Y91.899 E3.72882
G1 X129.742 Y92.041 E3.74667
G1 X130.240 Y92.273 E3.76454
G1 X130.689 Y92.588 E3.78239
G1 X130.802 Y92.700 E3.78757
G1 X131.077 Y92.976 E3.80025
G1 X131.392 Y93.425 E3.81811
G1 X131.625 Y93.923 E3.83598
G1 X131.767 Y94.453 E3.85383
G1 X131.814 Y95.000 E3.87169
G1 X131.767 Y95.547 E3.88955
G1 X131.624 Y96.077 E3.90741
G1 X131.393 Y96.574 E3.92526
G1 X131.078 Y97.024 E3.94313
G1 X130.689 Y97.412 E3.96098
G1 X130.240 Y97.727 E3.97885
G1 X129.742 Y97.959 E3.99670
G1 X129.212 Y98.101 E4.01456
G1 X128.665 Y98.149 E4.03242
G1 X128.118 Y98.101 E4.05028
G1 X127.588 Y97.959 E4.06814
G1 X127.091 Y97.727 E4.08600
G1 X126.469 Y97.291 E4.11071
G1 X126.646 Y100.000 E4.19902
G1 X126.469 Y102.709 E4.28733
G1 X127.091 Y102.273 E4.31204
G1 X127.588 Y102.041 E4.32991
G1 X128.119 Y101.899 E4.34776
G1 X128.665 Y101.851 E4.36562
G1 X129.212 Y101.899 E4.38348
G1 X129.742 Y102.041 E4.40133
G1 X130.240 Y102.273 E4.41920
G1 X130.690 Y102.588 E4.43706
G1 X131.078 Y102.976 E4.45491
G1 X131.392 Y103.425 E4.47277
G1 X131.625 Y103.923 E4.49064
G1 X131.767 Y104.453 E4.50849
G1 X131.814 Y105.000 E4.52635
G1 X131.767 Y105.547 E4.54421
G1 X131.624 Y106.077 E4.56207
G1 X131.393 Y106.574 E4.57992
G1 X131.078 Y107.024 E4.59779
G1 X130.689 Y107.412 E4.61564
G1 X130.240 Y107.727 E4.63351
G1 X129.742 Y107.959 E4.65136
G1 X129.212 Y108.101 E4.66922
G1 X128.665 Y108.149 E4.68708
G1 X128.118 Y108.101 E4.70494
G1 X127.588 Y107.959 E4.72280
G1 X127.091 Y107.727 E4.74066
G1 X126.641 Y107.412 E4.75851
G1 X126.253 Y107.024 E4.77637
G1 X125.877 Y106.487 E4.79769
G1 X124.618 Y110.197 E4.92515
G1 X123.076 Y113.323 E5.03856
G1 X121.140 Y116.221 E5.15196
G1 X118.842 Y118.842 E5.26536
G1 X116.221 Y121.140 E5.37876
G1 X113.323 Y123.076 E5.49216
G1 X110.197 Y124.618 E5.60556
G1 X106.487 Y125.877 E5.73302
G1 X107.024 Y126.253 E5.75435
G1 X107.412 Y126.641 E5.77220
G1 X107.727 Y127.091 E5.79007
G1 X107.959 Y127.588 E5.80793
G1 X108.101 Y128.118 E5.82578
G1 X108.149 Y128.665 E5.84364
G1 X108.101 Y129.212 E5.86150
G1 X107.959 Y129.742 E5.87936
G1 X107.727 Y130.240 E5.89721
G1 X107.412 Y130.689 E5.91508
G1 X107.024 Y131.078 E5.93293
G1 X106.575 Y131.392 E5.95079
G1 X106.077 Y131.624 E5.96866
G1 X105.547 Y131.767 E5.98651
G1 X105.000 Y131.814 E6.00437
G1 X104.453 Y131.767 E6.02223
G1 X103.923 Y131.624 E6.04009
G1 X103.426 Y131.393 E6.05794
G1 X102.976 Y131.078 E6.07581
G1 X102.588 Y130.689 E6.09366
G1 X102.273 Y130.240 E6.11152
G1 X102.041 Y129.742 E6.12938
G1 X101.899 Y129.212 E6.14724
G1 X101.851 Y128.665 E6.16510
G1 X101.899 Y128.118 E6.18296
G1 X102.041 Y127.588 E6.20082
G1 X102.273 Y127.091 E6.21867
G1 X102.708 Y126.469 E6.24338
G1 X100.000 Y126.646 E6.33169
G1 X97.291 Y126.469 E6.42001
G1 X97.727 Y127.091 E6.44472
G1 X97.959 Y127.588 E6.46258
G1 X98.101 Y128.118 E6.48043
G1 X98.149 Y128.665 E6.49830
G1 X98.101 Y129.212 E6.51615
G1 X97.959 Y129.742 E6.53401
G1 X97.727 Y130.240 E6.55187
G1 X97.412 Y130.689 E6.56973
G1 X97.024 Y131.078 E6.58759
G1 X96.575 Y131.392 E6.60544
G1 X96.077 Y131.624 E6.62331
G1 X95.547 Y131.767 E6.64117
G1 X95.000 Y131.814 E6.65902
G1 X94.453 Y131.767 E6.67689
G1 X93.923 Y131.624 E6.69474
G1 X93.426 Y131.393 E6.71259
G1 X92.976 Y131.078 E6.73046
G1 X92.588 Y130.689 E6.74832
G1 X92.273 Y130.240 E6.76617
G1 X92.041 Y129.742 E6.78403
G1 X92.000 Y129.589 E6.78920
G1 X91.899 Y129.212 E6.80190
G1 X91.851 Y128.665 E6.81975
G1 X91.899 Y128.118 E6.83761
G1 X92.041 Y127.588 E6.85547
G1 X92.273 Y127.091 E6.87332
G1 X92.588 Y126.641 E6.89119
G1 X92.976 Y126.253 E6.90904
G1 X93.513 Y125.877 E6.93037
G1 X89.803 Y124.618 E7.05783
G1 X86.677 Y123.076 E7.17123
G1 X83.779 Y121.140 E7.28463
G1 X81.158 Y118.842 E7.39803
G1 X78.860 Y116.221 E7.51143
G1 X76.924 Y113.323 E7.62483
G1 X75.382 Y110.197 E7.73823
G1 X74.123 Y106.487 E7.86570
G1 X73.747 Y107.024 E7.88702
G1 X73.359 Y107.412 E7.90488
G1 X72.909 Y107.727 E7.92274
G1 X72.412 Y107.959 E7.94060
G1 X71.882 Y108.101 E7.95845
G1 X71.334 Y108.149 E7.97632
G1 X70.788 Y108.101 E7.99417
G1 X70.257 Y107.959 E8.01204
G1 X69.760 Y107.727 E8.02989
G1 X69.311 Y107.412 E8.04775
G1 X69.198 Y107.300 E8.05292
G1 X68.922 Y107.024 E8.06561
G1 X68.607 Y106.574 E8.08347
G1 X68.376 Y106.077 E8.10132
G1 X68.233 Y105.547 E8.11918
G1 X68.186 Y105.000 E8.13704
G1 X68.233 Y104.453 E8.15490
G1 X68.376 Y103.923 E8.17276
G1 X68.608 Y103.426 E8.19062
G1 X68.922 Y102.976 E8.20848
G1 X69.310 Y102.588 E8.22634
G1 X69.760 Y102.273 E8.24419
G1 X70.258 Y102.041 E8.26205
G1 X70.788 Y101.899 E8.27991
G1 X71.335 Y101.851 E8.29777
G1 X71.881 Y101.899 E8.31563
G1 X72.412 Y102.041 E8.33348
G1 X72.909 Y102.273 E8.35135
G1 X73.531 Y102.709 E8.37606
G1 X73.354 Y100.000 E8.46437
G1 X73.531 Y97.291 E8.55269
G1 X72.909 Y97.727 E8.57740
G1 X72.412 Y97.959 E8.59526
G1 X71.882 Y98.101 E8.61311
G1 X71.334 Y98.149 E8.63098
G1 X70.788 Y98.101 E8.64884
G1 X70.257 Y97.959 E8.66670
G1 X69.760 Y97.727 E8.68455
G1 X69.311 Y97.412 E8.70241
G1 X68.922 Y97.024 E8.72027
G1 X68.607 Y96.574 E8.73813
G1 X68.376 Y96.077 E8.75598
G1 X68.233 Y95.547 E8.77384
G1 X68.186 Y95.000 E8.79170
G1 X68.233 Y94.453 E8.80956
G1 X68.376 Y93.923 E8.82742
G1 X68.608 Y93.426 E8.84528
G1 X68.922 Y92.976 E8.86314
G1 X69.310 Y92.588 E8.88099
G1 X69.760 Y92.273 E8.89885
G1 X70.258 Y92.041 E8.91671
G1 X70.788 Y91.899 E8.93457
G1 X71.335 Y91.851 E8.95243
G1 X71.881 Y91.899 E8.97029
G1 X72.412 Y92.041 E8.98814
G1 X72.909 Y92.273 E9.00601
G1 X73.359 Y92.588 E9.02387
G1 X73.747 Y92.976 E9.04172
G1 X74.123 Y93.513 E9.06304
G1 X75.382 Y89.803 E9.19050
G1 X76.924 Y86.677 E9.30390
G1 X78.860 Y83.779 E9.41731
G1 X81.093 Y81.232 E9.52750
G1 F1800.000 E8.52750
G92 E0
G1 X102.661 Y72.186 F7800.000
G1 F1800.000 E1.00000
G1 X102.548 Y71.767 F540.000 E1.01412
G1 X102.511 Y71.335 E1.02823
G1 X102.548 Y70.902 E1.04235
G1 X102.661 Y70.483 E1.05647
G1 X102.844 Y70.090 E1.07059
G1 X103.093 Y69.734 E1.08471
G1 X103.400 Y69.428 E1.09882
G1 X103.755 Y69.179 E1.11295
G1 X104.149 Y68.995 E1.12706
G1 X104.568 Y68.883 E1.14118
G1 X105.000 Y68.845 E1.15530
G1 X105.432 Y68.883 E1.16941
G1 X105.851 Y68.995 E1.18353
G1 X106.245 Y69.179 E1.19765
G1 X106.600 Y69.428 E1.21177
G1 X106.907 Y69.734 E1.22589
G1 X107.156 Y70.090 E1.24001
G1 X107.339 Y70.483 E1.25412
G1 X107.452 Y70.902 E1.26824
G1 X107.489 Y71.335 E1.28236
G1 X107.452 Y71.767 E1.29648
G1 X107.339 Y72.186 E1.31059
G1 X107.156 Y72.579 E1.32471
G1 X106.907 Y72.935 E1.33883
G1 X106.835 Y73.007 E1.34213
G1 X106.600 Y73.242 E1.35295
G1 X106.245 Y73.490 E1.36707
G1 X105.851 Y73.674 E1.38118
G1 X105.432 Y73.786 E1.39530
G1 X105.000 Y73.824 E1.40942
G1 X104.568 Y73.786 E1.42354
G1 X104.149 Y73.674 E1.43766
G1 X103.755 Y73.491 E1.45177
G1 X103.400 Y73.242 E1.46589
G1 X103.093 Y72.935 E1.48001
G1 X102.844 Y72.579 E1.49413
G1 X102.702 Y72.275 E1.50504
G1 X103.281 Y71.960 F7800.000
G1 X103.198 Y71.652 F540.000 E1.51542
G1 X103.170 Y71.335 E1.52579
G1 X103.198 Y71.017 E1.53617
G1 X103.281 Y70.709 E1.54655
G1 X103.415 Y70.420 E1.55693
G1 X103.598 Y70.158 E1.56730
G1 X103.824 Y69.933 E1.57768
G1 X104.085 Y69.750 E1.58806
G1 X104.374 Y69.615 E1.59844
G1 X104.682 Y69.533 E1.60881
G1 X105.000 Y69.505 E1.61919
G1 X105.318 Y69.533 E1.62957
G1 X105.626 Y69.615 E1.63994
G1 X105.915 Y69.750 E1.65032
G1 X106.176 Y69.933 E1.66070
G1 X106.402 Y70.158 E1.67108
G1 X106.585 Y70.420 E1.68145
G1 X106.719 Y70.709 E1.69183
G1 X106.802 Y71.017 E1.70221
G1 X106.830 Y71.335 E1.71259
G1 X106.802 Y71.652 E1.72296
G1 X106.719 Y71.960 E1.73334
G1 X106.585 Y72.250 E1.74372
G1 X106.371 Y72.542 E1.75551
G1 X106.176 Y72.736 E1.76445
G1 X105.915 Y72.919 E1.77483
G1 X105.626 Y73.054 E1.78521
G1 X105.318 Y73.137 E1.79558
G1 X105.000 Y73.164 E1.80596
G1 X104.682 Y73.137 E1.81634
G1 X104.374 Y73.054 E1.82672
G1 X104.085 Y72.919 E1.83709
G1 X103.824 Y72.736 E1.84747
G1 X103.598 Y72.511 E1.85785
G1 X103.415 Y72.250 E1.86822
G1 X103.322 Y72.050 E1.87539
G1 X102.968 Y71.896 F7800.000
G1 X97.481 Y71.436
G1 X97.452 Y71.767 F540.000 E1.88621
G1 X97.339 Y72.186 E1.90033
G1 X97.156 Y72.579 E1.91444
G1 X96.907 Y72.935 E1.92856
G1 X96.600 Y73.242 E1.94268
G1 X96.245 Y73.490 E1.95680
G1 X95.851 Y73.674 E1.97091
G1 X95.432 Y73.786 E1.98503
G1 X95.000 Y73.824 E1.99915
G1 X94.568 Y73.786 E2.01327
G1 X94.149 Y73.674 E2.02739
G1 X93.755 Y73.491 E2.04150
G1 X93.400 Y73.242 E2.05562
G1 X93.093 Y72.935 E2.06974
G1 X92.844 Y72.579 E2.08386
G1 X92.661 Y72.186 E2.09798
G1 X92.548 Y71.767 E2.11209
G1 X92.511 Y71.335 E2.12621
G1 X92.548 Y70.902 E2.14033
G1 X92.661 Y70.483 E2.15445
G1 X92.844 Y70.090 E2.16857
G1 X93.093 Y69.734 E2.18269
G1 X93.400 Y69.428 E2.19680
G1 X93.755 Y69.179 E2.21092
G1 X94.149 Y68.995 E2.22504
G1 X94.568 Y68.883 E2.23916
G1 X95.000 Y68.845 E2.25327
G1 X95.432 Y68.883 E2.26739
G1 X95.851 Y68.995 E2.28151
G1 X96.245 Y69.179 E2.29563
G1 X96.600 Y69.428 E2.30975
G1 X96.907 Y69.734 E2.32386
G1 X97.156 Y70.090 E2.33799
G1 X97.339 Y70.483 E2.35210
G1 X97.452 Y70.902 E2.36622
G1 X97.489 Y71.338 E2.38043
G1 X96.830 Y71.335 F7800.000
G1 X96.802 Y71.652 F540.000 E2.39081
G1 X96.719 Y71.960 E2.40119
G1 X96.585 Y72.250 E2.41156
