; generated by Slic3r 0.9.10b on 2013-10-05 at 14:02:33

; layer_height = 0.3
; perimeters = 2
; top_solid_layers = 3
; bottom_solid_layers = 3
; fill_density = 0.3
; perimeter_speed = 30
; infill_speed = 60
; travel_speed = 130
; nozzle_diameter = 0.35
; filament_diameter = 1.75
; extrusion_multiplier = 1
; perimeters extrusion width = 0.37mm
; infill extrusion width = 0.37mm
; solid infill extrusion width = 0.37mm
; top infill extrusion width = 0.37mm
; first layer extrusion width = 0.60mm

G21 ; set units to millimeters
M107
M190 S65 ; wait for bed temperature to be reached
M104 S180 ; set temperature
G28 ; home all axes
M109 S180 ; wait for temperature to be reached
G90 ; use absolute coordinates
G92 E0
M82 ; use absolute distances for extrusion
G1 F1800.000 E-1.90000
G92 E0
G1 Z0.300 F7800.000
G1 X75.280 Y78.200
G1 F1800.000 E1.90000
G1 X76.370 Y77.230 F540.000 E1.99943
G1 X77.650 Y76.510 E2.09951
G1 X79.040 Y76.060 E2.19907
G1 X80.500 Y75.910 E2.29908
G1 X119.500 Y75.910 E4.95668
G1 X120.960 Y76.060 E5.05670
G1 X122.360 Y76.510 E5.15691
G1 X123.630 Y77.230 E5.25639
G1 X124.730 Y78.210 E5.35678
G1 X125.600 Y79.380 E5.45613
G1 X126.220 Y80.720 E5.55675
G1 X131.250 Y95.520 E6.62193
G1 X131.540 Y96.530 E6.69354
G1 X131.680 Y97.160 E6.73751
G1 X131.760 Y97.800 E6.78146
G1 X131.810 Y98.400 E6.82249
G1 X131.810 Y99.570 E6.90222
G1 X131.760 Y100.180 E6.94393
G1 X131.680 Y100.820 E6.98788
G1 X131.540 Y101.460 E7.03252
G1 X131.330 Y102.220 E7.08625
G1 X126.300 Y119.030 E8.28193
G1 X125.710 Y120.430 E8.38546
G1 X124.840 Y121.660 E8.48812
G1 X123.740 Y122.690 E8.59081
G1 X122.440 Y123.460 E8.69377
G1 X121.000 Y123.930 E8.79699
G1 X119.500 Y124.090 E8.89979
G1 X80.500 Y124.090 E11.55739
G1 X79.000 Y123.930 E11.66019
G1 X77.570 Y123.460 E11.76276
G1 X76.270 Y122.690 E11.86572
G1 X75.160 Y121.670 E11.96845
G1 X74.290 Y120.430 E12.07167
G1 X73.710 Y119.040 E12.17430
G1 X68.610 Y102.050 E13.38310
G1 X68.450 Y101.460 E13.42476
G1 X68.310 Y100.820 E13.46940
G1 X68.230 Y100.180 E13.51335
G1 X68.180 Y99.570 E13.55506
G1 X68.180 Y98.400 E13.63479
G1 X68.230 Y97.800 E13.67582
G1 X68.430 Y96.640 E13.75603
G1 X68.730 Y95.550 E13.83307
G1 X73.790 Y80.710 E14.90149
G1 X74.400 Y79.380 E15.00120
G1 X75.231 Y78.266 E15.09592
G1 X75.680 Y78.570 F7800.000
G1 X76.690 Y77.680 F540.000 E15.18766
G1 X77.870 Y77.010 E15.28012
G1 X79.150 Y76.590 E15.37192
G1 X80.500 Y76.450 E15.46441
G1 X119.500 Y76.450 E18.12202
G1 X120.850 Y76.590 E18.21450
G1 X122.140 Y77.010 E18.30695
G1 X123.310 Y77.680 E18.39883
G1 X124.330 Y78.580 E18.49152
G1 X125.130 Y79.660 E18.58311
G1 X125.700 Y80.890 E18.67549
G1 X130.730 Y95.690 E19.74067
G1 X131.010 Y96.680 E19.81078
G1 X131.140 Y97.260 E19.85128
G1 X131.260 Y98.450 E19.93278
G1 X131.260 Y99.520 E20.00570
G1 X131.140 Y100.730 E20.08856
G1 X131.010 Y101.310 E20.12906
G1 X130.800 Y102.070 E20.18279
G1 X125.770 Y118.880 E21.37847
G1 X125.230 Y120.160 E21.47314
G1 X124.430 Y121.300 E21.56804
G1 X123.410 Y122.250 E21.66302
G1 X122.210 Y122.960 E21.75804
G1 X120.890 Y123.400 E21.85285
G1 X119.500 Y123.550 E21.94812
G1 X80.500 Y123.550 E24.60573
G1 X79.110 Y123.400 E24.70100
G1 X77.790 Y122.960 E24.79581
G1 X76.590 Y122.250 E24.89083
G1 X75.570 Y121.310 E24.98535
G1 X74.770 Y120.160 E25.08081
G1 X74.230 Y118.880 E25.17548
G1 X69.140 Y101.900 E26.38343
G1 X68.980 Y101.310 E26.42508
G1 X68.850 Y100.730 E26.46559
G1 X68.730 Y99.520 E26.54845
G1 X68.730 Y98.450 E26.62136
G1 X68.780 Y97.850 E26.66239
G1 X68.960 Y96.780 E26.73633
G1 X69.240 Y95.730 E26.81038
G1 X74.300 Y80.890 E27.87880
G1 X74.870 Y79.660 E27.97118
G1 X75.631 Y78.636 E28.05813
G1 F1800.000 E26.15813
G92 E0
G1 X119.583 Y98.393 F7800.000
G1 F1800.000 E1.90000
G1 X119.713 Y98.113 F540.000 E1.92107
G1 X119.891 Y97.860 E1.94215
G1 X120.110 Y97.641 E1.96322
G1 X120.363 Y97.463 E1.98430
G1 X120.643 Y97.333 E2.00537
G1 X120.942 Y97.253 E2.02645
G1 X121.250 Y97.226 E2.04752
G1 X121.558 Y97.253 E2.06860
G1 X121.857 Y97.333 E2.08967
G1 X122.173 Y97.488 E2.11367
G1 X122.390 Y97.641 E2.13178
G1 X122.609 Y97.860 E2.15286
G1 X122.787 Y98.113 E2.17393
G1 X122.917 Y98.393 E2.19500
G1 X122.997 Y98.692 E2.21608
G1 X123.024 Y99.000 E2.23715
G1 X122.997 Y99.308 E2.25823
G1 X122.917 Y99.607 E2.27930
G1 X122.787 Y99.887 E2.30038
G1 X122.609 Y100.140 E2.32145
G1 X122.390 Y100.359 E2.34253
G1 X122.137 Y100.537 E2.36360
G1 X121.857 Y100.667 E2.38468
G1 X121.558 Y100.747 E2.40575
G1 X121.250 Y100.774 E2.42683
G1 X120.942 Y100.747 E2.44790
G1 X120.643 Y100.667 E2.46897
G1 X120.363 Y100.537 E2.49005
G1 X120.110 Y100.359 E2.51112
G1 X119.891 Y100.140 E2.53220
G1 X119.713 Y99.887 E2.55327
G1 X119.583 Y99.607 E2.57435
G1 X119.503 Y99.308 E2.59542
G1 X119.476 Y99.000 E2.61650
G1 X119.503 Y98.692 E2.63757
G1 X119.562 Y98.472 E2.65306
G1 X119.889 Y98.348 F7800.000
G1 F1800.000 E0.75306
G92 E0
G1 X80.524 Y99.000 F7800.000
G1 F1800.000 E1.90000
G1 X80.497 Y99.308 F540.000 E1.92108
G1 X80.417 Y99.607 E1.94215
G1 X80.287 Y99.887 E1.96322
G1 X80.078 Y100.171 E1.98722
G1 X79.890 Y100.359 E2.00533
G1 X79.637 Y100.537 E2.02641
G1 X79.357 Y100.667 E2.04748
G1 X79.058 Y100.747 E2.06856
G1 X78.750 Y100.774 E2.08963
G1 X78.442 Y100.747 E2.11071
G1 X78.143 Y100.667 E2.13178
G1 X77.863 Y100.537 E2.15286
G1 X77.610 Y100.359 E2.17393
G1 X77.391 Y100.140 E2.19501
G1 X77.213 Y99.887 E2.21608
G1 X77.083 Y99.607 E2.23715
G1 X77.003 Y99.308 E2.25823
G1 X76.976 Y99.000 E2.27930
G1 X77.003 Y98.692 E2.30038
G1 X77.083 Y98.393 E2.32145
G1 X77.213 Y98.113 E2.34253
G1 X77.391 Y97.860 E2.36360
G1 X77.610 Y97.641 E2.38468
G1 X77.863 Y97.463 E2.40575
G1 X78.143 Y97.333 E2.42682
G1 X78.442 Y97.253 E2.44790
G1 X78.750 Y97.226 E2.46897
G1 X79.058 Y97.253 E2.49005
G1 X79.357 Y97.333 E2.51112
G1 X79.637 Y97.463 E2.53220
G1 X79.890 Y97.641 E2.55327
G1 X80.109 Y97.860 E2.57435
G1 X80.287 Y98.113 E2.59542
G1 X80.417 Y98.393 E2.61650
G1 X80.497 Y98.692 E2.63757
G1 X80.517 Y98.918 E2.65306
G1 X80.252 Y99.147 F7800.000
G1 X82.227 Y84.727
G1 X117.773 Y84.727 F540.000 E5.07532
G1 X117.773 Y115.273 E7.15686
G1 X82.227 Y115.273 E9.57912
G1 X82.227 Y84.809 E11.65508
G1 X82.700 Y85.000 F7800.000
G1 F1800.000 E9.75508
G92 E0
G1 X81.680 Y101.680 F7800.000
G1 F1800.000 E1.90000
G1 X79.051 Y101.680 F540.000 E2.07917
G1 X78.997 Y101.438 E2.09612
G1 X79.911 Y101.011 E2.16484
G1 X80.243 Y100.779 E2.19243
G1 X80.529 Y100.493 E2.22002
G1 X80.761 Y100.161 E2.24761
G1 X80.933 Y99.794 E2.27520
G1 X81.037 Y99.403 E2.30279
G1 X81.073 Y99.000 E2.33038
G1 X81.037 Y98.597 E2.35797
G1 X80.933 Y98.206 E2.38555
G1 X80.761 Y97.839 E2.41314
G1 X80.529 Y97.507 E2.44073
G1 X80.243 Y97.221 E2.46832
G1 X79.911 Y96.989 E2.49591
G1 X78.997 Y96.562 E2.56463
G1 X79.051 Y96.320 E2.58158
G1 X81.680 Y96.320 E2.76075
G1 X81.680 Y101.599 E3.12048
G1 F1800.000 E1.22048
G92 E0
G1 X120.949 Y96.320 F7800.000
G1 F1800.000 E1.90000
G1 X121.003 Y96.562 F540.000 E1.91695
G1 X120.089 Y96.989 E1.98567
G1 X119.757 Y97.221 E2.01326
G1 X119.471 Y97.507 E2.04085
G1 X119.239 Y97.839 E2.06844
G1 X119.067 Y98.206 E2.09602
G1 X118.963 Y98.597 E2.12362
G1 X118.927 Y99.000 E2.15120
G1 X118.963 Y99.403 E2.17880
G1 X119.067 Y99.794 E2.20638
G1 X119.239 Y100.161 E2.23397
G1 X119.471 Y100.493 E2.26155
G1 X119.757 Y100.779 E2.28915
G1 X120.089 Y101.011 E2.31674
G1 X121.003 Y101.438 E2.38546
G1 X120.949 Y101.680 E2.40240
G1 X118.320 Y101.680 E2.58158
G1 X118.320 Y96.320 E2.94689
G1 X120.867 Y96.320 E3.12048
G1 X121.238 Y95.773 F7800.000
G1 X121.810 Y95.823 F540.000 E3.15961
G1 X122.353 Y95.969 E3.19793
G1 X122.863 Y96.206 E3.23624
G1 X123.306 Y96.516 E3.27307
G1 X123.721 Y96.927 E3.31286
G1 X124.044 Y97.387 E3.35117
G1 X124.281 Y97.897 E3.38949
G1 X124.427 Y98.440 E3.42781
G1 X124.476 Y99.000 E3.46612
G1 X124.427 Y99.560 E3.50444
G1 X124.281 Y100.103 E3.54276
G1 X124.044 Y100.613 E3.58107
G1 X123.721 Y101.073 E3.61939
G1 X123.323 Y101.471 E3.65771
G1 X122.863 Y101.794 E3.69602
G1 X122.353 Y102.031 E3.73434
G1 X121.810 Y102.177 E3.77266
G1 X121.238 Y102.227 E3.81179
G1 X119.227 Y102.227 E3.94884
G1 X119.227 Y116.727 E4.93693
G1 X80.773 Y116.727 E7.55730
G1 X80.773 Y102.227 E8.54539
G1 X78.762 Y102.227 E8.68244
G1 X78.190 Y102.177 E8.72157
G1 X77.647 Y102.031 E8.75989
G1 X77.137 Y101.794 E8.79821
G1 X76.677 Y101.471 E8.83652
G1 X76.279 Y101.073 E8.87484
G1 X75.956 Y100.613 E8.91315
G1 X75.719 Y100.103 E8.95147
G1 X75.573 Y99.560 E8.98979
G1 X75.524 Y99.000 E9.02810
G1 X75.573 Y98.440 E9.06642
G1 X75.719 Y97.897 E9.10474
G1 X75.956 Y97.387 E9.14305
G1 X76.279 Y96.927 E9.18137
G1 X76.677 Y96.529 E9.21969
G1 X77.137 Y96.206 E9.25800
G1 X77.647 Y95.969 E9.29632
G1 X78.190 Y95.823 E9.33464
G1 X78.762 Y95.773 E9.37377
G1 X80.773 Y95.773 E9.51082
G1 X80.773 Y83.273 E10.36262
G1 X119.227 Y83.273 E12.98300
G1 X119.227 Y95.773 E13.83479
G1 X121.156 Y95.773 E13.96626
G1 X121.483 Y96.261 F7800.000
G1 F1800.000 E12.06626
G92 E0
G1 X81.641 Y116.004 F7800.000
G1 F1800.000 E1.90000
G1 X81.633 Y115.996 F360.000 E1.90112
G1 X81.504 Y115.867 F7800.000
G1 X81.496 Y102.738 F360.000 E3.28218
G1 F1800.000 E1.38218
G92 E0
G1 X82.826 Y115.996 F7800.000
G1 F1800.000 E1.90000
G1 X117.425 Y116.004 F360.000 E5.53970
G1 X118.504 Y115.890 E5.65384
G1 X118.496 Y102.762 E7.03491
G1 F1800.000 E5.13491
G92 E0
G1 X81.011 Y101.107 F7800.000
G1 F1800.000 E1.90000
G1 X80.868 Y100.965 F360.000 E1.91377
G1 X78.025 Y101.229 F7800.000
G1 X78.417 Y101.621 F360.000 E1.95160
G1 X77.057 Y101.038 F7800.000
G1 X76.712 Y100.693 F360.000 E1.98488
G1 X76.521 Y99.725 F7800.000
G1 X76.129 Y99.333 F360.000 E2.02271
G1 X76.414 Y98.841 F7800.000
G1 X76.138 Y98.565 F360.000 E2.04939
G1 X76.543 Y98.194 F7800.000
G1 X76.318 Y97.968 F360.000 E2.07114
G1 X76.813 Y97.686 F7800.000
G1 X76.597 Y97.471 F360.000 E2.09189
G1 X76.960 Y97.056 F7800.000
G1 X77.172 Y97.268 F360.000 E2.11232
G1 X77.623 Y96.943 F7800.000
G1 X77.401 Y96.721 F360.000 E2.13371
G1 X77.941 Y96.483 F7800.000
G1 X78.185 Y96.728 F360.000 E2.15731
G1 X81.107 Y97.319 F7800.000
G1 X81.074 Y97.286 F360.000 E2.16050
G1 X81.504 Y95.589 F7800.000
G1 X81.496 Y95.582 F360.000 E2.16161
G1 X81.504 Y94.396 F7800.000
G1 X81.496 Y94.389 F360.000 E2.16272
G1 X81.504 Y93.204 F7800.000
G1 X81.496 Y93.196 F360.000 E2.16382
G1 X81.504 Y92.011 F7800.000
G1 X81.496 Y92.003 F360.000 E2.16493
G1 X81.504 Y90.818 F7800.000
G1 X81.496 Y90.810 F360.000 E2.16603
G1 X81.504 Y89.625 F7800.000
G1 X81.496 Y89.618 F360.000 E2.16714
G1 X81.504 Y88.432 F7800.000
G1 X81.496 Y88.425 F360.000 E2.16825
G1 X81.504 Y87.240 F7800.000
G1 X81.496 Y87.232 F360.000 E2.16935
G1 X81.504 Y86.047 F7800.000
G1 X81.496 Y86.039 F360.000 E2.17046
G1 X81.504 Y84.854 F7800.000
G1 X81.496 Y84.846 F360.000 E2.17156
G1 X81.846 Y84.004 F7800.000
G1 X81.839 Y83.996 F360.000 E2.17267
G1 X83.032 Y83.996 F7800.000
G1 X83.039 Y84.004 F360.000 E2.17378
G1 X84.224 Y83.996 F7800.000
G1 X84.232 Y84.004 F360.000 E2.17488
G1 X85.417 Y83.996 F7800.000
G1 X85.425 Y84.004 F360.000 E2.17599
G1 X86.610 Y83.996 F7800.000
G1 X86.618 Y84.004 F360.000 E2.17709
G1 X87.803 Y83.996 F7800.000
G1 X87.810 Y84.004 F360.000 E2.17820
G1 X88.996 Y83.996 F7800.000
G1 X89.003 Y84.004 F360.000 E2.17931
G1 X90.188 Y83.996 F7800.000
G1 X90.196 Y84.004 F360.000 E2.18041
G1 X91.381 Y83.996 F7800.000
G1 X91.389 Y84.004 F360.000 E2.18152
G1 X92.574 Y83.996 F7800.000
G1 X92.582 Y84.004 F360.000 E2.18262
G1 X93.767 Y83.996 F7800.000
G1 X93.774 Y84.004 F360.000 E2.18373
G1 X94.960 Y83.996 F7800.000
G1 X94.967 Y84.004 F360.000 E2.18484
G1 X96.152 Y83.996 F7800.000
G1 X96.160 Y84.004 F360.000 E2.18594
G1 X97.345 Y83.996 F7800.000
G1 X97.353 Y84.004 F360.000 E2.18705
G1 X98.538 Y83.996 F7800.000
G1 X98.546 Y84.004 F360.000 E2.18816
G1 X99.731 Y83.996 F7800.000
G1 X99.738 Y84.004 F360.000 E2.18926
G1 X100.924 Y83.996 F7800.000
G1 X100.931 Y84.004 F360.000 E2.19037
G1 X102.116 Y83.996 F7800.000
G1 X102.124 Y84.004 F360.000 E2.19147
G1 X103.309 Y83.996 F7800.000
G1 X103.317 Y84.004 F360.000 E2.19258
G1 X104.502 Y83.996 F7800.000
G1 X104.509 Y84.004 F360.000 E2.19369
G1 X105.695 Y83.996 F7800.000
G1 X105.702 Y84.004 F360.000 E2.19479
G1 X106.888 Y83.996 F7800.000
G1 X106.895 Y84.004 F360.000 E2.19590
G1 X108.080 Y83.996 F7800.000
G1 X108.088 Y84.004 F360.000 E2.19700
G1 X109.273 Y83.996 F7800.000
G1 X109.281 Y84.004 F360.000 E2.19811
G1 X110.466 Y83.996 F7800.000
G1 X110.473 Y84.004 F360.000 E2.19922
G1 X111.659 Y83.996 F7800.000
G1 X111.666 Y84.004 F360.000 E2.20032
G1 X112.852 Y83.996 F7800.000
G1 X112.859 Y84.004 F360.000 E2.20143
G1 X114.044 Y83.996 F7800.000
G1 X114.052 Y84.004 F360.000 E2.20253
G1 X115.237 Y83.996 F7800.000
G1 X115.245 Y84.004 F360.000 E2.20364
G1 X116.430 Y83.996 F7800.000
G1 X116.437 Y84.004 F360.000 E2.20475
G1 X117.623 Y83.996 F7800.000
G1 X117.630 Y84.004 F360.000 E2.20585
G1 X118.496 Y84.870 F7800.000
G1 X118.504 Y84.877 F360.000 E2.20696
G1 X118.496 Y86.063 F7800.000
G1 X118.504 Y86.070 F360.000 E2.20806
G1 X118.496 Y87.255 F7800.000
G1 X118.504 Y87.263 F360.000 E2.20917
G1 X118.496 Y88.448 F7800.000
G1 X118.504 Y88.456 F360.000 E2.21028
G1 X118.496 Y89.641 F7800.000
G1 X118.504 Y89.648 F360.000 E2.21138
G1 X118.496 Y90.834 F7800.000
G1 X118.504 Y90.841 F360.000 E2.21249
G1 X118.496 Y92.027 F7800.000
G1 X118.504 Y92.034 F360.000 E2.21360
G1 X118.496 Y93.219 F7800.000
G1 X118.504 Y93.227 F360.000 E2.21470
G1 X118.496 Y94.412 F7800.000
G1 X118.504 Y94.420 F360.000 E2.21581
G1 X119.015 Y97.159 F7800.000
G1 X118.893 Y97.037 F360.000 E2.22757
G1 X119.078 Y101.107 F7800.000
G1 X118.893 Y100.922 F360.000 E2.24549
G1 X121.869 Y101.568 F7800.000
G1 X121.619 Y101.317 F360.000 E2.26975
G1 X122.212 Y101.134 E2.31231
G1 X122.438 Y101.359 E2.33418
G1 X122.914 Y101.058 E2.37276
G1 X122.699 Y100.843 E2.39362
G1 X123.088 Y100.456 E2.43126
G1 X123.303 Y100.671 E2.45212
G1 X123.606 Y100.196 E2.49068
G1 X123.380 Y99.971 E2.51255
G1 X123.815 Y99.629 E2.55046
G1 X123.566 Y99.380 E2.57457
G1 X123.895 Y98.931 E2.61266
G1 X123.565 Y98.602 E2.64463
G1 X123.660 Y97.920 E2.69180
G1 X122.330 Y96.590 E2.82060
G1 X121.648 Y96.685 E2.86777
G1 X121.608 Y96.645 E2.87170
M106 S197
M104 S185 ; set temperature
M140 S60 ; set bed temperature
G1 F1800.000 E0.97170
G92 E0
G1 Z0.600 F7800.000
G1 X121.606 Y96.983
G1 F1800.000 E1.90000
G1 X121.950 Y97.076 F1800.000 E1.91619
G1 X122.274 Y97.227 E1.93239
G1 X122.566 Y97.431 E1.94858
G1 X122.819 Y97.684 E1.96477
G1 X123.023 Y97.976 E1.98097
G1 X123.174 Y98.300 E1.99716
G1 X123.267 Y98.644 E2.01336
G1 X123.298 Y99.000 E2.02955
G1 X123.267 Y99.356 E2.04574
G1 X123.174 Y99.700 E2.06194
G1 X123.023 Y100.024 E2.07813
G1 X122.819 Y100.316 E2.09432
G1 X122.566 Y100.569 E2.11052
G1 X122.274 Y100.773 E2.12671
G1 X121.950 Y100.924 E2.14290
G1 X121.606 Y101.017 E2.15910
G1 X121.250 Y101.048 E2.17529
G1 X120.894 Y101.017 E2.19149
G1 X120.550 Y100.924 E2.20768
G1 X120.226 Y100.773 E2.22387
G1 X119.934 Y100.569 E2.24007
G1 X119.681 Y100.316 E2.25626
G1 X119.477 Y100.024 E2.27245
G1 X119.326 Y99.700 E2.28865
G1 X119.233 Y99.356 E2.30484
G1 X119.202 Y99.000 E2.32103
G1 X119.233 Y98.644 E2.33723
G1 X119.326 Y98.300 E2.35342
G1 X119.477 Y97.976 E2.36961
G1 X119.681 Y97.684 E2.38581
G1 X119.934 Y97.431 E2.40200
G1 X120.226 Y97.227 E2.41820
G1 X120.550 Y97.076 E2.43439
G1 X120.894 Y96.983 E2.45058
G1 X121.250 Y96.952 E2.46678
G1 X121.551 Y96.979 E2.48050
G1 X121.542 Y97.343 F7800.000
G1 X121.825 Y97.419 F1800.000 E2.49380
G1 X122.091 Y97.543 E2.50711
G1 X122.332 Y97.711 E2.52041
G1 X122.539 Y97.918 E2.53372
G1 X122.707 Y98.159 E2.54703
G1 X122.831 Y98.425 E2.56033
G1 X122.907 Y98.708 E2.57364
G1 X122.933 Y99.000 E2.58694
G1 X122.907 Y99.292 E2.60025
G1 X122.831 Y99.575 E2.61356
G1 X122.707 Y99.841 E2.62686
G1 X122.539 Y100.082 E2.64017
G1 X122.332 Y100.289 E2.65347
G1 X122.091 Y100.457 E2.66678
G1 X121.825 Y100.581 E2.68009
G1 X121.542 Y100.657 E2.69339
G1 X121.250 Y100.683 E2.70670
G1 X120.958 Y100.657 E2.72000
G1 X120.675 Y100.581 E2.73331
G1 X120.409 Y100.457 E2.74662
G1 X120.168 Y100.289 E2.75992
G1 X119.961 Y100.082 E2.77323
G1 X119.793 Y99.841 E2.78654
G1 X119.669 Y99.575 E2.79984
G1 X119.593 Y99.292 E2.81315
G1 X119.567 Y99.000 E2.82645
