; generated by Slic3r 0.9.10b on 2013-10-05 at 21:02:47

; layer_height = 0.3
; perimeters = 2
; top_solid_layers = 3
; bottom_solid_layers = 3
; fill_density = 0.3
; perimeter_speed = 30
; infill_speed = 60
; travel_speed = 130
; nozzle_diameter = 0.35
; filament_diameter = 1.75
; extrusion_multiplier = 1
; perimeters extrusion width = 0.37mm
; infill extrusion width = 0.37mm
; solid infill extrusion width = 0.37mm
; top infill extrusion width = 0.37mm
; support material extrusion width = 0.37mm
; first layer extrusion width = 0.60mm

G21 ; set units to millimeters
M107
M190 S65 ; wait for bed temperature to be reached
M104 S180 ; set temperature
G28 ; home all axes
M109 S180 ; wait for temperature to be reached
G90 ; use absolute coordinates
G92 E0
M82 ; use absolute distances for extrusion
G1 F1800.000 E-1.90000
G92 E0
G1 Z0.300 F7800.000
G1 X57.417 Y80.712
G1 F1800.000 E1.90000
G1 X57.917 Y80.362 F540.000 E1.94159
G1 X58.587 Y79.952 E1.99512
G1 X59.117 Y79.662 E2.03629
G1 X59.727 Y79.362 E2.08261
G1 X60.287 Y79.122 E2.12413
G1 X60.977 Y78.872 E2.17414
G1 X62.157 Y78.532 E2.25782
G1 X63.267 Y78.312 E2.33493
G1 X72.837 Y76.962 E2.99352
G1 X73.827 Y76.892 E3.06115
G1 X91.247 Y76.892 E4.24821
G1 X141.107 Y78.892 E7.64859
G1 X142.457 Y79.082 E7.74149
G1 X143.737 Y79.512 E7.83351
G1 X144.917 Y80.182 E7.92597
G1 X145.937 Y81.072 E8.01822
G1 X146.787 Y82.132 E8.11081
G1 X147.407 Y83.332 E8.20285
G1 X147.787 Y84.632 E8.29514
G1 X147.917 Y85.982 E8.38756
G1 X147.917 Y111.972 E10.15862
G1 X147.797 Y113.292 E10.24894
G1 X147.427 Y114.572 E10.33973
G1 X146.827 Y115.752 E10.42994
G1 X146.017 Y116.812 E10.52085
G1 X145.017 Y117.692 E10.61162
G1 X143.877 Y118.372 E10.70208
G1 X142.637 Y118.832 E10.79220
G1 X141.327 Y119.052 E10.88272
G1 X83.607 Y123.092 E14.82560
G1 X82.747 Y123.102 E14.88421
G1 X82.307 Y123.082 E14.91422
G1 X81.437 Y122.982 E14.97389
G1 X80.297 Y122.752 E15.05314
G1 X62.967 Y117.872 E16.28000
G1 X62.077 Y117.582 E16.34379
G1 X61.347 Y117.292 E16.39731
G1 X60.717 Y117.002 E16.44458
G1 X60.087 Y116.672 E16.49304
G1 X59.527 Y116.342 E16.53733
G1 X58.867 Y115.902 E16.59139
G1 X58.347 Y115.512 E16.63568
G1 X57.697 Y114.962 E16.69370
G1 X57.227 Y114.512 E16.73804
G1 X56.707 Y113.952 E16.79012
G1 X56.287 Y113.452 E16.83461
G1 X55.847 Y112.882 E16.88368
G1 X55.487 Y112.352 E16.92734
G1 X55.097 Y111.702 E16.97900
G1 X54.787 Y111.122 E17.02381
G1 X54.457 Y110.412 E17.07716
G1 X54.217 Y109.812 E17.12120
G1 X53.957 Y109.032 E17.17723
G1 X53.787 Y108.402 E17.22169
G1 X53.647 Y107.752 E17.26700
G1 X53.467 Y106.582 E17.34767
G1 X52.137 Y92.542 E18.30869
G1 X52.087 Y91.612 E18.37215
G1 X52.087 Y90.912 E18.41986
G1 X52.117 Y90.312 E18.46079
G1 X52.187 Y89.612 E18.50873
G1 X52.277 Y89.012 E18.55007
G1 X52.417 Y88.312 E18.59872
G1 X52.567 Y87.722 E18.64020
G1 X52.777 Y87.022 E18.69000
G1 X52.987 Y86.452 E18.73140
G1 X53.277 Y85.772 E18.78177
G1 X53.547 Y85.222 E18.82353
G1 X53.907 Y84.582 E18.87356
G1 X54.227 Y84.072 E18.91459
G1 X54.617 Y83.512 E18.96110
G1 X54.987 Y83.032 E19.00239
G1 X55.477 Y82.462 E19.05361
G1 X55.897 Y82.022 E19.09507
G1 X56.377 Y81.572 E19.13990
G1 X56.837 Y81.172 E19.18144
G1 X57.352 Y80.763 E19.22630
G1 X57.737 Y81.162 F7800.000
G1 X58.237 Y80.812 F540.000 E19.26789
G1 X58.847 Y80.432 E19.31686
G1 X59.937 Y79.862 E19.40068
G1 X60.497 Y79.622 E19.44220
G1 X61.137 Y79.392 E19.48854
G1 X62.267 Y79.062 E19.56876
G1 X62.867 Y78.932 E19.61060
G1 X63.347 Y78.852 E19.64376
G1 X72.917 Y77.502 E20.30235
G1 X73.827 Y77.432 E20.36454
G1 X90.967 Y77.432 E21.53253
G1 X141.087 Y79.442 E24.95064
G1 X142.507 Y79.652 E25.04845
G1 X143.837 Y80.172 E25.14576
G1 X145.027 Y80.962 E25.24310
G1 X146.017 Y81.992 E25.34045
G1 X146.757 Y83.212 E25.43768
G1 X147.217 Y84.562 E25.53487
G1 X147.377 Y85.982 E25.63225
G1 X147.377 Y111.972 E27.40330
G1 X147.227 Y113.362 E27.49857
G1 X146.777 Y114.692 E27.59425
G1 X146.067 Y115.902 E27.68985
G1 X145.107 Y116.922 E27.78530
G1 X143.957 Y117.722 E27.88076
G1 X142.667 Y118.252 E27.97580
G1 X141.287 Y118.502 E28.07137
G1 X83.827 Y122.532 E31.99652
G1 X83.287 Y122.552 E32.03335
G1 X82.327 Y122.532 E32.09878
G1 X81.527 Y122.442 E32.15364
G1 X81.117 Y122.372 E32.18198
G1 X80.447 Y122.222 E32.22877
G1 X63.117 Y117.342 E33.45563
G1 X62.247 Y117.062 E33.51791
G1 X61.577 Y116.802 E33.56688
G1 X60.947 Y116.512 E33.61414
G1 X60.367 Y116.202 E33.65895
G1 X59.807 Y115.872 E33.70325
G1 X59.197 Y115.472 E33.75296
G1 X58.677 Y115.082 E33.79725
G1 X58.077 Y114.572 E33.85091
G1 X57.607 Y114.122 E33.89525
G1 X57.127 Y113.602 E33.94347
G1 X56.707 Y113.102 E33.98797
G1 X56.297 Y112.572 E34.03363
G1 X55.937 Y112.042 E34.07729
G1 X55.587 Y111.452 E34.12404
G1 X55.277 Y110.872 E34.16885
G1 X54.967 Y110.212 E34.21854
G1 X54.727 Y109.612 E34.26258
G1 X54.487 Y108.892 E34.31430
G1 X54.317 Y108.262 E34.35876
G1 X54.187 Y107.662 E34.40060
G1 X54.007 Y106.532 E34.47857
G1 X52.677 Y92.492 E35.43959
G1 X52.627 Y91.582 E35.50170
G1 X52.627 Y90.932 E35.54599
G1 X52.657 Y90.332 E35.58693
G1 X52.727 Y89.692 E35.63080
G1 X52.817 Y89.092 E35.67214
G1 X52.947 Y88.452 E35.71664
G1 X53.097 Y87.862 E35.75813
G1 X53.297 Y87.212 E35.80447
G1 X53.507 Y86.642 E35.84586
G1 X53.767 Y86.022 E35.89168
G1 X54.037 Y85.472 E35.93343
G1 X54.367 Y84.872 E35.98009
G1 X54.687 Y84.362 E36.02112
G1 X55.057 Y83.842 E36.06461
G1 X55.427 Y83.362 E36.10591
G1 X55.867 Y82.842 E36.15233
G1 X56.287 Y82.402 E36.19378
G1 X56.727 Y81.982 E36.23523
G1 X57.187 Y81.582 E36.27677
G1 X57.672 Y81.212 E36.31834
G1 F1800.000 E34.41834
G92 E0
G1 X113.454 Y98.638 F7800.000
G1 F1800.000 E1.90000
G1 X113.588 Y98.350 F540.000 E1.92166
G1 X113.770 Y98.090 E1.94330
G1 X113.995 Y97.865 E1.96495
G1 X114.255 Y97.683 E1.98660
G1 X114.543 Y97.549 E2.00825
G1 X114.850 Y97.466 E2.02990
G1 X115.167 Y97.439 E2.05156
G1 X115.483 Y97.466 E2.07320
G1 X115.790 Y97.549 E2.09485
G1 X116.078 Y97.683 E2.11650
G1 X116.338 Y97.865 E2.13815
G1 X116.563 Y98.090 E2.15980
G1 X116.745 Y98.350 E2.18145
G1 X116.879 Y98.638 E2.20311
G1 X116.962 Y98.945 E2.22475
G1 X116.989 Y99.262 E2.24641
G1 X116.962 Y99.578 E2.26805
G1 X116.879 Y99.885 E2.28970
G1 X116.745 Y100.173 E2.31136
G1 X116.563 Y100.433 E2.33300
G1 X116.338 Y100.658 E2.35465
G1 X116.007 Y100.873 E2.38156
G1 X115.790 Y100.974 E2.39789
G1 X115.483 Y101.056 E2.41953
G1 X115.167 Y101.084 E2.44119
G1 X114.850 Y101.056 E2.46284
G1 X114.543 Y100.974 E2.48448
G1 X114.255 Y100.840 E2.50614
G1 X113.995 Y100.658 E2.52779
G1 X113.770 Y100.433 E2.54944
G1 X113.588 Y100.173 E2.57108
G1 X113.454 Y99.885 E2.59274
G1 X113.372 Y99.578 E2.61439
G1 X113.344 Y99.261 E2.63604
G1 X113.372 Y98.945 E2.65769
G1 X113.433 Y98.717 E2.67375
G1 X113.969 Y98.826 F7800.000
G1 X114.063 Y98.624 F540.000 E2.68889
G1 X114.191 Y98.442 E2.70402
G1 X114.348 Y98.285 E2.71916
G1 X114.530 Y98.158 E2.73429
G1 X114.731 Y98.064 E2.74943
G1 X114.945 Y98.007 E2.76456
G1 X115.167 Y97.987 E2.77970
G1 X115.388 Y98.007 E2.79483
G1 X115.602 Y98.064 E2.80997
G1 X115.804 Y98.158 E2.82510
G1 X115.986 Y98.285 E2.84024
G1 X116.143 Y98.442 E2.85537
G1 X116.270 Y98.624 E2.87051
G1 X116.364 Y98.826 E2.88565
G1 X116.422 Y99.040 E2.90078
G1 X116.441 Y99.261 E2.91592
G1 X116.422 Y99.483 E2.93105
G1 X116.364 Y99.697 E2.94619
G1 X116.270 Y99.899 E2.96133
G1 X116.143 Y100.080 E2.97646
G1 X115.986 Y100.238 E2.99159
G1 X115.776 Y100.378 E3.00877
G1 X115.602 Y100.459 E3.02184
G1 X115.388 Y100.516 E3.03697
G1 X115.167 Y100.536 E3.05211
G1 X114.945 Y100.516 E3.06725
G1 X114.731 Y100.459 E3.08238
G1 X114.530 Y100.365 E3.09752
G1 X114.348 Y100.238 E3.11265
G1 X114.191 Y100.080 E3.12779
G1 X114.063 Y99.899 E3.14292
G1 X113.969 Y99.697 E3.15806
G1 X113.912 Y99.483 E3.17319
G1 X113.892 Y99.261 E3.18833
G1 X113.912 Y99.040 E3.20347
G1 X113.948 Y98.905 E3.21301
G1 X114.189 Y98.793 F7800.000
G1 X109.395 Y95.798
G1 X109.137 Y96.165 F540.000 E3.24357
G1 X108.820 Y96.482 E3.27413
G1 X108.453 Y96.739 E3.30469
G1 X108.047 Y96.929 E3.33525
G1 X107.613 Y97.045 E3.36581
G1 X107.167 Y97.084 E3.39637
G1 X106.720 Y97.045 E3.42693
G1 X106.287 Y96.929 E3.45748
G1 X105.880 Y96.739 E3.48804
G1 X105.513 Y96.482 E3.51860
G1 X105.196 Y96.165 E3.54916
G1 X104.939 Y95.798 E3.57972
G1 X104.749 Y95.391 E3.61027
G1 X104.633 Y94.958 E3.64084
G1 X104.594 Y94.511 E3.67140
G1 X104.633 Y94.065 E3.70195
G1 X104.749 Y93.632 E3.73251
G1 X104.939 Y93.225 E3.76307
G1 X105.196 Y92.858 E3.79363
G1 X105.513 Y92.541 E3.82419
G1 X105.736 Y92.384 E3.84276
G1 X105.588 Y92.173 E3.86036
G1 X105.454 Y91.885 E3.88201
G1 X105.372 Y91.578 E3.90366
G1 X105.344 Y91.261 E3.92532
G1 X105.372 Y90.945 E3.94697
G1 X105.454 Y90.638 E3.96861
G1 X105.588 Y90.350 E3.99025
G1 X105.771 Y90.090 E4.01192
G1 X105.995 Y89.865 E4.03356
G1 X106.255 Y89.683 E4.05521
G1 X106.543 Y89.549 E4.07686
G1 X106.850 Y89.466 E4.09851
G1 X107.167 Y89.439 E4.12017
G1 X107.483 Y89.466 E4.14181
G1 X107.790 Y89.549 E4.16346
G1 X108.078 Y89.683 E4.18511
G1 X108.338 Y89.865 E4.20677
G1 X108.563 Y90.090 E4.22841
G1 X108.745 Y90.350 E4.25005
G1 X108.879 Y90.638 E4.27172
G1 X108.962 Y90.945 E4.29336
G1 X108.989 Y91.262 E4.31503
G1 X108.962 Y91.578 E4.33666
G1 X108.879 Y91.885 E4.35831
G1 X108.745 Y92.173 E4.37997
G1 X108.597 Y92.384 E4.39756
G1 X108.820 Y92.541 E4.41614
G1 X109.137 Y92.858 E4.44670
G1 X109.395 Y93.225 E4.47726
G1 X109.584 Y93.632 E4.50782
G1 X109.700 Y94.065 E4.53838
G1 X109.739 Y94.511 E4.56894
G1 X109.700 Y94.958 E4.59949
G1 X109.584 Y95.391 E4.63005
G1 X109.429 Y95.723 E4.65502
G1 X108.920 Y95.524 F7800.000
G1 X108.717 Y95.813 F540.000 E4.67907
G1 X108.468 Y96.062 E4.70311
G1 X108.179 Y96.264 E4.72716
G1 X107.825 Y96.423 E4.75358
G1 X107.518 Y96.505 E4.77521
G1 X107.167 Y96.536 E4.79926
G1 X106.815 Y96.505 E4.82330
G1 X106.474 Y96.414 E4.84734
G1 X106.155 Y96.264 E4.87139
G1 X105.866 Y96.062 E4.89543
G1 X105.616 Y95.813 E4.91948
G1 X105.414 Y95.524 E4.94352
G1 X105.265 Y95.204 E4.96756
G1 X105.173 Y94.863 E4.99161
G1 X105.142 Y94.511 E5.01565
G1 X105.173 Y94.160 E5.03970
G1 X105.265 Y93.819 E5.06374
G1 X105.414 Y93.499 E5.08779
G1 X105.616 Y93.210 E5.11183
G1 X105.866 Y92.961 E5.13587
G1 X106.155 Y92.758 E5.15992
G1 X106.474 Y92.609 E5.18396
G1 X106.767 Y92.531 E5.20459
G1 X106.348 Y92.237 E5.23946
G1 X106.191 Y92.080 E5.25459
G1 X106.063 Y91.899 E5.26973
G1 X105.969 Y91.697 E5.28487
G1 X105.912 Y91.483 E5.30000
G1 X105.892 Y91.261 E5.31514
G1 X105.912 Y91.040 E5.33027
G1 X105.969 Y90.826 E5.34541
G1 X106.063 Y90.624 E5.36054
G1 X106.191 Y90.442 E5.37568
G1 X106.348 Y90.285 E5.39081
G1 X106.530 Y90.158 E5.40595
G1 X106.731 Y90.064 E5.42108
G1 X106.945 Y90.007 E5.43622
G1 X107.167 Y89.987 E5.45136
G1 X107.388 Y90.007 E5.46649
G1 X107.602 Y90.064 E5.48163
G1 X107.804 Y90.158 E5.49676
G1 X107.986 Y90.285 E5.51190
G1 X108.143 Y90.442 E5.52703
G1 X108.270 Y90.624 E5.54216
G1 X108.364 Y90.826 E5.55731
G1 X108.422 Y91.040 E5.57244
G1 X108.438 Y91.231 E5.58552
G1 X108.422 Y91.483 E5.60268
G1 X108.364 Y91.697 E5.61782
G1 X108.270 Y91.899 E5.63296
G1 X108.143 Y92.081 E5.64809
G1 X107.986 Y92.238 E5.66322
G1 X107.567 Y92.531 E5.69808
G1 X107.859 Y92.609 E5.71871
G1 X108.179 Y92.758 E5.74275
G1 X108.468 Y92.961 E5.76680
G1 X108.717 Y93.210 E5.79084
G1 X108.920 Y93.499 E5.81488
G1 X109.069 Y93.819 E5.83893
G1 X109.160 Y94.160 E5.86297
G1 X109.191 Y94.511 E5.88702
G1 X109.160 Y94.863 E5.91106
G1 X109.069 Y95.204 E5.93510
G1 X108.954 Y95.449 E5.95356
G1 X108.567 Y95.513 F7800.000
G1 F1800.000 E4.05356
G92 E0
G1 X100.879 Y98.638 F7800.000
G1 F1800.000 E1.90000
G1 X100.962 Y98.945 F540.000 E1.92165
G1 X100.989 Y99.262 E1.94331
G1 X100.962 Y99.578 E1.96495
G1 X100.879 Y99.885 E1.98659
G1 X100.745 Y100.173 E2.00825
G1 X100.563 Y100.433 E2.02991
G1 X100.338 Y100.658 E2.05155
G1 X100.078 Y100.840 E2.07319
G1 X99.790 Y100.974 E2.09486
G1 X99.483 Y101.056 E2.11650
G1 X99.167 Y101.084 E2.13815
G1 X98.850 Y101.056 E2.15981
G1 X98.543 Y100.974 E2.18145
G1 X98.255 Y100.840 E2.20311
G1 X97.995 Y100.658 E2.22476
G1 X97.770 Y100.433 E2.24640
G1 X97.588 Y100.173 E2.26805
G1 X97.454 Y99.885 E2.28970
G1 X97.372 Y99.578 E2.31135
G1 X97.344 Y99.261 E2.33300
G1 X97.372 Y98.945 E2.35465
G1 X97.454 Y98.638 E2.37630
G1 X97.588 Y98.350 E2.39795
G1 X97.771 Y98.090 E2.41961
G1 X97.995 Y97.865 E2.44125
G1 X98.255 Y97.683 E2.46289
G1 X98.543 Y97.549 E2.48455
G1 X98.850 Y97.466 E2.50620
G1 X99.167 Y97.439 E2.52787
G1 X99.483 Y97.466 E2.54950
G1 X99.790 Y97.549 E2.57115
G1 X100.078 Y97.683 E2.59280
G1 X100.338 Y97.865 E2.61446
G1 X100.563 Y98.090 E2.63610
G1 X100.745 Y98.350 E2.65775
G1 X100.845 Y98.564 E2.67381
G1 X100.364 Y98.826 F7800.000
G1 X100.422 Y99.040 F540.000 E2.68895
G1 X100.441 Y99.261 E2.70409
G1 X100.422 Y99.483 E2.71922
G1 X100.364 Y99.697 E2.73435
G1 X100.270 Y99.899 E2.74949
G1 X100.143 Y100.081 E2.76463
G1 X99.986 Y100.238 E2.77976
G1 X99.804 Y100.365 E2.79489
G1 X99.602 Y100.459 E2.81004
G1 X99.388 Y100.516 E2.82517
G1 X99.167 Y100.536 E2.84031
G1 X98.945 Y100.516 E2.85544
G1 X98.731 Y100.459 E2.87057
G1 X98.530 Y100.365 E2.88571
G1 X98.348 Y100.237 E2.90085
G1 X98.191 Y100.080 E2.91598
G1 X98.063 Y99.899 E2.93112
G1 X97.969 Y99.697 E2.94625
G1 X97.912 Y99.483 E2.96139
G1 X97.892 Y99.261 E2.97652
G1 X97.912 Y99.040 E2.99166
G1 X97.969 Y98.826 E3.00679
G1 X98.063 Y98.624 E3.02193
G1 X98.191 Y98.442 E3.03707
G1 X98.348 Y98.285 E3.05220
G1 X98.530 Y98.158 E3.06733
G1 X98.731 Y98.064 E3.08247
G1 X98.945 Y98.007 E3.09761
G1 X99.167 Y97.987 E3.11275
G1 X99.388 Y98.007 E3.12788
G1 X99.602 Y98.064 E3.14301
G1 X99.804 Y98.158 E3.15815
G1 X99.986 Y98.285 E3.17329
G1 X100.143 Y98.442 E3.18842
G1 X100.270 Y98.624 E3.20356
G1 X100.329 Y98.751 E3.21311
G1 X100.216 Y98.992 F7800.000
G1 X105.120 Y102.466
G1 X105.196 Y102.358 F540.000 E3.22208
G1 X105.513 Y102.041 E3.25264
G1 X105.880 Y101.783 E3.28320
G1 X106.287 Y101.594 E3.31375
G1 X106.803 Y101.471 E3.34990
G1 X107.167 Y101.439 E3.37480
G1 X107.613 Y101.478 E3.40536
G1 X108.047 Y101.594 E3.43592
G1 X108.453 Y101.783 E3.46647
G1 X108.820 Y102.041 E3.49703
G1 X109.137 Y102.358 E3.52759
G1 X109.395 Y102.725 E3.55815
G1 X109.584 Y103.132 E3.58871
G1 X109.700 Y103.565 E3.61927
G1 X109.739 Y104.011 E3.64983
G1 X109.700 Y104.458 E3.68039
G1 X109.584 Y104.891 E3.71094
G1 X109.395 Y105.298 E3.74150
G1 X109.137 Y105.665 E3.77206
G1 X108.820 Y105.982 E3.80262
G1 X108.597 Y106.139 E3.82120
G1 X108.745 Y106.350 E3.83879
G1 X108.879 Y106.638 E3.86045
G1 X108.962 Y106.945 E3.88209
G1 X108.989 Y107.262 E3.90376
G1 X108.962 Y107.578 E3.92539
G1 X108.879 Y107.885 E3.94704
G1 X108.745 Y108.173 E3.96870
G1 X108.563 Y108.433 E3.99034
G1 X108.338 Y108.658 E4.01201
G1 X108.078 Y108.840 E4.03364
G1 X107.790 Y108.974 E4.05531
G1 X107.483 Y109.056 E4.07695
G1 X107.167 Y109.084 E4.09861
G1 X106.850 Y109.056 E4.12025
G1 X106.543 Y108.974 E4.14189
G1 X106.255 Y108.840 E4.16356
G1 X105.995 Y108.658 E4.18521
G1 X105.770 Y108.433 E4.20684
G1 X105.588 Y108.173 E4.22850
G1 X105.454 Y107.885 E4.25015
G1 X105.372 Y107.578 E4.27180
G1 X105.344 Y107.261 E4.29346
G1 X105.372 Y106.945 E4.31510
G1 X105.454 Y106.638 E4.33675
G1 X105.588 Y106.350 E4.35839
G1 X105.736 Y106.139 E4.37599
G1 X105.513 Y105.982 E4.39457
G1 X105.196 Y105.665 E4.42513
G1 X104.939 Y105.298 E4.45569
G1 X104.728 Y104.811 E4.49184
G1 X104.633 Y104.458 E4.51673
G1 X104.594 Y104.011 E4.54729
G1 X104.633 Y103.565 E4.57784
G1 X104.749 Y103.132 E4.60841
G1 X104.939 Y102.725 E4.63896
G1 X105.073 Y102.533 E4.65496
G1 X105.563 Y102.787 F7800.000
G1 X105.616 Y102.710 F540.000 E4.66131
G1 X105.866 Y102.461 E4.68535
G1 X106.155 Y102.258 E4.70940
G1 X106.474 Y102.109 E4.73344
G1 X106.815 Y102.018 E4.75748
G1 X107.167 Y101.987 E4.78153
G1 X107.518 Y102.018 E4.80557
G1 X107.859 Y102.109 E4.82962
G1 X108.179 Y102.258 E4.85366
G1 X108.468 Y102.461 E4.87770
G1 X108.717 Y102.710 E4.90175
G1 X108.901 Y102.972 E4.92354
G1 X109.069 Y103.319 E4.94981
G1 X109.160 Y103.660 E4.97385
G1 X109.191 Y104.011 E4.99790
G1 X109.160 Y104.363 E5.02194
G1 X109.069 Y104.704 E5.04598
G1 X108.920 Y105.024 E5.07003
G1 X108.717 Y105.313 E5.09407
G1 X108.468 Y105.562 E5.11812
G1 X108.179 Y105.764 E5.14216
G1 X107.859 Y105.914 E5.16620
