; generated by Slic3r 0.9.10b on 2013-10-05 at 15:19:54

; layer_height = 0.3
; perimeters = 2
; top_solid_layers = 3
; bottom_solid_layers = 3
; fill_density = 0.3
; perimeter_speed = 30
; infill_speed = 60
; travel_speed = 130
; nozzle_diameter = 0.35
; filament_diameter = 1.75
; extrusion_multiplier = 1
; perimeters extrusion width = 0.37mm
; infill extrusion width = 0.37mm
; solid infill extrusion width = 0.37mm
; top infill extrusion width = 0.37mm
; support material extrusion width = 0.37mm
; first layer extrusion width = 0.60mm

G21 ; set units to millimeters
M107
M190 S65 ; wait for bed temperature to be reached
M104 S180 ; set temperature
G28 ; home all axes
M109 S180 ; wait for temperature to be reached
G90 ; use absolute coordinates
G92 E0
M82 ; use absolute distances for extrusion
G1 F1800.000 E-1.90000
G92 E0
G1 Z0.300 F7800.000
G1 X87.480 Y81.980
G1 F1800.000 E1.90000
G1 X88.560 Y81.100 F540.000 E1.99493
G1 X89.790 Y80.450 E2.08973
G1 X91.120 Y80.040 E2.18457
G1 X92.500 Y79.910 E2.27903
G1 X107.500 Y79.910 E3.30118
G1 X108.880 Y80.040 E3.39564
G1 X110.210 Y80.450 E3.49048
G1 X111.440 Y81.100 E3.58528
G1 X112.520 Y81.980 E3.68021
G1 X113.400 Y83.060 E3.77514
G1 X114.050 Y84.290 E3.86995
G1 X114.460 Y85.620 E3.96478
G1 X114.590 Y87.000 E4.05924
G1 X114.590 Y112.990 E5.83029
G1 X114.460 Y114.370 E5.92475
G1 X114.050 Y115.700 E6.01959
G1 X113.400 Y116.930 E6.11439
G1 X112.520 Y118.010 E6.20932
G1 X111.440 Y118.890 E6.30426
G1 X110.210 Y119.540 E6.39906
G1 X108.880 Y119.950 E6.49390
G1 X107.500 Y120.080 E6.58835
G1 X92.500 Y120.080 E7.61051
G1 X91.120 Y119.950 E7.70496
G1 X89.790 Y119.540 E7.79980
G1 X88.560 Y118.890 E7.89460
G1 X87.480 Y118.010 E7.98953
G1 X86.600 Y116.930 E8.08447
G1 X85.950 Y115.700 E8.17927
G1 X85.540 Y114.370 E8.27411
G1 X85.410 Y112.990 E8.36856
G1 X85.410 Y87.000 E10.13962
G1 X85.540 Y85.620 E10.23407
G1 X85.950 Y84.290 E10.32891
G1 X86.600 Y83.060 E10.42371
G1 X87.428 Y82.044 E10.51306
G1 X87.870 Y82.370 F7800.000
G1 X88.860 Y81.560 F540.000 E10.60023
G1 X89.990 Y80.950 E10.68773
G1 X91.220 Y80.580 E10.77526
G1 X92.500 Y80.450 E10.86293
G1 X107.500 Y80.450 E11.88509
G1 X108.780 Y80.580 E11.97276
G1 X110.010 Y80.950 E12.06029
G1 X111.140 Y81.560 E12.14779
G1 X112.130 Y82.370 E12.23496
G1 X112.940 Y83.360 E12.32212
G1 X113.550 Y84.490 E12.40963
G1 X113.920 Y85.720 E12.49716
G1 X114.050 Y87.000 E12.58483
G1 X114.050 Y112.990 E14.35588
G1 X113.920 Y114.270 E14.44356
G1 X113.550 Y115.500 E14.53108
G1 X112.940 Y116.630 E14.61859
G1 X112.130 Y117.620 E14.70575
G1 X111.140 Y118.430 E14.79292
G1 X110.010 Y119.040 E14.88043
G1 X108.780 Y119.410 E14.96795
G1 X107.500 Y119.540 E15.05563
G1 X92.500 Y119.540 E16.07778
G1 X91.220 Y119.410 E16.16545
G1 X89.990 Y119.040 E16.25298
G1 X88.860 Y118.430 E16.34049
G1 X87.870 Y117.620 E16.42765
G1 X87.060 Y116.630 E16.51482
G1 X86.450 Y115.500 E16.60232
G1 X86.080 Y114.270 E16.68985
G1 X85.950 Y112.990 E16.77752
G1 X85.950 Y87.000 E18.54858
G1 X86.080 Y85.720 E18.63625
G1 X86.450 Y84.490 E18.72378
G1 X87.060 Y83.360 E18.81128
G1 X87.818 Y82.433 E18.89286
G1 F1800.000 E16.99286
G92 E0
G1 X96.051 Y88.803 F7800.000
G1 F1800.000 E1.90000
G1 X103.949 Y88.803 F1080.000 E2.43818
G1 X103.949 Y89.896 E2.51264
G1 X96.051 Y89.896 E3.05082
G1 X96.051 Y90.989 E3.12528
G1 X103.949 Y90.989 E3.66346
G1 X103.949 Y92.081 E3.73792
G1 X96.051 Y92.081 E4.27610
G1 X96.051 Y93.174 E4.35056
G1 X103.949 Y93.174 E4.88874
G1 X103.949 Y94.267 E4.96320
G1 X96.051 Y94.267 E5.50138
G1 X96.051 Y95.359 E5.57584
G1 X103.949 Y95.359 E6.11401
G1 X103.949 Y96.452 E6.18847
G1 X96.051 Y96.452 E6.72665
G1 X95.051 Y97.545 E6.82759
G1 X104.949 Y97.545 E7.50206
G1 X104.949 Y98.637 E7.57652
G1 X95.051 Y98.637 E8.25098
G1 X95.051 Y99.730 E8.32544
G1 X104.949 Y99.730 E8.99991
G1 X104.949 Y100.823 E9.07437
G1 X95.051 Y100.823 E9.74884
G1 X95.051 Y101.916 E9.82330
G1 X104.949 Y101.916 E10.49776
G1 X104.949 Y103.008 E10.57222
G1 X95.051 Y103.008 E11.24669
G1 X96.051 Y104.101 F7800.000
G1 X103.949 Y104.101 F1080.000 E11.78487
G1 X103.949 Y105.194 E11.85933
G1 X96.051 Y105.194 E12.39751
G1 X96.051 Y106.286 E12.47197
G1 X103.949 Y106.286 E13.01015
G1 X103.949 Y107.379 E13.08461
G1 X96.051 Y107.379 E13.62279
G1 X96.051 Y108.472 E13.69725
G1 X103.949 Y108.472 E14.23542
G1 X103.949 Y109.564 E14.30988
G1 X96.051 Y109.564 E14.84806
G1 X96.051 Y110.657 E14.92252
G1 X103.949 Y110.657 E15.46070
G1 X104.773 Y112.266 F7800.000
G1 X95.227 Y112.266 F540.000 E16.11123
G1 X95.227 Y104.260 E16.65675
G1 X94.227 Y104.260 E16.72490
G1 X94.227 Y95.740 E17.30549
G1 X95.227 Y95.740 E17.37363
G1 X95.227 Y87.734 E17.91916
G1 X104.773 Y87.734 E18.56968
G1 X104.773 Y95.740 E19.11521
G1 X105.773 Y95.740 E19.18335
G1 X105.773 Y104.260 E19.76394
G1 X104.773 Y104.260 E19.83209
G1 X104.773 Y112.184 E20.37203
G1 X104.300 Y111.992 F7800.000
G1 F1800.000 E18.47203
G92 E0
G1 X94.680 Y104.806 F7800.000
G1 F1800.000 E1.90000
G1 X94.680 Y112.173 F540.000 E2.40201
G1 X93.320 Y112.173 E2.49475
G1 X93.320 Y104.806 E2.99676
G1 X94.599 Y104.806 E3.08392
G1 F1800.000 E1.18392
G92 E0
G1 X105.320 Y104.806 F7800.000
G1 F1800.000 E1.90000
G1 X106.680 Y104.806 F540.000 E1.99274
G1 X106.680 Y112.173 E2.49475
G1 X105.320 Y112.173 E2.58749
G1 X105.320 Y104.888 E3.08392
G1 F1800.000 E1.18392
G92 E0
G1 X106.680 Y87.826 F7800.000
G1 F1800.000 E1.90000
G1 X106.680 Y95.194 F540.000 E2.40203
G1 X105.320 Y95.194 E2.49477
G1 X105.320 Y87.826 E2.99681
G1 X106.599 Y87.826 E3.08396
G1 X94.680 Y87.826 F7800.000
G1 X94.680 Y95.194 F540.000 E3.58599
G1 X93.320 Y95.194 E3.67873
G1 X93.320 Y87.826 E4.18077
G1 X94.599 Y87.826 E4.26792
G1 X92.773 Y87.280 F7800.000
G1 X107.227 Y87.280 F540.000 E5.25285
G1 X107.227 Y112.720 E6.98640
G1 X92.773 Y112.720 E7.97133
G1 X92.773 Y87.362 E9.69930
G1 X93.246 Y87.553 F7800.000
G1 F1800.000 E7.79930
G92 E0
G1 X99.250 Y112.493 F7800.000
G1 F1800.000 E1.90000
G1 X103.991 Y112.493 F540.000 E2.22310
G1 X104.141 Y112.368 E2.23641
G1 X103.991 Y112.493 F7800.000
G1 X104.141 Y112.618 F540.000 E2.24972
G1 X99.250 Y112.493 F7800.000
G1 X98.650 Y112.493 F540.000 E2.29060
G1 X98.650 Y112.493 F7800.000
G1 X96.250 Y112.493 F540.000 E2.45415
G1 X96.250 Y112.493 F7800.000
G1 X95.950 Y112.422 F540.000 E2.47514
G1 X95.950 Y112.422 F7800.000
G1 X95.859 Y112.368 F540.000 E2.48241
G1 X96.009 Y112.493 F7800.000
G1 X95.859 Y112.618 F540.000 E2.49572
G1 F1800.000 E0.59572
G92 E0
G1 X95.859 Y87.632 F7800.000
G1 F1800.000 E1.90000
G1 X96.009 Y87.507 F540.000 E1.91331
G1 X95.950 Y87.437 F7800.000
G1 X95.859 Y87.382 F540.000 E1.92057
G1 X95.950 Y87.437 F7800.000
G1 X96.550 Y87.507 F540.000 E1.96173
G1 X96.550 Y87.507 F7800.000
G1 X97.150 Y87.507 F540.000 E2.00262
G1 X97.150 Y87.507 F7800.000
G1 X97.450 Y87.507 F540.000 E2.02306
G1 X97.450 Y87.507 F7800.000
G1 X103.991 Y87.507 F540.000 E2.46881
G1 X104.141 Y87.382 E2.48212
G1 X103.991 Y87.507 F7800.000
G1 X104.141 Y87.632 F540.000 E2.49543
G1 F1800.000 E0.59543
G92 E0
G1 X93.504 Y103.474 F7800.000
G1 F1800.000 E1.90000
G1 X93.496 Y96.366 F360.000 E2.64175
G1 X94.107 Y111.461 F7800.000
G1 X93.893 Y111.246 F360.000 E2.66246
G1 X94.107 Y110.688 E2.70325
G1 X93.893 Y110.473 E2.72396
G1 X94.107 Y109.915 E2.76475
G1 X93.893 Y109.700 E2.78546
G1 X94.107 Y109.142 E2.82625
G1 X93.893 Y108.927 E2.84696
G1 X94.107 Y108.369 E2.88775
G1 X93.893 Y108.154 E2.90846
G1 X94.107 Y107.596 E2.94925
G1 X93.893 Y107.381 E2.96996
G1 X94.107 Y106.822 E3.01075
G1 X93.893 Y106.608 E3.03146
G1 X94.107 Y106.049 E3.07225
G1 X93.893 Y105.835 E3.09296
G1 F1800.000 E1.19296
G92 E0
G1 X106.107 Y111.091 F7800.000
G1 F1800.000 E1.90000
G1 X105.893 Y110.877 F360.000 E1.92070
G1 X106.107 Y110.318 E1.96146
G1 X105.893 Y110.104 E1.98216
G1 X106.107 Y109.545 E2.02293
G1 X105.893 Y109.330 E2.04363
G1 X106.107 Y108.772 E2.08439
G1 X105.893 Y108.557 E2.10509
G1 X106.107 Y107.999 E2.14586
G1 X105.893 Y107.784 E2.16656
G1 X106.107 Y107.226 E2.20732
G1 X105.893 Y107.011 E2.22802
G1 X106.107 Y106.453 E2.26878
G1 X105.893 Y106.238 E2.28949
G1 X106.107 Y105.680 E2.33025
G1 X105.893 Y105.465 E2.35095
G1 X106.504 Y103.457 F7800.000
G1 X106.496 Y103.449 F360.000 E2.35206
G1 X106.504 Y102.274 F7800.000
G1 X106.496 Y102.266 F360.000 E2.35316
G1 X106.504 Y101.090 F7800.000
G1 X106.496 Y101.083 F360.000 E2.35427
G1 X106.504 Y99.907 F7800.000
G1 X106.496 Y99.899 F360.000 E2.35537
G1 X106.504 Y98.724 F7800.000
G1 X106.496 Y98.716 F360.000 E2.35648
G1 X106.504 Y97.540 F7800.000
G1 X106.496 Y97.533 F360.000 E2.35759
G1 X106.504 Y96.357 F7800.000
G1 X106.496 Y96.350 F360.000 E2.35869
G1 X106.107 Y94.083 F7800.000
G1 X105.893 Y93.868 F360.000 E2.37939
G1 X106.107 Y93.310 E2.42016
G1 X105.893 Y93.095 E2.44086
G1 X106.107 Y92.537 E2.48162
G1 X105.893 Y92.322 E2.50232
G1 X106.107 Y91.764 E2.54308
G1 X105.893 Y91.549 E2.56379
G1 X106.107 Y90.991 E2.60455
G1 X105.893 Y90.776 E2.62525
G1 X106.107 Y90.218 E2.66601
G1 X105.893 Y90.003 E2.68671
G1 X106.107 Y89.444 E2.72748
G1 X105.893 Y89.230 E2.74818
G1 X106.107 Y88.671 E2.78894
G1 X105.893 Y88.457 E2.80964
G1 F1800.000 E0.90964
G92 E0
G1 X94.107 Y94.453 F7800.000
G1 F1800.000 E1.90000
G1 X93.893 Y94.238 F360.000 E1.92070
G1 X94.107 Y93.680 E1.96146
G1 X93.893 Y93.465 E1.98216
G1 X94.107 Y92.907 E2.02293
G1 X93.893 Y92.692 E2.04363
G1 X94.107 Y92.133 E2.08439
G1 X93.893 Y91.919 E2.10509
G1 X94.107 Y91.360 E2.14586
G1 X93.893 Y91.146 E2.16656
G1 X94.107 Y90.587 E2.20732
G1 X93.893 Y90.372 E2.22802
G1 X94.107 Y89.814 E2.26878
G1 X93.893 Y89.599 E2.28949
G1 X94.107 Y89.041 E2.33025
G1 X93.893 Y88.826 E2.35095
M106 S255
M104 S185 ; set temperature
M140 S60 ; set bed temperature
G1 F1800.000 E0.45095
G92 E0
G1 Z0.600 F7800.000
G1 X102.500 Y88.743
G1 F1800.000 E1.90000
G1 X102.500 Y111.257 F3366.188 E2.92146
G1 X100.000 Y111.257 E3.03489
G1 X100.000 Y88.743 E4.05635
G1 X97.500 Y88.743 E4.16977
G1 X97.500 Y111.257 E5.19124
G1 F1800.000 E3.29124
G92 E0
G1 X95.318 Y112.159 F7800.000
G1 F1800.000 E1.90000
G1 X95.318 Y104.143 F1683.094 E2.26370
G1 X94.318 Y104.143 E2.30906
G1 X94.318 Y95.857 E2.68494
G1 X95.318 Y95.857 E2.73031
G1 X95.318 Y87.841 E3.09401
G1 X104.682 Y87.841 E3.51882
G1 X104.682 Y95.857 E3.88252
G1 X105.682 Y95.857 E3.92789
G1 X105.682 Y104.143 E4.30376
G1 X104.682 Y104.143 E4.34913
G1 X104.682 Y112.159 E4.71283
G1 X95.373 Y112.159 E5.13517
G1 X95.500 Y111.844 F7800.000
G1 F1800.000 E3.23517
G92 E0
G1 X94.954 Y87.566 F7800.000
G1 F1800.000 E1.90000
G1 X94.954 Y95.494 F1683.094 E2.25967
G1 X93.954 Y95.494 E2.30503
G1 X93.954 Y104.506 E2.71391
G1 X94.954 Y104.506 E2.75928
G1 X94.954 Y112.433 E3.11891
G1 X93.046 Y112.433 E3.20550
G1 X93.046 Y87.566 E4.33367
G1 X94.900 Y87.566 E4.41779
G1 X105.046 Y87.566 F7800.000
G1 X106.954 Y87.566 F1683.094 E4.50439
G1 X106.954 Y112.433 E5.63256
G1 X105.046 Y112.433 E5.71916
G1 X105.046 Y104.506 E6.07878
G1 X106.046 Y104.506 E6.12415
G1 X106.046 Y95.494 E6.53303
G1 X105.046 Y95.494 E6.57840
G1 X105.046 Y87.621 E6.93559
G1 X107.318 Y87.202 F7800.000
G1 X107.318 Y112.797 F1683.094 E8.09676
G1 X92.682 Y112.797 E8.76078
G1 X92.682 Y87.202 E9.92196
G1 X107.264 Y87.202 E10.58350
G1 X107.136 Y87.517 F7800.000
G1 F1800.000 E8.68350
G92 E0
G1 X93.309 Y104.828 F7800.000
G1 F1800.000 E1.90000
G1 X93.367 Y104.770 F3366.188 E1.90376
G1 X93.885 Y104.770 E1.92740
G1 X93.309 Y105.346 E1.96458
G1 X93.309 Y105.863 E1.98822
G1 X94.403 Y104.770 E2.05884
G1 X94.691 Y105.000 E2.07566
G1 X93.309 Y106.381 E2.16487
G1 X93.309 Y106.899 E2.18850
G1 X94.691 Y105.517 E2.27771
G1 X94.691 Y106.035 E2.30135
G1 X93.309 Y107.417 E2.39056
G1 X93.309 Y107.934 E2.41420
G1 X94.691 Y106.553 E2.50341
G1 X94.691 Y107.070 E2.52705
G1 X93.309 Y108.452 E2.61626
G1 X93.309 Y108.970 E2.63989
G1 X94.691 Y107.588 E2.72910
G1 X94.691 Y108.106 E2.75274
G1 X93.309 Y109.487 E2.84195
G1 X93.309 Y110.005 E2.86559
G1 X94.691 Y108.624 E2.95480
G1 X94.691 Y109.141 E2.97843
G1 X93.309 Y110.523 E3.06764
G1 X93.309 Y111.041 E3.09128
G1 X94.691 Y109.659 E3.18049
G1 X94.691 Y110.177 E3.20413
G1 X93.309 Y111.558 E3.29334
G1 X93.309 Y112.076 E3.31698
G1 X94.691 Y110.694 E3.40619
G1 X94.691 Y111.212 E3.42982
G1 X93.733 Y112.169 E3.49164
G1 X94.251 Y112.169 E3.51528
G1 X94.691 Y111.730 E3.54367
G1 X93.589 Y104.031 F7800.000
G1 X93.411 Y104.208 F1122.063 E3.55507
G1 X93.411 Y103.691 F7800.000
G1 X93.589 Y103.513 F1122.063 E3.56648
G1 X93.411 Y103.173 F7800.000
G1 X93.589 Y102.995 F1122.063 E3.57788
G1 X93.411 Y102.655 F7800.000
G1 X93.589 Y102.478 F1122.063 E3.58928
G1 X93.411 Y102.138 F7800.000
G1 X93.589 Y101.960 F1122.063 E3.60068
G1 X93.411 Y101.620 F7800.000
G1 X93.589 Y101.442 F1122.063 E3.61209
G1 X93.411 Y101.102 F7800.000
G1 X93.589 Y100.924 F1122.063 E3.62349
G1 X93.411 Y100.584 F7800.000
G1 X93.589 Y100.407 F1122.063 E3.63489
G1 X93.411 Y100.067 F7800.000
G1 X93.589 Y99.889 F1122.063 E3.64630
G1 X93.411 Y99.549 F7800.000
G1 X93.589 Y99.371 F1122.063 E3.65770
G1 X93.411 Y99.031 F7800.000
G1 X93.589 Y98.854 F1122.063 E3.66910
G1 X93.411 Y98.514 F7800.000
G1 X93.589 Y98.336 F1122.063 E3.68050
G1 X93.411 Y97.996 F7800.000
G1 X93.589 Y97.818 F1122.063 E3.69191
G1 X93.411 Y97.478 F7800.000
G1 X93.589 Y97.301 F1122.063 E3.70331
G1 X93.411 Y96.961 F7800.000
G1 X93.589 Y96.783 F1122.063 E3.71471
G1 X93.411 Y96.443 F7800.000
G1 X93.589 Y96.265 F1122.063 E3.72611
G1 X93.411 Y95.925 F7800.000
G1 X93.589 Y95.747 F1122.063 E3.73752
G1 X93.588 Y95.230 F7800.000
G1 X94.691 Y94.128 F3366.188 E3.80824
G1 X94.691 Y93.610 F7800.000
G1 X93.309 Y94.992 F3366.188 E3.89689
G1 X93.309 Y94.474 F7800.000
G1 X94.691 Y93.092 F3366.188 E3.98553
G1 X94.691 Y92.575 F7800.000
G1 X93.309 Y93.956 F3366.188 E4.07417
G1 X93.309 Y93.439 F7800.000
G1 X94.691 Y92.057 F3366.188 E4.16281
G1 X94.691 Y91.539 F7800.000
G1 X93.309 Y92.921 F3366.188 E4.25146
G1 X93.309 Y92.403 F7800.000
G1 X94.691 Y91.022 F3366.188 E4.34010
G1 X94.691 Y90.504 F7800.000
G1 X93.309 Y91.885 F3366.188 E4.42874
G1 X93.309 Y91.368 F7800.000
G1 X94.691 Y89.986 F3366.188 E4.51738
G1 X94.691 Y89.468 F7800.000
G1 X93.309 Y90.850 F3366.188 E4.60603
G1 X93.309 Y90.332 F7800.000
G1 X94.691 Y88.951 F3366.188 E4.69467
G1 X94.691 Y88.433 F7800.000
G1 X93.309 Y89.815 F3366.188 E4.78331
G1 X93.309 Y89.297 F7800.000
G1 X94.691 Y87.915 F3366.188 E4.87195
G1 X94.259 Y87.830 F7800.000
G1 X93.309 Y88.779 F3366.188 E4.93288
G1 X93.309 Y88.262 F7800.000
G1 X93.741 Y87.830 F3366.188 E4.96059
G1 X94.691 Y94.646 F7800.000
G1 X94.106 Y95.230 F3366.188 E4.99810
G1 X94.624 Y95.230 F7800.000
G1 X94.691 Y95.163 F3366.188 E5.00239
G1 F1800.000 E3.10239
G92 E0
G1 X105.309 Y94.899 F7800.000
G1 F1800.000 E1.90000
G1 X106.691 Y93.517 F3366.188 E1.98864
G1 X106.691 Y94.035 F7800.000
G1 X105.496 Y95.230 F3366.188 E2.06532
G1 X106.013 Y95.230 F7800.000
G1 X106.691 Y94.553 F3366.188 E2.10879
G1 X106.691 Y95.070 F7800.000
G1 X106.531 Y95.230 F3366.188 E2.11904
G1 X105.309 Y94.381 F7800.000
G1 X106.691 Y93.000 F3366.188 E2.20768
G1 X106.691 Y92.482 F7800.000
G1 X105.309 Y93.863 F3366.188 E2.29632
G1 X105.309 Y93.346 F7800.000
G1 X106.691 Y91.964 F3366.188 E2.38497
G1 X106.691 Y91.446 F7800.000
G1 X105.309 Y92.828 F3366.188 E2.47361
G1 X105.309 Y92.310 F7800.000
G1 X106.691 Y90.929 F3366.188 E2.56225
G1 X106.691 Y90.411 F7800.000
G1 X105.309 Y91.793 F3366.188 E2.65089
G1 X105.309 Y91.275 F7800.000
G1 X106.691 Y89.893 F3366.188 E2.73954
G1 X106.691 Y89.376 F7800.000
G1 X105.309 Y90.757 F3366.188 E2.82818
G1 X105.309 Y90.240 F7800.000
G1 X106.691 Y88.858 F3366.188 E2.91682
G1 X106.691 Y88.340 F7800.000
G1 X105.309 Y89.722 F3366.188 E3.00546
G1 X105.309 Y89.204 F7800.000
G1 X106.684 Y87.830 F3366.188 E3.09365
G1 X106.166 Y87.830 F7800.000
G1 X105.309 Y88.686 F3366.188 E3.14862
G1 X105.309 Y88.169 F7800.000
G1 X105.648 Y87.830 F3366.188 E3.17038
G1 X104.718 Y87.458 F7800.000
G1 X104.590 Y87.586 F1122.063 E3.17468
G1 X104.448 Y87.458 E3.17922
G1 X104.320 Y87.586 E3.18353
G1 X104.178 Y87.458 E3.18806
G1 X104.050 Y87.586 E3.19237
G1 X103.909 Y87.458 E3.19691
G1 X103.781 Y87.586 E3.20121
G1 X103.639 Y87.458 E3.20575
G1 X103.511 Y87.586 E3.21006
G1 X103.369 Y87.458 E3.21460
G1 X103.241 Y87.586 E3.21890
G1 X103.100 Y87.458 E3.22344
