; generated by Slic3r 0.9.10b on 2013-10-05 at 14:54:16

; layer_height = 0.3
; perimeters = 2
; top_solid_layers = 3
; bottom_solid_layers = 3
; fill_density = 0.3
; perimeter_speed = 30
; infill_speed = 60
; travel_speed = 130
; nozzle_diameter = 0.35
; filament_diameter = 1.75
; extrusion_multiplier = 1
; perimeters extrusion width = 0.37mm
; infill extrusion width = 0.37mm
; solid infill extrusion width = 0.37mm
; top infill extrusion width = 0.37mm
; first layer extrusion width = 0.60mm

G21 ; set units to millimeters
M107
M190 S65 ; wait for bed temperature to be reached
M104 S180 ; set temperature
G28 ; home all axes
M109 S180 ; wait for temperature to be reached
G90 ; use absolute coordinates
G92 E0
M82 ; use absolute distances for extrusion
G1 F1800.000 E-1.90000
G92 E0
G1 Z0.300 F7800.000
G1 X57.480 Y53.980
G1 F1800.000 E1.90000
G1 X58.560 Y53.100 F540.000 E1.99493
G1 X59.790 Y52.450 E2.08973
G1 X61.120 Y52.040 E2.18457
G1 X62.500 Y51.910 E2.27903
G1 X137.500 Y51.910 E7.38981
G1 X138.880 Y52.040 E7.48426
G1 X140.210 Y52.450 E7.57910
G1 X141.440 Y53.100 E7.67390
G1 X142.520 Y53.980 E7.76883
G1 X143.400 Y55.060 E7.86377
G1 X144.050 Y56.290 E7.95857
G1 X144.460 Y57.620 E8.05341
G1 X144.590 Y59.000 E8.14786
G1 X144.590 Y104.000 E11.21433
G1 X144.410 Y105.590 E11.32337
G1 X143.880 Y107.090 E11.43178
G1 X125.960 Y144.090 E14.23325
G1 X125.280 Y145.220 E14.32312
G1 X124.400 Y146.210 E14.41338
G1 X123.350 Y147.010 E14.50333
G1 X122.170 Y147.600 E14.59323
G1 X120.900 Y147.970 E14.68337
G1 X119.580 Y148.090 E14.77369
G1 X80.580 Y148.090 E17.43130
G1 X79.270 Y147.970 E17.52094
G1 X78.000 Y147.610 E17.61089
G1 X76.820 Y147.020 E17.70079
G1 X75.780 Y146.220 E17.79020
G1 X74.890 Y145.240 E17.88041
G1 X74.210 Y144.110 E17.97028
G1 X56.130 Y107.110 E20.77652
G1 X55.590 Y105.600 E20.88580
G1 X55.410 Y104.000 E20.99551
G1 X55.410 Y59.000 E24.06198
G1 X55.540 Y57.620 E24.15644
G1 X55.950 Y56.290 E24.25128
G1 X56.600 Y55.060 E24.34608
G1 X57.428 Y54.044 E24.43543
G1 X57.870 Y54.370 F7800.000
G1 X58.860 Y53.560 F540.000 E24.52259
G1 X59.990 Y52.950 E24.61010
G1 X61.220 Y52.580 E24.69762
G1 X62.500 Y52.450 E24.78530
G1 X137.500 Y52.450 E29.89608
G1 X138.780 Y52.580 E29.98375
G1 X140.010 Y52.950 E30.07127
G1 X141.140 Y53.560 E30.15878
G1 X142.130 Y54.370 E30.24595
G1 X142.940 Y55.360 E30.33311
G1 X143.550 Y56.490 E30.42062
G1 X143.920 Y57.720 E30.50814
G1 X144.050 Y59.000 E30.59582
G1 X144.050 Y104.000 E33.66228
G1 X143.880 Y105.460 E33.76245
G1 X143.390 Y106.850 E33.86288
G1 X125.470 Y143.850 E36.66435
G1 X124.690 Y145.090 E36.76417
G1 X123.650 Y146.120 E36.86391
G1 X122.420 Y146.900 E36.96316
G1 X121.030 Y147.380 E37.06337
G1 X119.580 Y147.550 E37.16286
G1 X80.580 Y147.550 E39.82046
G1 X79.130 Y147.380 E39.91995
G1 X77.750 Y146.900 E40.01951
G1 X76.520 Y146.130 E40.11840
G1 X75.480 Y145.100 E40.21814
G1 X74.700 Y143.870 E40.31739
G1 X56.620 Y106.870 E43.12363
G1 X56.120 Y105.470 E43.22493
G1 X55.950 Y104.000 E43.32577
G1 X55.950 Y59.000 E46.39224
G1 X56.080 Y57.720 E46.47991
G1 X56.450 Y56.490 E46.56744
G1 X57.060 Y55.360 E46.65494
G1 X57.818 Y54.433 E46.73652
G1 F1800.000 E44.83652
G92 E0
G1 X64.680 Y61.180 F7800.000
G1 F1800.000 E1.90000
G1 X135.320 Y61.180 F540.000 E6.71361
G1 X135.320 Y101.820 E9.48290
G1 X64.680 Y101.820 E14.29651
G1 X64.680 Y61.262 E17.06022
G1 X65.227 Y61.727 F7800.000
G1 X134.773 Y61.727 F540.000 E21.79937
G1 X134.773 Y101.273 E24.49420
G1 X65.227 Y101.273 E29.23335
G1 X65.227 Y61.809 E31.92260
G1 X65.700 Y62.000 F7800.000
G1 X63.320 Y59.820
G1 X136.680 Y59.820 F540.000 E36.92169
G1 X136.680 Y103.180 E39.87647
G1 X63.320 Y103.180 E44.87556
G1 X63.320 Y59.901 E47.82475
G1 X62.773 Y59.273 F7800.000
G1 X137.227 Y59.273 F540.000 E52.89830
G1 X137.227 Y103.727 E55.92753
G1 X62.773 Y103.727 E61.00108
G1 X62.773 Y59.355 E64.02474
G1 X63.246 Y59.546 F7800.000
G1 X64.165 Y102.607
G1 X63.893 Y102.335 F360.000 E64.05110
G1 X64.107 Y101.775 E64.09209
G1 X63.893 Y101.560 E64.11286
G1 X64.107 Y101.000 E64.15385
G1 X63.893 Y100.785 E64.17461
G1 X64.107 Y100.225 E64.21561
G1 X63.893 Y100.010 E64.23637
G1 X64.107 Y99.450 E64.27737
G1 X63.893 Y99.235 E64.29813
G1 X64.107 Y98.675 E64.33913
G1 X63.893 Y98.460 E64.35989
G1 X64.107 Y97.900 E64.40089
G1 X63.893 Y97.685 E64.42165
G1 X64.107 Y97.125 E64.46265
G1 X63.893 Y96.910 E64.48341
G1 X64.107 Y96.350 E64.52441
G1 X63.893 Y96.135 E64.54517
G1 X64.107 Y95.575 E64.58617
G1 X63.893 Y95.360 E64.60693
G1 X64.107 Y94.800 E64.64793
G1 X63.893 Y94.586 E64.66869
G1 X64.107 Y94.025 E64.70968
G1 X63.893 Y93.811 E64.73045
G1 X64.107 Y93.251 E64.77144
G1 X63.893 Y93.036 E64.79220
G1 X64.107 Y92.476 E64.83320
G1 X63.893 Y92.261 E64.85396
G1 X64.107 Y91.701 E64.89496
G1 X63.893 Y91.486 E64.91572
G1 X64.107 Y90.926 E64.95672
G1 X63.893 Y90.711 E64.97748
G1 X64.107 Y90.151 E65.01848
G1 X63.893 Y89.936 E65.03924
G1 X64.107 Y89.376 E65.08024
G1 X63.893 Y89.161 E65.10100
G1 X64.107 Y88.601 E65.14200
G1 X63.893 Y88.386 E65.16276
G1 X64.107 Y87.826 E65.20376
G1 X63.893 Y87.611 E65.22452
G1 X64.107 Y87.051 E65.26552
G1 X63.893 Y86.836 E65.28628
G1 X64.107 Y86.276 E65.32728
G1 X63.893 Y86.061 E65.34804
G1 X64.107 Y85.501 E65.38903
G1 X63.893 Y85.287 E65.40980
G1 X64.107 Y84.726 E65.45079
G1 X63.893 Y84.512 E65.47155
G1 X64.107 Y83.952 E65.51255
G1 X63.893 Y83.737 E65.53331
G1 X64.107 Y83.177 E65.57431
G1 X63.893 Y82.962 E65.59507
G1 X64.107 Y82.402 E65.63607
G1 X63.893 Y82.187 E65.65683
G1 X64.107 Y81.627 E65.69783
G1 X63.893 Y81.412 E65.71859
G1 X64.107 Y80.852 E65.75959
G1 X63.893 Y80.637 E65.78035
G1 X64.107 Y80.077 E65.82135
G1 X63.893 Y79.862 E65.84211
G1 X64.107 Y79.302 E65.88311
G1 X63.893 Y79.087 E65.90387
G1 X64.107 Y78.527 E65.94487
G1 X63.893 Y78.312 E65.96563
G1 X64.107 Y77.752 E66.00662
G1 X63.893 Y77.537 E66.02739
G1 X64.107 Y76.977 E66.06838
G1 X63.893 Y76.763 E66.08914
G1 X64.107 Y76.202 E66.13014
G1 X63.893 Y75.988 E66.15090
G1 X64.107 Y75.428 E66.19190
G1 X63.893 Y75.213 E66.21266
G1 X64.107 Y74.653 E66.25366
G1 X63.893 Y74.438 E66.27442
G1 X64.107 Y73.878 E66.31542
G1 X63.893 Y73.663 E66.33618
G1 X64.107 Y73.103 E66.37718
G1 X63.893 Y72.888 E66.39794
G1 X64.107 Y72.328 E66.43894
G1 X63.893 Y72.113 E66.45970
G1 X64.107 Y71.553 E66.50070
G1 X63.893 Y71.338 E66.52146
G1 X64.107 Y70.778 E66.56246
G1 X63.893 Y70.563 E66.58322
G1 X64.107 Y70.003 E66.62422
G1 X63.893 Y69.788 E66.64498
G1 X64.107 Y69.228 E66.68597
G1 X63.893 Y69.013 E66.70674
G1 X64.107 Y68.453 E66.74773
G1 X63.893 Y68.239 E66.76849
G1 X64.107 Y67.678 E66.80949
G1 X63.893 Y67.464 E66.83025
G1 X64.107 Y66.903 E66.87125
G1 X63.893 Y66.689 E66.89201
G1 X64.107 Y66.129 E66.93301
G1 X63.893 Y65.914 E66.95377
G1 X64.107 Y65.354 E66.99477
G1 X63.893 Y65.139 E67.01553
G1 X64.107 Y64.579 E67.05653
G1 X63.893 Y64.364 E67.07729
G1 X64.107 Y63.804 E67.11829
G1 X63.893 Y63.589 E67.13905
G1 X64.107 Y63.029 E67.18005
G1 X63.893 Y62.814 E67.20081
G1 X64.107 Y62.254 E67.24181
G1 X63.893 Y62.039 E67.26257
G1 X64.107 Y61.479 E67.30356
G1 X63.893 Y61.264 E67.32433
G1 X64.107 Y60.704 E67.36532
G1 X63.893 Y60.489 E67.38608
G1 X64.571 Y60.393 E67.43290
G1 X64.786 Y60.607 E67.45366
G1 X65.346 Y60.393 E67.49466
G1 X65.560 Y60.607 E67.51542
G1 X66.121 Y60.393 E67.55642
G1 X66.335 Y60.607 E67.57718
G1 X66.895 Y60.393 E67.61818
G1 X67.110 Y60.607 E67.63894
G1 X67.670 Y60.393 E67.67993
G1 X67.885 Y60.607 E67.70070
G1 X68.445 Y60.393 E67.74169
G1 X68.660 Y60.607 E67.76245
G1 X69.220 Y60.393 E67.80345
G1 X69.435 Y60.607 E67.82421
G1 X69.995 Y60.393 E67.86521
G1 X70.210 Y60.607 E67.88597
G1 X70.770 Y60.393 E67.92697
G1 X70.985 Y60.607 E67.94773
G1 X71.545 Y60.393 E67.98873
G1 X71.760 Y60.607 E68.00949
G1 X72.320 Y60.393 E68.05049
G1 X72.535 Y60.607 E68.07125
G1 X73.095 Y60.393 E68.11225
G1 X73.310 Y60.607 E68.13301
G1 X73.870 Y60.393 E68.17401
G1 X74.084 Y60.607 E68.19477
G1 X74.645 Y60.393 E68.23577
G1 X74.859 Y60.607 E68.25653
G1 X75.419 Y60.393 E68.29752
G1 X75.634 Y60.607 E68.31829
G1 X76.194 Y60.393 E68.35928
G1 X76.409 Y60.607 E68.38004
G1 X76.969 Y60.393 E68.42104
G1 X77.184 Y60.607 E68.44180
G1 X77.744 Y60.393 E68.48280
G1 X77.959 Y60.607 E68.50356
G1 X78.519 Y60.393 E68.54456
G1 X78.734 Y60.607 E68.56532
G1 X79.294 Y60.393 E68.60632
G1 X79.509 Y60.607 E68.62708
G1 X80.069 Y60.393 E68.66808
G1 X80.284 Y60.607 E68.68884
G1 X80.844 Y60.393 E68.72984
G1 X81.059 Y60.607 E68.75060
G1 X81.619 Y60.393 E68.79160
G1 X81.834 Y60.607 E68.81236
G1 X82.394 Y60.393 E68.85336
G1 X82.608 Y60.607 E68.87412
G1 X83.169 Y60.393 E68.91511
G1 X83.383 Y60.607 E68.93588
G1 X83.944 Y60.393 E68.97687
G1 X84.158 Y60.607 E68.99764
G1 X84.718 Y60.393 E69.03863
G1 X84.933 Y60.607 E69.05939
G1 X85.493 Y60.393 E69.10039
G1 X85.708 Y60.607 E69.12115
G1 X86.268 Y60.393 E69.16215
G1 X86.483 Y60.607 E69.18291
G1 X87.043 Y60.393 E69.22391
G1 X87.258 Y60.607 E69.24467
G1 X87.818 Y60.393 E69.28567
G1 X88.033 Y60.607 E69.30643
G1 X88.593 Y60.393 E69.34743
G1 X88.808 Y60.607 E69.36819
G1 X89.368 Y60.393 E69.40919
G1 X89.583 Y60.607 E69.42995
G1 X90.143 Y60.393 E69.47095
G1 X90.358 Y60.607 E69.49171
G1 X90.918 Y60.393 E69.53271
G1 X91.133 Y60.607 E69.55347
G1 X91.693 Y60.393 E69.59446
G1 X91.907 Y60.607 E69.61523
G1 X92.468 Y60.393 E69.65622
G1 X92.682 Y60.607 E69.67698
G1 X93.242 Y60.393 E69.71798
G1 X93.457 Y60.607 E69.73874
G1 X94.017 Y60.393 E69.77974
G1 X94.232 Y60.607 E69.80050
G1 X94.792 Y60.393 E69.84150
G1 X95.007 Y60.607 E69.86226
G1 X95.567 Y60.393 E69.90326
G1 X95.782 Y60.607 E69.92402
G1 X96.342 Y60.393 E69.96502
G1 X96.557 Y60.607 E69.98578
G1 X97.117 Y60.393 E70.02678
G1 X97.332 Y60.607 E70.04754
G1 X97.892 Y60.393 E70.08854
G1 X98.107 Y60.607 E70.10930
G1 X98.667 Y60.393 E70.15030
G1 X98.882 Y60.607 E70.17106
G1 X99.442 Y60.393 E70.21205
G1 X99.657 Y60.607 E70.23282
G1 X100.217 Y60.393 E70.27381
G1 X100.431 Y60.607 E70.29458
G1 X100.992 Y60.393 E70.33557
G1 X101.206 Y60.607 E70.35633
G1 X101.766 Y60.393 E70.39733
G1 X101.981 Y60.607 E70.41809
G1 X102.541 Y60.393 E70.45909
G1 X102.756 Y60.607 E70.47985
G1 X103.316 Y60.393 E70.52085
G1 X103.531 Y60.607 E70.54161
G1 X104.091 Y60.393 E70.58261
G1 X104.306 Y60.607 E70.60337
G1 X104.866 Y60.393 E70.64437
G1 X105.081 Y60.607 E70.66513
G1 X105.641 Y60.393 E70.70613
G1 X105.856 Y60.607 E70.72689
G1 X106.416 Y60.393 E70.76789
G1 X106.631 Y60.607 E70.78865
G1 X107.191 Y60.393 E70.82965
G1 X107.406 Y60.607 E70.85041
G1 X107.966 Y60.393 E70.89140
G1 X108.181 Y60.607 E70.91217
G1 X108.741 Y60.393 E70.95316
G1 X108.956 Y60.607 E70.97392
G1 X109.516 Y60.393 E71.01492
G1 X109.730 Y60.607 E71.03568
G1 X110.291 Y60.393 E71.07668
G1 X110.505 Y60.607 E71.09744
G1 X111.065 Y60.393 E71.13844
G1 X111.280 Y60.607 E71.15920
G1 X111.840 Y60.393 E71.20020
G1 X112.055 Y60.607 E71.22096
G1 X112.615 Y60.393 E71.26196
G1 X112.830 Y60.607 E71.28272
G1 X113.390 Y60.393 E71.32372
G1 X113.605 Y60.607 E71.34448
G1 X114.165 Y60.393 E71.38548
G1 X114.380 Y60.607 E71.40624
G1 X114.940 Y60.393 E71.44724
G1 X115.155 Y60.607 E71.46800
G1 X115.715 Y60.393 E71.50899
G1 X115.930 Y60.607 E71.52976
G1 X116.490 Y60.393 E71.57075
G1 X116.705 Y60.607 E71.59152
G1 X117.265 Y60.393 E71.63251
G1 X117.480 Y60.607 E71.65327
G1 X118.040 Y60.393 E71.69427
G1 X118.254 Y60.607 E71.71503
G1 X118.815 Y60.393 E71.75603
G1 X119.029 Y60.607 E71.77679
G1 X119.589 Y60.393 E71.81779
G1 X119.804 Y60.607 E71.83855
G1 X120.364 Y60.393 E71.87955
G1 X120.579 Y60.607 E71.90031
G1 X121.139 Y60.393 E71.94131
G1 X121.354 Y60.607 E71.96207
G1 X121.914 Y60.393 E72.00307
G1 X122.129 Y60.607 E72.02383
G1 X122.689 Y60.393 E72.06483
G1 X122.904 Y60.607 E72.08559
G1 X123.464 Y60.393 E72.12659
G1 X123.679 Y60.607 E72.14735
G1 X124.239 Y60.393 E72.18834
G1 X124.454 Y60.607 E72.20911
G1 X125.014 Y60.393 E72.25010
G1 X125.229 Y60.607 E72.27086
G1 X125.789 Y60.393 E72.31186
G1 X126.004 Y60.607 E72.33262
G1 X126.564 Y60.393 E72.37362
G1 X126.778 Y60.607 E72.39438
G1 X127.339 Y60.393 E72.43538
G1 X127.553 Y60.607 E72.45614
G1 X128.114 Y60.393 E72.49714
G1 X128.328 Y60.607 E72.51790
G1 X128.888 Y60.393 E72.55890
G1 X129.103 Y60.607 E72.57966
G1 X129.663 Y60.393 E72.62066
G1 X129.878 Y60.607 E72.64142
G1 X130.438 Y60.393 E72.68242
G1 X130.653 Y60.607 E72.70318
G1 X131.213 Y60.393 E72.74418
G1 X131.428 Y60.607 E72.76494
G1 X131.988 Y60.393 E72.80593
G1 X132.203 Y60.607 E72.82670
G1 X132.763 Y60.393 E72.86769
G1 X132.978 Y60.607 E72.88846
G1 X133.538 Y60.393 E72.92945
G1 X133.753 Y60.607 E72.95021
G1 X134.313 Y60.393 E72.99121
G1 X134.528 Y60.607 E73.01197
G1 X135.088 Y60.393 E73.05297
G1 X135.303 Y60.607 E73.07373
G1 X135.863 Y60.393 E73.11473
G1 X136.107 Y60.637 E73.13839
G1 X135.893 Y61.197 E73.17938
G1 X136.107 Y61.412 E73.20015
G1 X135.893 Y61.972 E73.24114
G1 X136.107 Y62.187 E73.26190
G1 X135.893 Y62.747 E73.30290
G1 X136.107 Y62.962 E73.32366
G1 X135.893 Y63.522 E73.36466
G1 X136.107 Y63.737 E73.38542
G1 X135.893 Y64.297 E73.42642
G1 X136.107 Y64.512 E73.44718
G1 X135.893 Y65.072 E73.48818
G1 X136.107 Y65.287 E73.50894
G1 X135.893 Y65.847 E73.54994
G1 X136.107 Y66.062 E73.57070
G1 X135.893 Y66.622 E73.61170
G1 X136.107 Y66.837 E73.63246
G1 X135.893 Y67.397 E73.67346
G1 X136.107 Y67.612 E73.69422
G1 X135.893 Y68.172 E73.73522
G1 X136.107 Y68.386 E73.75598
G1 X135.893 Y68.947 E73.79697
G1 X136.107 Y69.161 E73.81774
G1 X135.893 Y69.721 E73.85873
G1 X136.107 Y69.936 E73.87949
G1 X135.893 Y70.496 E73.92049
G1 X136.107 Y70.711 E73.94125
G1 X135.893 Y71.271 E73.98225
G1 X136.107 Y71.486 E74.00301
G1 X135.893 Y72.046 E74.04401
G1 X136.107 Y72.261 E74.06477
G1 X135.893 Y72.821 E74.10577
G1 X136.107 Y73.036 E74.12653
G1 X135.893 Y73.596 E74.16753
G1 X136.107 Y73.811 E74.18829
G1 X135.893 Y74.371 E74.22929
G1 X136.107 Y74.586 E74.25005
G1 X135.893 Y75.146 E74.29105
G1 X136.107 Y75.361 E74.31181
G1 X135.893 Y75.921 E74.35281
G1 X136.107 Y76.136 E74.37357
G1 X135.893 Y76.696 E74.41457
G1 X136.107 Y76.911 E74.43533
G1 X135.893 Y77.471 E74.47632
G1 X136.107 Y77.685 E74.49709
G1 X135.893 Y78.246 E74.53808
G1 X136.107 Y78.460 E74.55884
G1 X135.893 Y79.020 E74.59984
G1 X136.107 Y79.235 E74.62060
G1 X135.893 Y79.795 E74.66160
G1 X136.107 Y80.010 E74.68236
G1 X135.893 Y80.570 E74.72336
G1 X136.107 Y80.785 E74.74412
G1 X135.893 Y81.345 E74.78512
G1 X136.107 Y81.560 E74.80588
G1 X135.893 Y82.120 E74.84688
G1 X136.107 Y82.335 E74.86764
G1 X135.893 Y82.895 E74.90864
G1 X136.107 Y83.110 E74.92940
G1 X135.893 Y83.670 E74.97040
G1 X136.107 Y83.885 E74.99116
G1 X135.893 Y84.445 E75.03216
G1 X136.107 Y84.660 E75.05292
G1 X135.893 Y85.220 E75.09391
G1 X136.107 Y85.435 E75.11468
G1 X135.893 Y85.995 E75.15567
G1 X136.107 Y86.209 E75.17643
G1 X135.893 Y86.770 E75.21743
G1 X136.107 Y86.984 E75.23819
G1 X135.893 Y87.544 E75.27919
G1 X136.107 Y87.759 E75.29995
G1 X135.893 Y88.319 E75.34095
G1 X136.107 Y88.534 E75.36171
G1 X135.893 Y89.094 E75.40271
G1 X136.107 Y89.309 E75.42347
G1 X135.893 Y89.869 E75.46447
G1 X136.107 Y90.084 E75.48523
G1 X135.893 Y90.644 E75.52623
G1 X136.107 Y90.859 E75.54699
G1 X135.893 Y91.419 E75.58799
G1 X136.107 Y91.634 E75.60875
G1 X135.893 Y92.194 E75.64975
G1 X136.107 Y92.409 E75.67051
G1 X135.893 Y92.969 E75.71151
G1 X136.107 Y93.184 E75.73227
G1 X135.893 Y93.744 E75.77326
G1 X136.107 Y93.959 E75.79403
G1 X135.893 Y94.519 E75.83502
G1 X136.107 Y94.733 E75.85578
G1 X135.893 Y95.294 E75.89678
G1 X136.107 Y95.508 E75.91754
G1 X135.893 Y96.069 E75.95854
G1 X136.107 Y96.283 E75.97930
G1 X135.893 Y96.843 E76.02030
G1 X136.107 Y97.058 E76.04106
G1 X135.893 Y97.618 E76.08206
G1 X136.107 Y97.833 E76.10282
G1 X135.893 Y98.393 E76.14382
G1 X136.107 Y98.608 E76.16458
G1 X135.893 Y99.168 E76.20558
G1 X136.107 Y99.383 E76.22634
G1 X135.893 Y99.943 E76.26734
G1 X136.107 Y100.158 E76.28810
G1 X135.893 Y100.718 E76.32910
G1 X136.107 Y100.933 E76.34986
G1 X135.893 Y101.493 E76.39085
G1 X136.107 Y101.708 E76.41162
G1 X135.893 Y102.268 E76.45261
G1 X136.107 Y102.483 E76.47337
G1 X135.457 Y102.607 E76.51862
G1 X135.242 Y102.393 E76.53938
G1 X134.682 Y102.607 E76.58038
G1 X134.468 Y102.393 E76.60114
G1 X133.907 Y102.607 E76.64214
G1 X133.693 Y102.393 E76.66290
G1 X133.133 Y102.607 E76.70389
