; generated by Slic3r 0.9.10b on 2013-09-29 at 17:18:21

; layer_height = 0.3
; perimeters = 2
; top_solid_layers = 3
; bottom_solid_layers = 3
; fill_density = 0.3
; perimeter_speed = 30
; infill_speed = 60
; travel_speed = 130
; nozzle_diameter = 0.35
; filament_diameter = 1.75
; extrusion_multiplier = 1
; perimeters extrusion width = 0.37mm
; infill extrusion width = 0.37mm
; solid infill extrusion width = 0.37mm
; top infill extrusion width = 0.37mm
; first layer extrusion width = 0.60mm

G21 ; set units to millimeters
M107
M190 S65 ; wait for bed temperature to be reached
M104 S180 ; set temperature
G28 ; home all axes
M109 S180 ; wait for temperature to be reached
G90 ; use absolute coordinates
G92 E0
M82 ; use absolute distances for extrusion
G1 F1800.000 E-1.90000
G92 E0
G1 Z0.300 F7800.000
G1 X72.603 Y63.980
G1 F1800.000 E1.90000
G1 X73.683 Y63.100 F540.000 E1.99493
G1 X74.913 Y62.450 E2.08973
G1 X76.243 Y62.040 E2.18457
G1 X77.623 Y61.910 E2.27903
G1 X121.123 Y61.910 E5.24328
G1 X122.493 Y62.040 E5.33706
G1 X123.803 Y62.430 E5.43020
G1 X125.023 Y63.070 E5.52408
G1 X126.093 Y63.940 E5.61805
G1 X126.973 Y64.990 E5.71141
G1 X127.633 Y66.190 E5.80473
G1 X128.883 Y69.090 E6.01992
G1 X129.323 Y70.470 E6.11863
G1 X129.463 Y71.900 E6.21654
G1 X129.463 Y92.760 E7.63802
G1 X129.343 Y94.060 E7.72698
G1 X128.993 Y95.310 E7.81544
G1 X114.243 Y133.550 E10.60838
G1 X113.603 Y134.820 E10.70529
G1 X112.723 Y135.930 E10.80182
G1 X111.633 Y136.850 E10.89902
G1 X110.393 Y137.530 E10.99539
G1 X109.033 Y137.950 E11.09238
G1 X107.623 Y138.090 E11.18893
G1 X88.623 Y138.090 E12.48366
G1 X87.263 Y137.960 E12.57676
G1 X85.943 Y137.570 E12.67056
G1 X84.733 Y136.930 E12.76383
G1 X83.663 Y136.070 E12.85738
G1 X82.783 Y135.030 E12.95022
G1 X82.123 Y133.830 E13.04354
G1 X81.693 Y132.520 E13.13749
G1 X70.693 Y82.520 E16.62616
G1 X70.573 Y81.770 E16.67792
G1 X70.533 Y81.000 E16.73046
G1 X70.533 Y69.000 E17.54818
G1 X70.663 Y67.620 E17.64264
G1 X71.073 Y66.290 E17.73748
G1 X71.723 Y65.060 E17.83228
G1 X72.552 Y64.044 E17.92163
G1 X72.993 Y64.370 F7800.000
G1 X73.983 Y63.560 F540.000 E18.00879
G1 X75.113 Y62.950 E18.09630
G1 X76.343 Y62.580 E18.18382
G1 X77.623 Y62.450 E18.27150
G1 X121.123 Y62.450 E21.23575
G1 X122.383 Y62.580 E21.32207
G1 X123.603 Y62.940 E21.40875
G1 X124.723 Y63.530 E21.49501
G1 X125.703 Y64.330 E21.58122
G1 X126.523 Y65.300 E21.66777
G1 X127.133 Y66.410 E21.75408
G1 X128.383 Y69.310 E21.96927
G1 X128.783 Y70.580 E22.06000
G1 X128.923 Y71.900 E22.15046
G1 X128.923 Y92.760 E23.57194
G1 X128.813 Y93.960 E23.65405
G1 X128.483 Y95.120 E23.73623
G1 X113.733 Y133.360 E26.52918
G1 X113.143 Y134.520 E26.61786
G1 X112.323 Y135.550 E26.70758
G1 X111.323 Y136.400 E26.79701
G1 X110.173 Y137.030 E26.88637
G1 X108.923 Y137.420 E26.97560
G1 X107.623 Y137.550 E27.06462
G1 X88.623 Y137.550 E28.35936
G1 X87.363 Y137.420 E28.44567
G1 X86.153 Y137.060 E28.53170
G1 X85.033 Y136.470 E28.61796
G1 X84.043 Y135.680 E28.70427
G1 X83.233 Y134.720 E28.78986
G1 X82.623 Y133.610 E28.87617
G1 X82.233 Y132.410 E28.96215
G1 X71.233 Y82.410 E32.45082
G1 X71.113 Y81.710 E32.49922
G1 X71.073 Y81.000 E32.54768
G1 X71.073 Y69.000 E33.36540
G1 X71.203 Y67.720 E33.45307
G1 X71.573 Y66.490 E33.54060
G1 X72.183 Y65.360 E33.62810
G1 X72.942 Y64.433 E33.70969
G1 F1800.000 E31.80969
G92 E0
G1 X94.443 Y69.820 F7800.000
G1 F1800.000 E1.90000
G1 X106.091 Y69.820 F540.000 E2.69376
G1 X106.333 Y69.855 E2.71041
G1 X106.522 Y69.952 E2.72486
G1 X106.672 Y70.102 E2.73931
G1 X106.768 Y70.290 E2.75377
G1 X106.793 Y70.394 E2.76102
G1 X106.804 Y130.180 E6.83509
G1 X105.443 Y130.180 E6.92783
G1 X105.443 Y80.180 E10.33502
G1 X94.443 Y80.180 E11.08460
G1 X94.443 Y77.320 E11.27956
G1 X102.943 Y77.320 E11.85878
G1 X102.943 Y72.680 E12.17490
G1 X94.443 Y72.680 E12.75412
G1 X94.443 Y69.901 E12.94349
G1 X93.897 Y69.273 F7800.000
G1 X106.113 Y69.273 F540.000 E13.77594
G1 X106.315 Y69.289 E13.78979
G1 X106.502 Y69.334 E13.80290
G1 X106.680 Y69.408 E13.81600
G1 X106.844 Y69.508 E13.82911
G1 X106.990 Y69.633 E13.84222
G1 X107.115 Y69.779 E13.85533
G1 X107.216 Y69.943 E13.86844
G1 X107.289 Y70.121 E13.88155
G1 X107.334 Y70.308 E13.89466
G1 X107.350 Y70.511 E13.90850
G1 X107.350 Y130.727 E18.01185
G1 X104.897 Y130.727 E18.17905
G1 X104.897 Y80.727 E21.58624
G1 X93.897 Y80.727 E22.33582
G1 X93.897 Y76.773 E22.60524
G1 X102.397 Y76.773 E23.18446
G1 X102.397 Y73.227 E23.42612
G1 X93.897 Y73.227 E24.00534
G1 X93.897 Y69.355 E24.26917
G1 X94.370 Y69.546 F7800.000
G1 X94.839 Y72.067
G1 X95.056 Y72.284 F1080.000 E24.29014
G1 X95.830 Y72.284 E24.34287
G1 X94.839 Y71.294 E24.43841
G1 X94.839 Y70.521 E24.49114
G1 X96.603 Y72.284 E24.66125
G1 X97.376 Y72.284 E24.71398
G1 X95.307 Y70.216 E24.91352
G1 X96.080 Y70.216 E24.96625
G1 X98.149 Y72.284 E25.16579
G1 X98.922 Y72.284 E25.21852
G1 X96.853 Y70.216 E25.41806
G1 X97.627 Y70.216 E25.47079
G1 X99.696 Y72.284 E25.67033
G1 X100.469 Y72.284 E25.72306
G1 X98.400 Y70.216 E25.92260
G1 X99.173 Y70.216 E25.97533
G1 X101.242 Y72.284 E26.17487
G1 X102.015 Y72.284 E26.22760
G1 X99.946 Y70.216 E26.42714
G1 X100.720 Y70.216 E26.47987
G1 X102.789 Y72.284 E26.67941
G1 X106.132 Y70.216 F7800.000
G1 X106.408 Y70.491 F1080.000 E26.70598
G1 X106.408 Y71.264 E26.75871
G1 X105.359 Y70.216 E26.85986
G1 X104.586 Y70.216 E26.91259
G1 X106.408 Y72.038 E27.08831
G1 X106.408 Y72.811 E27.14104
G1 X103.813 Y70.216 E27.39133
G1 X103.039 Y70.216 E27.44406
G1 X106.408 Y73.584 E27.76893
G1 X106.408 Y74.357 E27.82166
G1 X102.266 Y70.216 E28.22110
G1 X101.493 Y70.216 E28.27383
G1 X106.408 Y75.130 E28.74784
G1 X106.408 Y75.904 E28.80057
G1 X103.339 Y72.835 E29.09656
G1 X103.339 Y73.608 E29.14929
G1 X106.408 Y76.677 E29.44527
G1 X106.408 Y77.450 E29.49800
G1 X103.339 Y74.381 E29.79398
G1 X103.339 Y75.154 E29.84671
G1 X106.408 Y78.223 E30.14269
G1 X106.408 Y78.997 E30.19543
G1 X103.339 Y75.928 E30.49141
G1 X103.339 Y76.701 E30.54414
G1 X106.408 Y79.770 E30.84012
G1 X105.649 Y79.784 E30.89187
G1 X103.339 Y77.474 E31.11468
G1 X102.807 Y77.716 E31.15451
G1 X104.876 Y79.784 E31.35405
G1 X104.103 Y79.784 E31.40678
G1 X102.034 Y77.716 E31.60632
G1 X101.261 Y77.716 E31.65905
G1 X103.330 Y79.784 E31.85859
G1 X102.556 Y79.784 E31.91132
G1 X100.487 Y77.716 E32.11086
G1 X99.714 Y77.716 E32.16359
G1 X101.783 Y79.784 E32.36313
G1 X101.010 Y79.784 E32.41586
G1 X98.941 Y77.716 E32.61540
G1 X98.168 Y77.716 E32.66813
G1 X100.237 Y79.784 E32.86767
G1 X99.463 Y79.784 E32.92040
G1 X97.394 Y77.716 E33.11994
G1 X96.621 Y77.716 E33.17267
G1 X98.690 Y79.784 E33.37221
G1 X97.917 Y79.784 E33.42494
G1 X95.848 Y77.716 E33.62448
G1 X95.075 Y77.716 E33.67721
G1 X97.144 Y79.784 E33.87675
G1 X96.370 Y79.784 E33.92948
G1 X94.839 Y78.253 E34.07718
G1 X94.839 Y79.026 E34.12991
G1 X95.597 Y79.784 E34.20303
G1 F1800.000 E32.30303
G92 E0
G1 X106.231 Y129.080 F7800.000
G1 F1800.000 E1.90000
G1 X106.016 Y128.865 F360.000 E1.92072
G1 X106.231 Y128.307 E1.96152
G1 X106.016 Y128.092 E1.98224
G1 X106.231 Y127.534 E2.02304
G1 X106.016 Y127.319 E2.04375
G1 X106.231 Y126.760 E2.08456
G1 X106.016 Y126.546 E2.10527
G1 X106.231 Y125.987 E2.14608
G1 X106.016 Y125.772 E2.16679
G1 X106.231 Y125.214 E2.20760
G1 X106.016 Y124.999 E2.22831
G1 X106.231 Y124.441 E2.26912
G1 X106.016 Y124.226 E2.28983
G1 X106.231 Y123.667 E2.33063
G1 X106.016 Y123.453 E2.35135
G1 X106.231 Y122.894 E2.39215
G1 X106.016 Y122.679 E2.41287
G1 X106.231 Y122.121 E2.45367
G1 X106.016 Y121.906 E2.47439
G1 X106.231 Y121.348 E2.51519
G1 X106.016 Y121.133 E2.53591
G1 X106.231 Y120.575 E2.57671
G1 X106.016 Y120.360 E2.59743
G1 X106.231 Y119.801 E2.63823
G1 X106.016 Y119.586 E2.65895
G1 X106.231 Y119.028 E2.69975
G1 X106.016 Y118.813 E2.72047
G1 X106.231 Y118.255 E2.76127
G1 X106.016 Y118.040 E2.78199
G1 X106.231 Y117.482 E2.82279
G1 X106.016 Y117.267 E2.84350
G1 X106.231 Y116.708 E2.88431
G1 X106.016 Y116.494 E2.90502
G1 X106.231 Y115.935 E2.94583
G1 X106.016 Y115.720 E2.96654
G1 X106.231 Y115.162 E3.00735
G1 X106.016 Y114.947 E3.02806
G1 X106.231 Y114.389 E3.06886
G1 X106.016 Y114.174 E3.08958
G1 X106.231 Y113.615 E3.13038
G1 X106.016 Y113.401 E3.15110
G1 X106.231 Y112.842 E3.19190
G1 X106.016 Y112.627 E3.21262
G1 X106.231 Y112.069 E3.25342
G1 X106.016 Y111.854 E3.27414
G1 X106.231 Y111.296 E3.31494
G1 X106.016 Y111.081 E3.33566
G1 X106.231 Y110.522 E3.37646
G1 X106.016 Y110.308 E3.39718
G1 X106.231 Y109.749 E3.43798
G1 X106.016 Y109.534 E3.45870
G1 X106.231 Y108.976 E3.49950
G1 X106.016 Y108.761 E3.52022
G1 X106.231 Y108.203 E3.56102
G1 X106.016 Y107.988 E3.58173
G1 X106.231 Y107.429 E3.62254
G1 X106.016 Y107.215 E3.64325
G1 X106.231 Y106.656 E3.68406
G1 X106.016 Y106.441 E3.70477
G1 X106.231 Y105.883 E3.74558
G1 X106.016 Y105.668 E3.76629
G1 X106.231 Y105.110 E3.80710
G1 X106.016 Y104.895 E3.82781
G1 X106.231 Y104.336 E3.86861
G1 X106.016 Y104.122 E3.88933
G1 X106.231 Y103.563 E3.93013
G1 X106.016 Y103.348 E3.95085
G1 X106.231 Y102.790 E3.99165
G1 X106.016 Y102.575 E4.01237
G1 X106.231 Y102.017 E4.05317
G1 X106.016 Y101.802 E4.07389
G1 X106.231 Y101.244 E4.11469
G1 X106.016 Y101.029 E4.13541
G1 X106.231 Y100.470 E4.17621
G1 X106.016 Y100.255 E4.19693
G1 X106.231 Y99.697 E4.23773
G1 X106.016 Y99.482 E4.25845
G1 X106.231 Y98.924 E4.29925
G1 X106.016 Y98.709 E4.31997
G1 X106.231 Y98.151 E4.36077
G1 X106.016 Y97.936 E4.38148
G1 X106.231 Y97.377 E4.42229
G1 X106.016 Y97.163 E4.44300
G1 X106.231 Y96.604 E4.48381
G1 X106.016 Y96.389 E4.50452
G1 X106.231 Y95.831 E4.54533
G1 X106.016 Y95.616 E4.56604
G1 X106.231 Y95.058 E4.60685
G1 X106.016 Y94.843 E4.62756
G1 X106.231 Y94.284 E4.66836
G1 X106.016 Y94.070 E4.68908
G1 X106.231 Y93.511 E4.72988
G1 X106.016 Y93.296 E4.75060
G1 X106.231 Y92.738 E4.79140
G1 X106.016 Y92.523 E4.81212
G1 X106.231 Y91.965 E4.85292
G1 X106.016 Y91.750 E4.87364
G1 X106.231 Y91.191 E4.91444
G1 X106.016 Y90.977 E4.93516
G1 X106.231 Y90.418 E4.97596
G1 X106.016 Y90.203 E4.99668
G1 X106.231 Y89.645 E5.03748
G1 X106.016 Y89.430 E5.05820
G1 X106.231 Y88.872 E5.09900
G1 X106.016 Y88.657 E5.11972
G1 X106.231 Y88.098 E5.16052
G1 X106.016 Y87.884 E5.18123
G1 X106.231 Y87.325 E5.22204
G1 X106.016 Y87.110 E5.24275
G1 X106.231 Y86.552 E5.28356
G1 X106.016 Y86.337 E5.30427
G1 X106.231 Y85.779 E5.34508
G1 X106.016 Y85.564 E5.36579
G1 X106.231 Y85.005 E5.40660
G1 X106.016 Y84.791 E5.42731
G1 X106.231 Y84.232 E5.46811
G1 X106.016 Y84.017 E5.48883
G1 X106.231 Y83.459 E5.52963
G1 X106.016 Y83.244 E5.55035
G1 X106.231 Y82.686 E5.59115
G1 X106.016 Y82.471 E5.61187
G1 X106.231 Y81.913 E5.65267
G1 X106.016 Y81.698 E5.67339
G1 X106.231 Y81.139 E5.71419
G1 X106.016 Y80.924 E5.73491
G1 X106.231 Y80.366 E5.77571
G1 X106.072 Y80.207 E5.79103
G1 F1800.000 E3.89103
G92 E0
G1 X89.443 Y130.180 F7800.000
G1 F1800.000 E1.90000
G1 X89.443 Y80.180 F540.000 E5.30719
G1 X78.443 Y80.180 E6.05677
G1 X78.443 Y77.320 E6.25172
G1 X86.943 Y77.320 E6.83094
G1 X86.943 Y72.680 E7.14707
G1 X78.443 Y72.680 E7.72629
G1 X78.443 Y69.820 E7.92124
G1 X90.091 Y69.820 E8.71500
G1 X90.333 Y69.855 E8.73165
G1 X90.522 Y69.952 E8.74610
G1 X90.672 Y70.102 E8.76056
G1 X90.768 Y70.290 E8.77501
G1 X90.793 Y70.394 E8.78226
G1 X90.804 Y130.180 E12.85634
G1 X89.525 Y130.180 E12.94349
G1 X88.897 Y130.727 F7800.000
G1 X88.897 Y80.727 F540.000 E16.35068
G1 X77.897 Y80.727 E17.10026
G1 X77.897 Y76.773 E17.36968
G1 X86.397 Y76.773 E17.94890
G1 X86.397 Y73.227 E18.19056
G1 X77.897 Y73.227 E18.76978
G1 X77.897 Y69.273 E19.03920
G1 X90.113 Y69.273 E19.87165
G1 X90.315 Y69.289 E19.88549
G1 X90.502 Y69.334 E19.89860
G1 X90.680 Y69.408 E19.91171
G1 X90.844 Y69.508 E19.92482
G1 X90.990 Y69.633 E19.93793
G1 X91.115 Y69.779 E19.95104
G1 X91.216 Y69.943 E19.96415
G1 X91.289 Y70.121 E19.97726
G1 X91.334 Y70.308 E19.99037
G1 X91.350 Y70.511 E20.00421
G1 X91.350 Y130.727 E24.10756
G1 X88.979 Y130.727 E24.26917
G1 X89.170 Y130.254 F7800.000
G1 F1800.000 E22.36917
G92 E0
G1 X79.597 Y79.784 F7800.000
G1 F1800.000 E1.90000
G1 X78.839 Y79.026 F1080.000 E1.97312
G1 X78.839 Y78.253 E2.02586
G1 X80.370 Y79.784 E2.17355
G1 X81.144 Y79.784 E2.22628
G1 X79.075 Y77.716 E2.42582
G1 X79.848 Y77.716 E2.47855
G1 X81.917 Y79.784 E2.67809
G1 X82.690 Y79.784 E2.73082
G1 X80.621 Y77.716 E2.93036
G1 X81.394 Y77.716 E2.98309
G1 X83.463 Y79.784 E3.18263
G1 X84.237 Y79.784 E3.23536
G1 X82.168 Y77.716 E3.43490
G1 X82.941 Y77.716 E3.48763
G1 X85.010 Y79.784 E3.68717
G1 X85.783 Y79.784 E3.73990
G1 X83.714 Y77.716 E3.93944
G1 X84.487 Y77.716 E3.99217
G1 X86.556 Y79.784 E4.19171
G1 X87.330 Y79.784 E4.24444
G1 X85.261 Y77.716 E4.44398
G1 X86.034 Y77.716 E4.49671
G1 X88.103 Y79.784 E4.69625
G1 X88.876 Y79.784 E4.74898
G1 X86.807 Y77.716 E4.94852
G1 X87.339 Y77.474 E4.98835
G1 X89.649 Y79.784 E5.21117
G1 X90.408 Y79.770 E5.26291
G1 X87.339 Y76.701 E5.55890
G1 X87.339 Y75.928 E5.61163
G1 X90.408 Y78.997 E5.90761
G1 X90.408 Y78.223 E5.96034
G1 X87.339 Y75.154 E6.25632
G1 X87.339 Y74.381 E6.30905
G1 X90.408 Y77.450 E6.60503
G1 X90.408 Y76.677 E6.65777
G1 X87.339 Y73.608 E6.95375
G1 X87.339 Y72.835 E7.00648
G1 X90.408 Y75.904 E7.30246
G1 X90.408 Y75.130 E7.35519
G1 X85.493 Y70.216 E7.82920
G1 X86.266 Y70.216 E7.88193
G1 X90.408 Y74.357 E8.28137
G1 X90.408 Y73.584 E8.33411
G1 X87.039 Y70.216 E8.65897
G1 X87.813 Y70.216 E8.71170
G1 X90.408 Y72.811 E8.96200
G1 X90.408 Y72.038 E9.01473
G1 X88.586 Y70.216 E9.19045
G1 X89.359 Y70.216 E9.24318
G1 X90.408 Y71.264 E9.34432
G1 X90.408 Y70.491 E9.39705
G1 X90.132 Y70.216 E9.42363
G1 X86.789 Y72.284 F7800.000
G1 X84.720 Y70.216 F1080.000 E9.62317
G1 X83.946 Y70.216 E9.67590
G1 X86.015 Y72.284 E9.87544
G1 X85.242 Y72.284 E9.92817
G1 X83.173 Y70.216 E10.12771
G1 X82.400 Y70.216 E10.18044
G1 X84.469 Y72.284 E10.37998
G1 X83.696 Y72.284 E10.43271
G1 X81.627 Y70.216 E10.63225
G1 X80.853 Y70.216 E10.68498
G1 X82.922 Y72.284 E10.88452
G1 X82.149 Y72.284 E10.93725
G1 X80.080 Y70.216 E11.13679
G1 X79.307 Y70.216 E11.18952
G1 X81.376 Y72.284 E11.38906
G1 X80.603 Y72.284 E11.44179
G1 X78.839 Y70.521 E11.61190
G1 X78.839 Y71.294 E11.66463
G1 X79.830 Y72.284 E11.76017
G1 X79.056 Y72.284 E11.81290
G1 X78.839 Y72.067 E11.83386
G1 F1800.000 E9.93386
G92 E0
G1 X90.231 Y129.080 F7800.000
G1 F1800.000 E1.90000
G1 X90.016 Y128.865 F360.000 E1.92072
G1 X90.231 Y128.307 E1.96152
G1 X90.016 Y128.092 E1.98224
G1 X90.231 Y127.534 E2.02304
G1 X90.016 Y127.319 E2.04375
G1 X90.231 Y126.760 E2.08456
G1 X90.016 Y126.546 E2.10527
G1 X90.231 Y125.987 E2.14608
G1 X90.016 Y125.772 E2.16679
G1 X90.231 Y125.214 E2.20760
G1 X90.016 Y124.999 E2.22831
G1 X90.231 Y124.441 E2.26912
G1 X90.016 Y124.226 E2.28983
G1 X90.231 Y123.667 E2.33063
G1 X90.016 Y123.453 E2.35135
G1 X90.231 Y122.894 E2.39215
G1 X90.016 Y122.679 E2.41287
G1 X90.231 Y122.121 E2.45367
G1 X90.016 Y121.906 E2.47439
G1 X90.231 Y121.348 E2.51519
G1 X90.016 Y121.133 E2.53591
G1 X90.231 Y120.575 E2.57671
G1 X90.016 Y120.360 E2.59743
G1 X90.231 Y119.801 E2.63823
G1 X90.016 Y119.586 E2.65895
G1 X90.231 Y119.028 E2.69975
G1 X90.016 Y118.813 E2.72047
G1 X90.231 Y118.255 E2.76127
G1 X90.016 Y118.040 E2.78199
G1 X90.231 Y117.482 E2.82279
G1 X90.016 Y117.267 E2.84350
G1 X90.231 Y116.708 E2.88431
G1 X90.016 Y116.494 E2.90502
G1 X90.231 Y115.935 E2.94583
G1 X90.016 Y115.720 E2.96654
G1 X90.231 Y115.162 E3.00735
G1 X90.016 Y114.947 E3.02806
G1 X90.231 Y114.389 E3.06886
G1 X90.016 Y114.174 E3.08958
G1 X90.231 Y113.615 E3.13038
G1 X90.016 Y113.401 E3.15110
G1 X90.231 Y112.842 E3.19190
G1 X90.016 Y112.627 E3.21262
G1 X90.231 Y112.069 E3.25342
G1 X90.016 Y111.854 E3.27414
G1 X90.231 Y111.296 E3.31494
G1 X90.016 Y111.081 E3.33566
G1 X90.231 Y110.522 E3.37646
G1 X90.016 Y110.308 E3.39718
G1 X90.231 Y109.749 E3.43798
G1 X90.016 Y109.534 E3.45870
G1 X90.231 Y108.976 E3.49950
G1 X90.016 Y108.761 E3.52022
G1 X90.231 Y108.203 E3.56102
G1 X90.016 Y107.988 E3.58173
G1 X90.231 Y107.429 E3.62254
G1 X90.016 Y107.215 E3.64325
G1 X90.231 Y106.656 E3.68406
G1 X90.016 Y106.441 E3.70477
G1 X90.231 Y105.883 E3.74558
G1 X90.016 Y105.668 E3.76629
G1 X90.231 Y105.110 E3.80710
G1 X90.016 Y104.895 E3.82781
G1 X90.231 Y104.336 E3.86861
G1 X90.016 Y104.122 E3.88933
G1 X90.231 Y103.563 E3.93013
G1 X90.016 Y103.348 E3.95085
