; generated by Slic3r 0.9.10b on 2013-10-06 at 16:27:00

; layer_height = 0.3
; perimeters = 2
; top_solid_layers = 3
; bottom_solid_layers = 3
; fill_density = 0.3
; perimeter_speed = 30
; infill_speed = 60
; travel_speed = 130
; nozzle_diameter = 0.35
; filament_diameter = 1.75
; extrusion_multiplier = 1
; perimeters extrusion width = 0.37mm
; infill extrusion width = 0.37mm
; solid infill extrusion width = 0.37mm
; top infill extrusion width = 0.37mm
; support material extrusion width = 0.37mm
; first layer extrusion width = 0.60mm

G21 ; set units to millimeters
M107
M190 S65 ; wait for bed temperature to be reached
M104 S180 ; set temperature
G28 ; home all axes
M109 S180 ; wait for temperature to be reached
G90 ; use absolute coordinates
G92 E0
M82 ; use absolute distances for extrusion
G1 F1800.000 E-1.90000
G92 E0
G1 Z0.300 F7800.000
G1 X88.510 Y69.110
G1 F1800.000 E1.90000
G1 X89.390 Y67.980 F540.000 E1.99760
G1 X90.470 Y67.060 E2.09428
G1 X91.720 Y66.370 E2.19157
G1 X93.080 Y65.950 E2.28857
G1 X94.500 Y65.810 E2.38580
G1 X105.500 Y65.810 E3.13538
G1 X106.920 Y65.950 E3.23261
G1 X108.280 Y66.370 E3.32961
G1 X109.530 Y67.060 E3.42690
G1 X110.610 Y67.980 E3.52358
G1 X111.490 Y69.110 E3.62118
G1 X112.130 Y70.380 E3.71809
G1 X112.500 Y71.760 E3.81545
G1 X114.150 Y81.860 E4.51282
G1 X114.240 Y83.000 E4.59075
G1 X114.240 Y127.100 E7.59589
G1 X114.110 Y128.480 E7.69034
G1 X113.700 Y129.810 E7.78518
G1 X113.050 Y131.040 E7.87998
G1 X112.170 Y132.120 E7.97491
G1 X111.090 Y133.000 E8.06985
G1 X109.860 Y133.650 E8.16465
G1 X108.530 Y134.060 E8.25949
G1 X107.150 Y134.190 E8.35394
G1 X92.850 Y134.190 E9.32840
G1 X91.470 Y134.060 E9.42285
G1 X90.140 Y133.650 E9.51769
G1 X88.910 Y133.000 E9.61249
G1 X87.830 Y132.120 E9.70743
G1 X86.950 Y131.040 E9.80236
G1 X86.300 Y129.810 E9.89716
G1 X85.890 Y128.480 E9.99200
G1 X85.760 Y127.100 E10.08645
G1 X85.760 Y83.000 E13.09159
G1 X85.850 Y81.860 E13.16952
G1 X87.500 Y71.760 E13.86689
G1 X87.870 Y70.380 E13.96425
G1 X88.473 Y69.183 E14.05558
G1 X88.970 Y69.400 F7800.000
G1 X89.780 Y68.360 F540.000 E14.14541
G1 X90.780 Y67.510 E14.23484
G1 X91.940 Y66.880 E14.32479
G1 X93.190 Y66.490 E14.41402
G1 X94.500 Y66.350 E14.50380
G1 X105.500 Y66.350 E15.25338
G1 X106.810 Y66.490 E15.34316
G1 X108.060 Y66.880 E15.43239
G1 X109.220 Y67.510 E15.52234
G1 X110.220 Y68.360 E15.61177
G1 X111.030 Y69.400 E15.70160
G1 X111.620 Y70.570 E15.79089
G1 X111.960 Y71.840 E15.88048
G1 X113.610 Y81.940 E16.57786
G1 X113.700 Y83.000 E16.65035
G1 X113.700 Y127.100 E19.65549
G1 X113.570 Y128.380 E19.74316
G1 X113.200 Y129.610 E19.83069
G1 X112.590 Y130.740 E19.91819
G1 X111.780 Y131.730 E20.00536
G1 X110.790 Y132.540 E20.09252
G1 X109.660 Y133.150 E20.18003
G1 X108.430 Y133.520 E20.26756
G1 X107.150 Y133.650 E20.35523
G1 X92.850 Y133.650 E21.32968
G1 X91.570 Y133.520 E21.41736
G1 X90.340 Y133.150 E21.50488
G1 X89.210 Y132.540 E21.59239
G1 X88.220 Y131.730 E21.67956
G1 X87.410 Y130.740 E21.76672
G1 X86.800 Y129.610 E21.85423
G1 X86.430 Y128.380 E21.94175
G1 X86.300 Y127.100 E22.02943
G1 X86.300 Y83.000 E25.03456
G1 X86.390 Y81.940 E25.10706
G1 X88.040 Y71.840 E25.80443
G1 X88.380 Y70.570 E25.89402
G1 X88.933 Y69.473 E25.97773
G1 F1800.000 E24.07773
G92 E0
G1 X95.320 Y73.720 F7800.000
G1 F1800.000 E1.90000
G1 X104.680 Y73.720 F540.000 E2.53789
G1 X104.680 Y83.820 E3.22614
G1 X106.330 Y83.820 E3.33858
G1 X106.330 Y96.180 E4.18090
G1 X103.970 Y96.180 E4.34178
G1 X103.970 Y86.180 E5.02322
G1 X96.030 Y86.180 E5.56422
G1 X96.030 Y96.180 E6.24565
G1 X93.670 Y96.180 E6.40654
G1 X93.670 Y83.820 E7.24886
G1 X95.320 Y83.820 E7.36130
G1 X95.320 Y73.801 E8.04396
G1 X94.773 Y73.173 F7800.000
G1 X105.227 Y73.173 F540.000 E8.75632
G1 X105.227 Y83.273 E9.44457
G1 X106.877 Y83.273 E9.55700
G1 X106.877 Y96.727 E10.47379
G1 X103.423 Y96.727 E10.70913
G1 X103.423 Y86.727 E11.39057
G1 X96.577 Y86.727 E11.85710
G1 X96.577 Y96.727 E12.53854
G1 X93.123 Y96.727 E12.77388
G1 X93.123 Y83.273 E13.69067
G1 X94.773 Y83.273 E13.80310
G1 X94.773 Y73.255 E14.48577
G1 X95.246 Y73.446 F7800.000
G1 X104.203 Y74.116
G1 X104.284 Y74.197 F1080.000 E14.49361
G1 X104.284 Y74.972 E14.54669
G1 X103.428 Y74.116 E14.62960
G1 X102.652 Y74.116 E14.68269
G1 X104.284 Y75.748 E14.84066
G1 X104.284 Y76.524 E14.89374
G1 X101.876 Y74.116 E15.12679
G1 X101.100 Y74.116 E15.17987
G1 X104.284 Y77.300 E15.48798
G1 X104.284 Y78.076 E15.54106
G1 X100.324 Y74.116 E15.92424
G1 X99.549 Y74.116 E15.97733
G1 X104.284 Y78.851 E16.43557
G1 X104.284 Y79.627 E16.48865
G1 X98.773 Y74.116 E17.02197
G1 X97.997 Y74.116 E17.07505
G1 X104.284 Y80.403 E17.68343
G1 X104.284 Y81.179 E17.73652
G1 X97.221 Y74.116 E18.41997
G1 X96.445 Y74.116 E18.47305
G1 X104.284 Y81.955 E19.23157
G1 X104.284 Y82.730 E19.28465
G1 X95.716 Y74.161 E20.11380
G1 X95.716 Y74.937 E20.16688
G1 X104.284 Y83.506 E20.99603
G1 X105.934 Y84.380 F7800.000
G1 X105.770 Y84.216 F1080.000 E21.01198
G1 X104.994 Y84.216 E21.06506
G1 X105.934 Y85.156 E21.15607
G1 X105.934 Y85.932 E21.20916
G1 X95.716 Y75.713 E22.19796
G1 X95.716 Y76.489 E22.25104
G1 X105.934 Y86.708 E23.23985
G1 X104.366 Y85.915 F7800.000
G1 X105.934 Y87.484 F1080.000 E23.39167
G1 X105.934 Y88.259 E23.44475
G1 X104.366 Y86.690 E23.59657
G1 X104.366 Y87.466 E23.64965
G1 X105.934 Y89.035 E23.80147
G1 X105.934 Y89.811 E23.85455
G1 X104.366 Y88.242 E24.00636
G1 X104.366 Y89.018 E24.05945
G1 X105.934 Y90.587 E24.21126
G1 X105.934 Y91.363 E24.26434
G1 X104.366 Y89.794 E24.41616
G1 X104.366 Y90.569 E24.46924
G1 X105.934 Y92.138 E24.62106
G1 X105.934 Y92.914 E24.67414
G1 X104.366 Y91.345 E24.82596
G1 X104.366 Y92.121 E24.87904
G1 X105.934 Y93.690 E25.03086
G1 X105.934 Y94.466 E25.08394
G1 X104.366 Y92.897 E25.23576
G1 X104.366 Y93.673 E25.28884
G1 X105.934 Y95.242 E25.44065
G1 X105.702 Y95.784 E25.48108
G1 X104.366 Y94.448 E25.61037
G1 X104.366 Y95.224 E25.66345
G1 X104.926 Y95.784 E25.71767
G1 X104.235 Y85.784 F7800.000
G1 X95.716 Y77.265 F1080.000 E26.54208
G1 X95.716 Y78.040 E26.59516
G1 X103.460 Y85.784 E27.34450
G1 X102.684 Y85.784 E27.39758
G1 X95.716 Y78.816 E28.07185
G1 X95.716 Y79.592 E28.12493
G1 X101.908 Y85.784 E28.72413
G1 X101.132 Y85.784 E28.77721
G1 X95.716 Y80.368 E29.30135
G1 X95.716 Y81.144 E29.35443
G1 X100.356 Y85.784 E29.80350
G1 X99.581 Y85.784 E29.85658
G1 X95.716 Y81.919 E30.23058
G1 X95.716 Y82.695 E30.28366
G1 X98.805 Y85.784 E30.58259
G1 X98.029 Y85.784 E30.63567
G1 X95.716 Y83.471 E30.85954
G1 X95.684 Y84.216 E30.91053
G1 X97.253 Y85.784 E31.06235
G1 X96.477 Y85.784 E31.11543
G1 X94.908 Y84.216 E31.26724
G1 X94.133 Y84.216 E31.32032
G1 X95.702 Y85.784 E31.47214
G1 X95.634 Y86.493 E31.52084
G1 X94.066 Y84.924 E31.67266
G1 X94.066 Y85.700 E31.72574
G1 X95.634 Y87.269 E31.87756
G1 X95.634 Y88.045 E31.93064
G1 X94.066 Y86.476 E32.08246
G1 X94.066 Y87.252 E32.13554
G1 X95.634 Y88.820 E32.28736
G1 X95.634 Y89.596 E32.34044
G1 X94.066 Y88.027 E32.49226
G1 X94.066 Y88.803 E32.54534
G1 X95.634 Y90.372 E32.69715
G1 X95.634 Y91.148 E32.75024
G1 X94.066 Y89.579 E32.90205
G1 X94.066 Y90.355 E32.95513
G1 X95.634 Y91.924 E33.10695
G1 X95.634 Y92.699 E33.16003
G1 X94.066 Y91.130 E33.31185
G1 X94.066 Y91.906 E33.36493
G1 X95.634 Y93.475 E33.51675
G1 X95.634 Y94.251 E33.56983
G1 X94.066 Y92.682 E33.72165
G1 X94.066 Y93.458 E33.77473
G1 X95.634 Y95.027 E33.92655
G1 X95.616 Y95.784 E33.97840
G1 X94.066 Y94.234 E34.12846
G1 X94.066 Y95.009 E34.18154
G1 X94.841 Y95.784 E34.25653
G1 F1800.000 E32.35653
G92 E0
G1 X106.330 Y126.280 F7800.000
G1 F1800.000 E1.90000
G1 X103.970 Y126.280 F540.000 E2.06088
G1 X103.970 Y116.280 E2.74232
G1 X96.030 Y116.280 E3.28332
G1 X96.030 Y126.280 E3.96475
G1 X93.670 Y126.280 E4.12564
G1 X93.670 Y113.920 E4.96796
G1 X95.320 Y113.920 E5.08040
G1 X95.320 Y103.820 E5.76865
G1 X104.680 Y103.820 E6.40654
G1 X104.680 Y113.920 E7.09479
G1 X106.330 Y113.920 E7.20723
G1 X106.330 Y126.199 E8.04396
G1 X106.877 Y126.827 F7800.000
G1 X103.423 Y126.827 F540.000 E8.27931
G1 X103.423 Y116.827 E8.96075
G1 X96.577 Y116.827 E9.42728
G1 X96.577 Y126.827 E10.10872
G1 X93.123 Y126.827 E10.34406
G1 X93.123 Y113.373 E11.26085
G1 X94.773 Y113.373 E11.37328
G1 X94.773 Y103.273 E12.06153
G1 X105.227 Y103.273 E12.77388
G1 X105.227 Y113.373 E13.46214
G1 X106.877 Y113.373 E13.57457
G1 X106.877 Y126.745 E14.48577
G1 X106.404 Y126.554 F7800.000
G1 X104.926 Y125.884
G1 X104.366 Y125.324 F1080.000 E14.53999
G1 X104.366 Y124.548 E14.59307
G1 X105.702 Y125.884 E14.72237
G1 X105.934 Y125.342 E14.76279
G1 X104.366 Y123.773 E14.91461
G1 X104.366 Y122.997 E14.96769
G1 X105.934 Y124.566 E15.11950
G1 X105.934 Y123.790 E15.17259
G1 X104.366 Y122.221 E15.32440
G1 X104.366 Y121.445 E15.37748
G1 X105.934 Y123.014 E15.52930
G1 X105.934 Y122.238 E15.58238
G1 X104.366 Y120.669 E15.73420
G1 X104.366 Y119.894 E15.78728
G1 X105.934 Y121.463 E15.93910
G1 X105.934 Y120.687 E15.99218
G1 X104.366 Y119.118 E16.14400
G1 X104.366 Y118.342 E16.19708
G1 X105.934 Y119.911 E16.34890
G1 X105.934 Y119.135 E16.40198
G1 X104.366 Y117.566 E16.55380
G1 X104.366 Y116.790 E16.60688
G1 X105.934 Y118.359 E16.75869
G1 X105.934 Y117.584 E16.81177
G1 X104.366 Y116.015 E16.96359
G1 X104.235 Y115.884 F7800.000
G1 X95.716 Y107.365 F1080.000 E17.78800
G1 X95.716 Y108.140 E17.84108
G1 X103.460 Y115.884 E18.59042
G1 X102.684 Y115.884 E18.64350
G1 X95.716 Y108.916 E19.31777
G1 X95.716 Y109.692 E19.37085
G1 X101.908 Y115.884 E19.97005
G1 X101.132 Y115.884 E20.02313
G1 X95.716 Y110.468 E20.54727
G1 X95.716 Y111.244 E20.60035
G1 X100.356 Y115.884 E21.04942
G1 X99.581 Y115.884 E21.10250
G1 X95.716 Y112.019 E21.47650
G1 X95.716 Y112.795 E21.52958
G1 X98.805 Y115.884 E21.82851
G1 X98.029 Y115.884 E21.88159
G1 X95.716 Y113.571 E22.10546
G1 X95.684 Y114.316 E22.15645
G1 X97.253 Y115.884 E22.30827
G1 X96.477 Y115.884 E22.36135
G1 X94.908 Y114.316 E22.51316
G1 X94.133 Y114.316 E22.56624
G1 X95.702 Y115.884 E22.71806
G1 X95.634 Y116.593 E22.76676
G1 X94.066 Y115.024 E22.91858
G1 X94.066 Y115.800 E22.97166
G1 X95.634 Y117.369 E23.12348
G1 X95.634 Y118.145 E23.17656
G1 X94.066 Y116.576 E23.32838
G1 X94.066 Y117.352 E23.38146
G1 X95.634 Y118.920 E23.53328
G1 X95.634 Y119.696 E23.58636
G1 X94.066 Y118.127 E23.73818
G1 X94.066 Y118.903 E23.79126
G1 X95.634 Y120.472 E23.94308
G1 X95.634 Y121.248 E23.99616
G1 X94.066 Y119.679 E24.14797
G1 X94.066 Y120.455 E24.20105
G1 X95.634 Y122.024 E24.35287
G1 X95.634 Y122.799 E24.40595
G1 X94.066 Y121.230 E24.55777
G1 X94.066 Y122.006 E24.61085
G1 X95.634 Y123.575 E24.76267
G1 X95.634 Y124.351 E24.81575
G1 X94.066 Y122.782 E24.96757
G1 X94.066 Y123.558 E25.02065
G1 X95.634 Y125.127 E25.17247
G1 X95.616 Y125.884 E25.22432
G1 X94.066 Y124.334 E25.37438
G1 X94.066 Y125.109 E25.42746
G1 X94.841 Y125.884 E25.50245
G1 F1800.000 E23.60245
G92 E0
G1 X105.934 Y116.808 F7800.000
G1 F1800.000 E1.90000
G1 X95.716 Y106.589 F1080.000 E2.88881
G1 X95.716 Y105.813 E2.94189
G1 X105.934 Y116.032 E3.93070
G1 X105.934 Y115.256 E3.98378
G1 X104.994 Y114.316 E4.07479
G1 X105.770 Y114.316 E4.12787
G1 X105.934 Y114.480 E4.14382
G1 X104.284 Y113.606 F7800.000
G1 X95.716 Y105.037 F1080.000 E4.97297
G1 X95.716 Y104.261 E5.02605
G1 X104.284 Y112.830 E5.85520
G1 X104.284 Y112.055 E5.90828
G1 X96.445 Y104.216 E6.66680
G1 X97.221 Y104.216 E6.71988
G1 X104.284 Y111.279 E7.40334
G1 X104.284 Y110.503 E7.45642
G1 X97.997 Y104.216 E8.06480
G1 X98.773 Y104.216 E8.11788
G1 X104.284 Y109.727 E8.65120
G1 X104.284 Y108.951 E8.70428
G1 X99.549 Y104.216 E9.16253
G1 X100.324 Y104.216 E9.21561
G1 X104.284 Y108.176 E9.59879
G1 X104.284 Y107.400 E9.65187
G1 X101.100 Y104.216 E9.95998
G1 X101.876 Y104.216 E10.01306
G1 X104.284 Y106.624 E10.24611
G1 X104.284 Y105.848 E10.29919
G1 X102.652 Y104.216 E10.45717
G1 X103.428 Y104.216 E10.51025
G1 X104.284 Y105.072 E10.59316
G1 X104.284 Y104.297 E10.64624
G1 X104.203 Y104.216 E10.65408
M106 S200
M104 S185 ; set temperature
M140 S60 ; set bed temperature
G1 F1800.000 E8.75408
G92 E0
G1 Z0.600 F7800.000
G1 X106.604 Y96.454
G1 F1800.000 E1.90000
G1 X103.696 Y96.454 F1800.000 E2.03197
G1 X103.696 Y86.454 E2.48565
G1 X96.304 Y86.454 E2.82097
G1 X96.304 Y96.454 E3.27466
G1 X93.396 Y96.454 E3.40662
G1 X93.396 Y83.546 E3.99227
G1 X95.046 Y83.546 E4.06713
G1 X95.046 Y73.446 E4.52535
G1 X104.954 Y73.446 E4.97489
G1 X104.954 Y83.546 E5.43311
G1 X106.604 Y83.546 E5.50797
G1 X106.604 Y96.400 E6.09114
G1 X106.968 Y96.818 F7800.000
G1 X103.332 Y96.818 F1800.000 E6.25611
G1 X103.332 Y86.818 E6.70979
G1 X96.668 Y86.818 E7.01211
G1 X96.668 Y96.818 E7.46580
G1 X93.032 Y96.818 E7.63077
G1 X93.032 Y83.182 E8.24942
G1 X94.682 Y83.182 E8.32428
G1 X94.682 Y73.082 E8.78249
G1 X105.318 Y73.082 E9.26504
G1 X105.318 Y83.182 E9.72326
G1 X106.968 Y83.182 E9.79812
G1 X106.968 Y96.764 E10.41430
G1 X106.653 Y96.636 F7800.000
G1 X106.341 Y96.130
G1 X106.280 Y96.191 F3600.000 E10.41820
G1 X105.763 Y96.191 E10.44179
G1 X106.341 Y95.613 E10.47906
G1 X106.341 Y95.096 E10.50265
G1 X105.246 Y96.191 E10.57328
G1 X104.729 Y96.191 E10.59687
G1 X106.341 Y94.579 E10.70087
G1 X106.341 Y94.061 E10.72446
G1 X104.211 Y96.191 E10.86182
G1 X103.959 Y95.926 E10.87851
G1 X106.341 Y93.544 E11.03214
G1 X106.341 Y93.027 E11.05573
G1 X103.959 Y95.409 E11.20936
G1 X103.959 Y94.891 E11.23295
G1 X106.341 Y92.510 E11.38658
G1 X106.341 Y91.993 E11.41017
G1 X103.959 Y94.374 E11.56380
G1 X103.959 Y93.857 E11.58739
G1 X106.341 Y91.475 E11.74102
G1 X106.341 Y90.958 E11.76462
G1 X103.959 Y93.340 E11.91825
G1 X103.959 Y92.823 E11.94184
G1 X106.341 Y90.441 E12.09547
G1 X106.341 Y89.924 E12.11906
G1 X103.959 Y92.305 E12.27269
G1 X103.959 Y91.788 E12.29628
G1 X106.341 Y89.407 E12.44991
G1 X106.341 Y88.889 E12.47350
G1 X103.959 Y91.271 E12.62713
G1 X103.959 Y90.754 E12.65073
G1 X106.341 Y88.372 E12.80436
G1 X106.341 Y87.855 E12.82795
G1 X103.959 Y90.237 E12.98158
G1 X103.959 Y89.719 E13.00517
G1 X106.341 Y87.338 E13.15880
G1 X106.341 Y86.821 E13.18239
G1 X103.959 Y89.202 E13.33602
G1 X103.959 Y88.685 E13.35961
G1 X106.341 Y86.303 E13.51324
G1 X106.341 Y85.786 E13.53684
G1 X103.959 Y88.168 E13.69047
G1 X103.959 Y87.651 E13.71406
G1 X106.341 Y85.269 E13.86769
G1 X106.341 Y84.752 E13.89128
G1 X103.959 Y87.133 E14.04491
G1 X103.959 Y86.616 E14.06850
G1 X106.341 Y84.235 E14.22213
G1 X106.249 Y83.809 E14.24198
G1 X103.867 Y86.191 E14.39562
G1 X103.350 Y86.191 E14.41921
G1 X105.732 Y83.809 E14.57284
G1 X105.215 Y83.809 E14.59643
G1 X102.833 Y86.191 E14.75006
G1 X102.316 Y86.191 E14.77365
G1 X104.697 Y83.809 E14.92728
G1 X104.691 Y83.299 E14.95057
G1 X101.799 Y86.191 E15.13713
G1 X101.281 Y86.191 E15.16072
G1 X104.691 Y82.781 E15.38065
G1 X104.691 Y82.264 E15.40424
G1 X100.764 Y86.191 E15.65753
G1 X100.247 Y86.191 E15.68112
G1 X104.691 Y81.747 E15.96778
G1 X104.691 Y81.230 E15.99137
G1 X99.730 Y86.191 E16.31138
G1 X99.213 Y86.191 E16.33498
G1 X104.691 Y80.713 E16.68836
G1 X104.691 Y80.195 E16.71195
G1 X98.695 Y86.191 E17.09869
G1 X98.178 Y86.191 E17.12228
G1 X104.691 Y79.678 E17.54239
G1 X104.691 Y79.161 E17.56598
G1 X97.661 Y86.191 E18.01945
G1 X97.144 Y86.191 E18.04304
G1 X104.691 Y78.644 E18.52987
G1 X104.691 Y78.127 E18.55347
G1 X96.627 Y86.191 E19.07366
G1 X96.110 Y86.191 E19.09725
G1 X104.691 Y77.610 E19.65081
G1 X104.691 Y77.092 E19.67441
G1 X93.659 Y88.124 E20.38603
G1 X93.659 Y88.641 E20.40962
G1 X96.041 Y86.260 E20.56325
G1 X96.041 Y86.777 E20.58684
G1 X93.659 Y89.158 E20.74047
G1 X93.659 Y89.675 E20.76407
G1 X96.041 Y87.294 E20.91770
G1 X96.041 Y87.811 E20.94129
G1 X93.659 Y90.193 E21.09492
G1 X93.659 Y90.710 E21.11851
G1 X96.041 Y88.328 E21.27214
G1 X96.041 Y88.845 E21.29573
G1 X93.659 Y91.227 E21.44936
G1 X93.659 Y91.744 E21.47295
G1 X96.041 Y89.363 E21.62658
G1 X96.041 Y89.880 E21.65018
G1 X93.659 Y92.261 E21.80381
G1 X93.659 Y92.779 E21.82740
G1 X96.041 Y90.397 E21.98103
G1 X96.041 Y90.914 E22.00462
G1 X93.659 Y93.296 E22.15825
G1 X93.659 Y93.813 E22.18184
G1 X96.041 Y91.431 E22.33547
G1 X96.041 Y91.949 E22.35906
G1 X93.659 Y94.330 E22.51269
G1 X93.659 Y94.847 E22.53628
G1 X96.041 Y92.466 E22.68992
G1 X96.041 Y92.983 E22.71351
G1 X93.659 Y95.365 E22.86714
G1 X93.659 Y95.882 E22.89073
G1 X96.041 Y93.500 E23.04436
