; generated by Slic3r 0.9.10b on 2013-09-29 at 17:33:49

; layer_height = 0.3
; perimeters = 2
; top_solid_layers = 3
; bottom_solid_layers = 3
; fill_density = 0.3
; perimeter_speed = 30
; infill_speed = 60
; travel_speed = 130
; nozzle_diameter = 0.35
; filament_diameter = 1.75
; extrusion_multiplier = 1
; perimeters extrusion width = 0.37mm
; infill extrusion width = 0.37mm
; solid infill extrusion width = 0.37mm
; top infill extrusion width = 0.37mm
; first layer extrusion width = 0.60mm

G21 ; set units to millimeters
M107
M190 S65 ; wait for bed temperature to be reached
M104 S180 ; set temperature
G28 ; home all axes
M109 S180 ; wait for temperature to be reached
G90 ; use absolute coordinates
G92 E0
M82 ; use absolute distances for extrusion
G1 F1800.000 E-1.90000
G92 E0
G1 Z0.300 F7800.000
G1 X72.603 Y63.980
G1 F1800.000 E1.90000
G1 X73.683 Y63.100 F540.000 E1.99493
G1 X74.913 Y62.450 E2.08973
G1 X76.243 Y62.040 E2.18457
G1 X77.623 Y61.910 E2.27903
G1 X120.453 Y61.910 E5.19762
G1 X121.823 Y62.040 E5.29140
G1 X123.133 Y62.430 E5.38454
G1 X124.353 Y63.070 E5.47842
G1 X125.423 Y63.940 E5.57239
G1 X126.303 Y64.990 E5.66575
G1 X126.963 Y66.190 E5.75908
G1 X128.213 Y69.090 E5.97427
G1 X128.613 Y70.320 E6.06241
G1 X128.793 Y71.590 E6.14981
G1 X129.463 Y86.920 E7.19545
G1 X129.463 Y93.430 E7.63907
G1 X129.333 Y94.800 E7.73285
G1 X128.933 Y96.120 E7.82683
G1 X113.513 Y133.690 E10.59424
G1 X112.863 Y134.920 E10.68904
G1 X111.983 Y136.000 E10.78398
G1 X110.903 Y136.890 E10.87934
G1 X109.673 Y137.550 E10.97446
G1 X108.343 Y137.960 E11.06930
G1 X106.953 Y138.090 E11.16444
G1 X88.623 Y138.090 E12.41351
G1 X87.263 Y137.960 E12.50661
G1 X85.943 Y137.570 E12.60040
G1 X84.733 Y136.930 E12.69368
G1 X83.663 Y136.070 E12.78722
G1 X82.783 Y135.030 E12.88006
G1 X82.123 Y133.830 E12.97338
G1 X81.693 Y132.520 E13.06734
G1 X70.693 Y82.520 E16.55600
G1 X70.573 Y81.770 E16.60776
G1 X70.533 Y81.000 E16.66030
G1 X70.533 Y69.000 E17.47803
G1 X70.663 Y67.620 E17.57248
G1 X71.073 Y66.290 E17.66732
G1 X71.723 Y65.060 E17.76212
G1 X72.552 Y64.044 E17.85147
G1 X72.993 Y64.370 F7800.000
G1 X73.983 Y63.560 F540.000 E17.93864
G1 X75.113 Y62.950 E18.02614
G1 X76.343 Y62.580 E18.11367
G1 X77.623 Y62.450 E18.20134
G1 X120.453 Y62.450 E21.11994
G1 X121.713 Y62.580 E21.20625
G1 X122.933 Y62.940 E21.29293
G1 X124.053 Y63.530 E21.37920
G1 X125.033 Y64.330 E21.46540
G1 X125.853 Y65.300 E21.55196
G1 X126.463 Y66.410 E21.63827
G1 X127.713 Y69.310 E21.85346
G1 X128.083 Y70.440 E21.93448
G1 X128.243 Y71.610 E22.01495
G1 X128.923 Y87.230 E23.08037
G1 X128.923 Y93.430 E23.50286
G1 X128.793 Y94.700 E23.58985
G1 X128.433 Y95.920 E23.67653
G1 X113.013 Y133.490 E26.44394
G1 X112.403 Y134.620 E26.53145
G1 X111.593 Y135.620 E26.61914
G1 X110.603 Y136.440 E26.70674
G1 X109.463 Y137.050 E26.79484
G1 X108.233 Y137.420 E26.88237
G1 X106.953 Y137.550 E26.97004
G1 X88.623 Y137.550 E28.21912
G1 X87.363 Y137.420 E28.30543
G1 X86.153 Y137.060 E28.39146
G1 X85.033 Y136.470 E28.47772
G1 X84.043 Y135.680 E28.56403
G1 X83.233 Y134.720 E28.64963
G1 X82.623 Y133.610 E28.73593
G1 X82.233 Y132.410 E28.82192
G1 X71.233 Y82.410 E32.31058
G1 X71.113 Y81.710 E32.35898
G1 X71.073 Y81.000 E32.40744
G1 X71.073 Y69.000 E33.22516
G1 X71.203 Y67.720 E33.31284
G1 X71.573 Y66.490 E33.40036
G1 X72.183 Y65.360 E33.48787
G1 X72.942 Y64.433 E33.56945
G1 F1800.000 E31.66945
G92 E0
G1 X104.776 Y130.180 F7800.000
G1 F1800.000 E1.90000
G1 X104.776 Y80.180 F540.000 E5.30719
G1 X93.776 Y80.180 E6.05677
G1 X93.776 Y77.320 E6.25172
G1 X102.276 Y77.320 E6.83094
G1 X102.276 Y72.680 E7.14707
G1 X93.776 Y72.680 E7.72629
G1 X93.776 Y69.820 E7.92124
G1 X105.425 Y69.820 E8.71500
G1 X105.666 Y69.855 E8.73165
G1 X105.855 Y69.952 E8.74610
G1 X106.005 Y70.102 E8.76056
G1 X106.101 Y70.290 E8.77501
G1 X106.126 Y70.394 E8.78226
G1 X106.137 Y130.180 E12.85634
G1 X104.858 Y130.180 E12.94349
G1 X104.230 Y130.727 F7800.000
G1 X104.230 Y80.727 F540.000 E16.35068
G1 X93.230 Y80.727 E17.10026
G1 X93.230 Y76.773 E17.36968
G1 X101.730 Y76.773 E17.94890
G1 X101.730 Y73.227 E18.19056
G1 X93.230 Y73.227 E18.76978
G1 X93.230 Y69.273 E19.03920
G1 X105.446 Y69.273 E19.87165
G1 X105.649 Y69.289 E19.88549
G1 X105.836 Y69.334 E19.89860
G1 X106.013 Y69.408 E19.91171
G1 X106.177 Y69.508 E19.92482
G1 X106.324 Y69.633 E19.93793
G1 X106.449 Y69.779 E19.95104
G1 X106.549 Y69.943 E19.96415
G1 X106.623 Y70.121 E19.97726
G1 X106.668 Y70.308 E19.99037
G1 X106.684 Y70.511 E20.00421
G1 X106.684 Y130.727 E24.10756
G1 X104.312 Y130.727 E24.26917
G1 X104.503 Y130.254 F7800.000
G1 F1800.000 E22.36917
G92 E0
G1 X94.930 Y79.784 F7800.000
G1 F1800.000 E1.90000
G1 X94.172 Y79.026 F1080.000 E1.97312
G1 X94.172 Y78.253 E2.02586
G1 X95.704 Y79.784 E2.17355
G1 X96.477 Y79.784 E2.22628
G1 X94.408 Y77.716 E2.42582
G1 X95.181 Y77.716 E2.47855
G1 X97.250 Y79.784 E2.67809
G1 X98.023 Y79.784 E2.73082
G1 X95.954 Y77.716 E2.93036
G1 X96.728 Y77.716 E2.98309
G1 X98.797 Y79.784 E3.18263
G1 X99.570 Y79.784 E3.23536
G1 X97.501 Y77.716 E3.43490
G1 X98.274 Y77.716 E3.48763
G1 X100.343 Y79.784 E3.68717
G1 X101.116 Y79.784 E3.73990
G1 X99.047 Y77.716 E3.93944
G1 X99.821 Y77.716 E3.99217
G1 X101.890 Y79.784 E4.19171
G1 X102.663 Y79.784 E4.24444
G1 X100.594 Y77.716 E4.44398
G1 X101.367 Y77.716 E4.49671
G1 X103.436 Y79.784 E4.69625
G1 X104.209 Y79.784 E4.74898
G1 X102.140 Y77.716 E4.94852
G1 X102.672 Y77.474 E4.98835
G1 X104.983 Y79.784 E5.21117
G1 X105.741 Y79.770 E5.26291
G1 X102.672 Y76.701 E5.55890
G1 X102.672 Y75.928 E5.61163
G1 X105.741 Y78.997 E5.90761
G1 X105.741 Y78.223 E5.96034
G1 X102.672 Y75.154 E6.25632
G1 X102.672 Y74.381 E6.30905
G1 X105.741 Y77.450 E6.60503
G1 X105.741 Y76.677 E6.65777
G1 X102.672 Y73.608 E6.95375
G1 X102.672 Y72.835 E7.00648
G1 X105.741 Y75.904 E7.30246
G1 X105.741 Y75.130 E7.35519
G1 X100.826 Y70.216 E7.82920
G1 X101.600 Y70.216 E7.88193
G1 X105.741 Y74.357 E8.28137
G1 X105.741 Y73.584 E8.33411
G1 X102.373 Y70.216 E8.65897
G1 X103.146 Y70.216 E8.71170
G1 X105.741 Y72.811 E8.96200
G1 X105.741 Y72.038 E9.01473
G1 X103.919 Y70.216 E9.19045
G1 X104.692 Y70.216 E9.24318
G1 X105.741 Y71.264 E9.34432
G1 X105.741 Y70.491 E9.39705
G1 X105.466 Y70.216 E9.42363
G1 X102.122 Y72.284 F7800.000
G1 X100.053 Y70.216 F1080.000 E9.62317
G1 X99.280 Y70.216 E9.67590
G1 X101.349 Y72.284 E9.87544
G1 X100.576 Y72.284 E9.92817
G1 X98.507 Y70.216 E10.12771
G1 X97.733 Y70.216 E10.18044
G1 X99.802 Y72.284 E10.37998
G1 X99.029 Y72.284 E10.43271
G1 X96.960 Y70.216 E10.63225
G1 X96.187 Y70.216 E10.68498
G1 X98.256 Y72.284 E10.88452
G1 X97.483 Y72.284 E10.93725
G1 X95.414 Y70.216 E11.13679
G1 X94.640 Y70.216 E11.18952
G1 X96.709 Y72.284 E11.38906
G1 X95.936 Y72.284 E11.44179
G1 X94.172 Y70.521 E11.61190
G1 X94.172 Y71.294 E11.66463
G1 X95.163 Y72.284 E11.76017
G1 X94.390 Y72.284 E11.81290
G1 X94.172 Y72.067 E11.83386
G1 F1800.000 E9.93386
G92 E0
G1 X105.564 Y129.080 F7800.000
G1 F1800.000 E1.90000
G1 X105.349 Y128.865 F360.000 E1.92072
G1 X105.564 Y128.307 E1.96152
G1 X105.349 Y128.092 E1.98224
G1 X105.564 Y127.534 E2.02304
G1 X105.349 Y127.319 E2.04375
G1 X105.564 Y126.760 E2.08456
G1 X105.349 Y126.546 E2.10527
G1 X105.564 Y125.987 E2.14608
G1 X105.349 Y125.772 E2.16679
G1 X105.564 Y125.214 E2.20760
G1 X105.349 Y124.999 E2.22831
G1 X105.564 Y124.441 E2.26912
G1 X105.349 Y124.226 E2.28983
G1 X105.564 Y123.667 E2.33063
G1 X105.349 Y123.453 E2.35135
G1 X105.564 Y122.894 E2.39215
G1 X105.349 Y122.679 E2.41287
G1 X105.564 Y122.121 E2.45367
G1 X105.349 Y121.906 E2.47439
G1 X105.564 Y121.348 E2.51519
G1 X105.349 Y121.133 E2.53591
G1 X105.564 Y120.575 E2.57671
G1 X105.349 Y120.360 E2.59743
G1 X105.564 Y119.801 E2.63823
G1 X105.349 Y119.586 E2.65895
G1 X105.564 Y119.028 E2.69975
G1 X105.349 Y118.813 E2.72047
G1 X105.564 Y118.255 E2.76127
G1 X105.349 Y118.040 E2.78199
G1 X105.564 Y117.482 E2.82279
G1 X105.349 Y117.267 E2.84350
G1 X105.564 Y116.708 E2.88431
G1 X105.349 Y116.494 E2.90502
G1 X105.564 Y115.935 E2.94583
G1 X105.349 Y115.720 E2.96654
G1 X105.564 Y115.162 E3.00735
G1 X105.349 Y114.947 E3.02806
G1 X105.564 Y114.389 E3.06886
G1 X105.349 Y114.174 E3.08958
G1 X105.564 Y113.615 E3.13038
G1 X105.349 Y113.401 E3.15110
G1 X105.564 Y112.842 E3.19190
G1 X105.349 Y112.627 E3.21262
G1 X105.564 Y112.069 E3.25342
G1 X105.349 Y111.854 E3.27414
G1 X105.564 Y111.296 E3.31494
G1 X105.349 Y111.081 E3.33566
G1 X105.564 Y110.522 E3.37646
G1 X105.349 Y110.308 E3.39718
G1 X105.564 Y109.749 E3.43798
G1 X105.349 Y109.534 E3.45870
G1 X105.564 Y108.976 E3.49950
G1 X105.349 Y108.761 E3.52022
G1 X105.564 Y108.203 E3.56102
G1 X105.349 Y107.988 E3.58173
G1 X105.564 Y107.429 E3.62254
G1 X105.349 Y107.215 E3.64325
G1 X105.564 Y106.656 E3.68406
G1 X105.349 Y106.441 E3.70477
G1 X105.564 Y105.883 E3.74558
G1 X105.349 Y105.668 E3.76629
G1 X105.564 Y105.110 E3.80710
G1 X105.349 Y104.895 E3.82781
G1 X105.564 Y104.336 E3.86861
G1 X105.349 Y104.122 E3.88933
G1 X105.564 Y103.563 E3.93013
G1 X105.349 Y103.348 E3.95085
G1 X105.564 Y102.790 E3.99165
G1 X105.349 Y102.575 E4.01237
G1 X105.564 Y102.017 E4.05317
G1 X105.349 Y101.802 E4.07389
G1 X105.564 Y101.244 E4.11469
G1 X105.349 Y101.029 E4.13541
G1 X105.564 Y100.470 E4.17621
G1 X105.349 Y100.255 E4.19693
G1 X105.564 Y99.697 E4.23773
G1 X105.349 Y99.482 E4.25845
G1 X105.564 Y98.924 E4.29925
G1 X105.349 Y98.709 E4.31997
G1 X105.564 Y98.151 E4.36077
G1 X105.349 Y97.936 E4.38148
G1 X105.564 Y97.377 E4.42229
G1 X105.349 Y97.163 E4.44300
G1 X105.564 Y96.604 E4.48381
G1 X105.349 Y96.389 E4.50452
G1 X105.564 Y95.831 E4.54533
G1 X105.349 Y95.616 E4.56604
G1 X105.564 Y95.058 E4.60685
G1 X105.349 Y94.843 E4.62756
G1 X105.564 Y94.284 E4.66836
G1 X105.349 Y94.070 E4.68908
G1 X105.564 Y93.511 E4.72988
G1 X105.349 Y93.296 E4.75060
G1 X105.564 Y92.738 E4.79140
G1 X105.349 Y92.523 E4.81212
G1 X105.564 Y91.965 E4.85292
G1 X105.349 Y91.750 E4.87364
G1 X105.564 Y91.191 E4.91444
G1 X105.349 Y90.977 E4.93516
G1 X105.564 Y90.418 E4.97596
G1 X105.349 Y90.203 E4.99668
G1 X105.564 Y89.645 E5.03748
G1 X105.349 Y89.430 E5.05820
G1 X105.564 Y88.872 E5.09900
G1 X105.349 Y88.657 E5.11972
G1 X105.564 Y88.098 E5.16052
G1 X105.349 Y87.884 E5.18123
G1 X105.564 Y87.325 E5.22204
G1 X105.349 Y87.110 E5.24275
G1 X105.564 Y86.552 E5.28356
G1 X105.349 Y86.337 E5.30427
G1 X105.564 Y85.779 E5.34508
G1 X105.349 Y85.564 E5.36579
G1 X105.564 Y85.005 E5.40660
G1 X105.349 Y84.791 E5.42731
G1 X105.564 Y84.232 E5.46811
G1 X105.349 Y84.017 E5.48883
G1 X105.564 Y83.459 E5.52963
G1 X105.349 Y83.244 E5.55035
G1 X105.564 Y82.686 E5.59115
G1 X105.349 Y82.471 E5.61187
G1 X105.564 Y81.913 E5.65267
G1 X105.349 Y81.698 E5.67339
G1 X105.564 Y81.139 E5.71419
G1 X105.349 Y80.924 E5.73491
G1 X105.564 Y80.366 E5.77571
G1 X105.405 Y80.207 E5.79103
G1 F1800.000 E3.89103
G92 E0
G1 X90.091 Y69.820 F7800.000
G1 F1800.000 E1.90000
G1 X90.333 Y69.855 F540.000 E1.91665
G1 X90.522 Y69.952 E1.93110
G1 X90.603 Y70.021 E1.93835
G1 X90.672 Y70.102 E1.94560
G1 X90.768 Y70.290 E1.96005
G1 X90.804 Y70.532 E1.97670
G1 X90.804 Y130.180 E6.04136
G1 X89.443 Y130.180 E6.13410
G1 X89.443 Y80.180 E9.54129
G1 X78.443 Y80.180 E10.29087
G1 X78.443 Y77.320 E10.48582
G1 X86.943 Y77.320 E11.06504
G1 X86.943 Y72.680 E11.38117
G1 X78.443 Y72.680 E11.96039
G1 X78.443 Y69.820 E12.15534
G1 X90.009 Y69.820 E12.94352
G1 X90.113 Y69.273 F7800.000
G1 X90.315 Y69.289 F540.000 E12.95736
G1 X90.502 Y69.334 E12.97047
G1 X90.680 Y69.408 E12.98358
G1 X90.844 Y69.508 E12.99669
G1 X90.990 Y69.633 E13.00980
G1 X91.115 Y69.779 E13.02291
G1 X91.216 Y69.943 E13.03602
G1 X91.289 Y70.121 E13.04913
G1 X91.334 Y70.308 E13.06223
G1 X91.350 Y70.511 E13.07608
G1 X91.350 Y130.727 E17.17943
G1 X88.897 Y130.727 E17.34663
G1 X88.897 Y80.727 E20.75381
G1 X77.897 Y80.727 E21.50339
G1 X77.897 Y76.773 E21.77281
G1 X86.397 Y76.773 E22.35203
G1 X86.397 Y73.227 E22.59369
G1 X77.897 Y73.227 E23.17292
G1 X77.897 Y69.273 E23.44233
G1 X90.031 Y69.273 E24.26920
G1 X90.205 Y69.454 F7800.000
G1 X90.132 Y70.216
G1 X90.408 Y70.491 F1080.000 E24.29577
G1 X90.408 Y71.264 E24.34850
G1 X89.359 Y70.216 E24.44965
G1 X88.586 Y70.216 E24.50238
G1 X90.408 Y72.038 E24.67810
G1 X90.408 Y72.811 E24.73083
G1 X87.813 Y70.216 E24.98112
G1 X87.039 Y70.216 E25.03385
G1 X90.408 Y73.584 E25.35872
G1 X90.408 Y74.357 E25.41145
G1 X86.266 Y70.216 E25.81089
G1 X85.493 Y70.216 E25.86362
G1 X90.408 Y75.130 E26.33763
G1 X90.408 Y75.904 E26.39036
G1 X87.339 Y72.835 E26.68635
G1 X87.339 Y73.608 E26.73908
G1 X90.408 Y76.677 E27.03506
G1 X90.408 Y77.450 E27.08779
G1 X87.339 Y74.381 E27.38377
G1 X87.339 Y75.154 E27.43650
G1 X90.408 Y78.223 E27.73248
G1 X90.408 Y78.997 E27.78522
G1 X87.339 Y75.928 E28.08120
G1 X87.339 Y76.701 E28.13393
G1 X90.408 Y79.770 E28.42991
G1 X89.649 Y79.784 E28.48166
G1 X87.339 Y77.474 E28.70447
G1 X86.807 Y77.716 E28.74430
G1 X88.876 Y79.784 E28.94384
G1 X88.103 Y79.784 E28.99657
G1 X86.034 Y77.716 E29.19611
G1 X85.261 Y77.716 E29.24884
G1 X87.330 Y79.784 E29.44838
G1 X86.556 Y79.784 E29.50111
G1 X84.487 Y77.716 E29.70065
G1 X83.714 Y77.716 E29.75338
G1 X85.783 Y79.784 E29.95292
G1 X85.010 Y79.784 E30.00565
G1 X82.941 Y77.716 E30.20519
G1 X82.168 Y77.716 E30.25792
G1 X84.237 Y79.784 E30.45746
G1 X83.463 Y79.784 E30.51019
G1 X81.394 Y77.716 E30.70973
G1 X80.621 Y77.716 E30.76246
G1 X82.690 Y79.784 E30.96200
G1 X81.917 Y79.784 E31.01473
G1 X79.848 Y77.716 E31.21427
G1 X79.075 Y77.716 E31.26700
G1 X81.144 Y79.784 E31.46654
G1 X80.370 Y79.784 E31.51927
G1 X78.839 Y78.253 E31.66697
G1 X78.839 Y79.026 E31.71970
G1 X79.597 Y79.784 E31.79282
G1 F1800.000 E29.89282
G92 E0
G1 X78.839 Y72.067 F7800.000
G1 F1800.000 E1.90000
G1 X79.056 Y72.284 F1080.000 E1.92096
G1 X79.830 Y72.284 E1.97369
G1 X78.839 Y71.294 E2.06923
G1 X78.839 Y70.521 E2.12196
G1 X80.603 Y72.284 E2.29207
G1 X81.376 Y72.284 E2.34480
G1 X79.307 Y70.216 E2.54434
G1 X80.080 Y70.216 E2.59707
G1 X82.149 Y72.284 E2.79661
G1 X82.922 Y72.284 E2.84934
G1 X80.853 Y70.216 E3.04888
G1 X81.627 Y70.216 E3.10161
G1 X83.696 Y72.284 E3.30115
G1 X84.469 Y72.284 E3.35388
G1 X82.400 Y70.216 E3.55342
G1 X83.173 Y70.216 E3.60615
G1 X85.242 Y72.284 E3.80569
G1 X86.015 Y72.284 E3.85842
G1 X83.946 Y70.216 E4.05796
G1 X84.720 Y70.216 E4.11069
G1 X86.789 Y72.284 E4.31023
G1 F1800.000 E2.41023
G92 E0
G1 X90.231 Y129.080 F7800.000
G1 F1800.000 E1.90000
G1 X90.016 Y128.865 F360.000 E1.92072
G1 X90.231 Y128.307 E1.96152
G1 X90.016 Y128.092 E1.98224
G1 X90.231 Y127.534 E2.02304
G1 X90.016 Y127.319 E2.04375
G1 X90.231 Y126.760 E2.08456
G1 X90.016 Y126.546 E2.10527
G1 X90.231 Y125.987 E2.14608
G1 X90.016 Y125.772 E2.16679
G1 X90.231 Y125.214 E2.20760
G1 X90.016 Y124.999 E2.22831
G1 X90.231 Y124.441 E2.26912
G1 X90.016 Y124.226 E2.28983
G1 X90.231 Y123.667 E2.33063
G1 X90.016 Y123.453 E2.35135
G1 X90.231 Y122.894 E2.39215
G1 X90.016 Y122.679 E2.41287
G1 X90.231 Y122.121 E2.45367
G1 X90.016 Y121.906 E2.47439
G1 X90.231 Y121.348 E2.51519
G1 X90.016 Y121.133 E2.53591
G1 X90.231 Y120.575 E2.57671
G1 X90.016 Y120.360 E2.59743
G1 X90.231 Y119.801 E2.63823
G1 X90.016 Y119.586 E2.65895
G1 X90.231 Y119.028 E2.69975
G1 X90.016 Y118.813 E2.72047
G1 X90.231 Y118.255 E2.76127
G1 X90.016 Y118.040 E2.78199
G1 X90.231 Y117.482 E2.82279
G1 X90.016 Y117.267 E2.84350
G1 X90.231 Y116.708 E2.88431
G1 X90.016 Y116.494 E2.90502
G1 X90.231 Y115.935 E2.94583
G1 X90.016 Y115.720 E2.96654
G1 X90.231 Y115.162 E3.00735
G1 X90.016 Y114.947 E3.02806
G1 X90.231 Y114.389 E3.06886
G1 X90.016 Y114.174 E3.08958
G1 X90.231 Y113.615 E3.13038
G1 X90.016 Y113.401 E3.15110
G1 X90.231 Y112.842 E3.19190
G1 X90.016 Y112.627 E3.21262
G1 X90.231 Y112.069 E3.25342
G1 X90.016 Y111.854 E3.27414
G1 X90.231 Y111.296 E3.31494
G1 X90.016 Y111.081 E3.33566
G1 X90.231 Y110.522 E3.37646
G1 X90.016 Y110.308 E3.39718
G1 X90.231 Y109.749 E3.43798
G1 X90.016 Y109.534 E3.45870
G1 X90.231 Y108.976 E3.49950
G1 X90.016 Y108.761 E3.52022
G1 X90.231 Y108.203 E3.56102
G1 X90.016 Y107.988 E3.58173
G1 X90.231 Y107.429 E3.62254
G1 X90.016 Y107.215 E3.64325
G1 X90.231 Y106.656 E3.68406
G1 X90.016 Y106.441 E3.70477
G1 X90.231 Y105.883 E3.74558
G1 X90.016 Y105.668 E3.76629
G1 X90.231 Y105.110 E3.80710
G1 X90.016 Y104.895 E3.82781
