; generated by Slic3r 0.9.10b on 2013-09-29 at 18:27:06

; layer_height = 0.3
; perimeters = 2
; top_solid_layers = 3
; bottom_solid_layers = 3
; fill_density = 0.3
; perimeter_speed = 30
; infill_speed = 60
; travel_speed = 130
; nozzle_diameter = 0.35
; filament_diameter = 1.75
; extrusion_multiplier = 1
; perimeters extrusion width = 0.37mm
; infill extrusion width = 0.37mm
; solid infill extrusion width = 0.37mm
; top infill extrusion width = 0.37mm
; first layer extrusion width = 0.60mm

G21 ; set units to millimeters
M107
M190 S65 ; wait for bed temperature to be reached
M104 S180 ; set temperature
G28 ; home all axes
M109 S180 ; wait for temperature to be reached
G90 ; use absolute coordinates
G92 E0
M82 ; use absolute distances for extrusion
G1 F1800.000 E-1.90000
G92 E0
G1 Z0.300 F7800.000
G1 X88.230 Y79.980
G1 F1800.000 E1.90000
G1 X89.310 Y79.100 F540.000 E1.99493
G1 X90.540 Y78.450 E2.08973
G1 X91.870 Y78.040 E2.18457
G1 X93.250 Y77.910 E2.27903
G1 X105.250 Y77.910 E3.09675
G1 X106.790 Y78.080 E3.20233
G1 X108.250 Y78.570 E3.30727
G1 X109.580 Y79.380 E3.41339
G1 X110.690 Y80.450 E3.51845
G1 X111.550 Y81.740 E3.62410
G1 X113.050 Y84.640 E3.84659
G1 X113.640 Y86.220 E3.96152
G1 X113.840 Y87.900 E4.07681
G1 X113.840 Y112.100 E5.72588
G1 X113.640 Y113.780 E5.84117
G1 X113.050 Y115.360 E5.95610
G1 X111.550 Y118.260 E6.17859
G1 X110.690 Y119.550 E6.28424
G1 X109.580 Y120.620 E6.38930
G1 X108.250 Y121.430 E6.49542
G1 X106.790 Y121.920 E6.60036
G1 X105.250 Y122.090 E6.70594
G1 X93.250 Y122.090 E7.52366
G1 X91.870 Y121.960 E7.61812
G1 X90.540 Y121.550 E7.71296
G1 X89.310 Y120.900 E7.80776
G1 X88.230 Y120.020 E7.90269
G1 X87.350 Y118.940 E7.99762
G1 X86.700 Y117.710 E8.09242
G1 X86.290 Y116.380 E8.18726
G1 X86.160 Y115.000 E8.28172
G1 X86.160 Y85.000 E10.32603
G1 X86.290 Y83.620 E10.42049
G1 X86.700 Y82.290 E10.51533
G1 X87.350 Y81.060 E10.61013
G1 X88.178 Y80.044 E10.69947
G1 X88.620 Y80.370 F7800.000
G1 X89.610 Y79.560 F540.000 E10.78664
G1 X90.740 Y78.950 E10.87414
G1 X91.970 Y78.580 E10.96167
G1 X93.250 Y78.450 E11.04934
G1 X105.250 Y78.450 E11.86707
G1 X106.670 Y78.610 E11.96445
G1 X108.020 Y79.070 E12.06163
G1 X109.240 Y79.810 E12.15887
G1 X110.270 Y80.800 E12.25622
G1 X111.060 Y81.990 E12.35355
G1 X112.560 Y84.890 E12.57604
G1 X113.110 Y86.350 E12.68235
G1 X113.300 Y87.900 E12.78877
G1 X113.300 Y112.100 E14.43785
G1 X113.110 Y113.650 E14.54426
G1 X112.560 Y115.110 E14.65057
G1 X111.060 Y118.010 E14.87306
G1 X110.270 Y119.200 E14.97039
G1 X109.240 Y120.190 E15.06775
G1 X108.020 Y120.930 E15.16498
G1 X106.670 Y121.390 E15.26217
G1 X105.250 Y121.550 E15.35955
G1 X93.250 Y121.550 E16.17727
G1 X91.970 Y121.420 E16.26494
G1 X90.740 Y121.050 E16.35247
G1 X89.610 Y120.440 E16.43997
G1 X88.620 Y119.630 E16.52714
G1 X87.810 Y118.640 E16.61431
G1 X87.200 Y117.510 E16.70181
G1 X86.830 Y116.280 E16.78934
G1 X86.700 Y115.000 E16.87701
G1 X86.700 Y85.000 E18.92132
G1 X86.830 Y83.720 E19.00900
G1 X87.200 Y82.490 E19.09652
G1 X87.810 Y81.360 E19.18403
G1 X88.568 Y80.433 E19.26561
G1 F1800.000 E17.36561
G92 E0
G1 X94.070 Y114.180 F7800.000
G1 F1800.000 E1.90000
G1 X94.070 Y103.820 F540.000 E2.60603
G1 X104.430 Y103.820 E3.31207
G1 X104.430 Y114.180 E4.01810
G1 X94.151 Y114.180 E4.71855
G1 X93.523 Y114.727 F7800.000
G1 X93.523 Y103.273 F540.000 E5.49905
G1 X104.977 Y103.273 E6.27954
G1 X104.977 Y106.173 E6.47716
G1 X106.477 Y106.173 E6.57937
G1 X106.477 Y107.127 E6.64436
G1 X104.977 Y107.127 E6.74657
G1 X104.977 Y110.873 E7.00186
G1 X106.477 Y110.873 E7.10408
G1 X106.477 Y111.827 E7.16906
G1 X104.977 Y111.827 E7.27128
G1 X104.977 Y114.727 E7.46890
G1 X93.605 Y114.727 E8.24381
G1 X93.796 Y114.254 F7800.000
G1 X94.904 Y113.784
G1 X94.466 Y113.346 F1080.000 E8.28664
G1 X94.466 Y112.562 E8.34085
G1 X95.688 Y113.784 E8.46034
G1 X96.472 Y113.784 E8.51455
G1 X94.466 Y111.778 E8.71070
G1 X94.466 Y110.994 E8.76490
G1 X97.255 Y113.784 E9.03771
G1 X98.039 Y113.784 E9.09191
G1 X94.466 Y110.211 E9.44138
G1 X94.466 Y109.427 E9.49558
G1 X98.823 Y113.784 E9.92170
G1 X99.607 Y113.784 E9.97591
G1 X94.466 Y108.643 E10.47869
G1 X94.466 Y107.859 E10.53289
G1 X100.391 Y113.784 E11.11233
G1 X101.175 Y113.784 E11.16653
G1 X94.466 Y107.075 E11.82262
G1 X94.466 Y106.291 E11.87683
G1 X101.959 Y113.784 E12.60958
G1 X102.743 Y113.784 E12.66378
G1 X94.466 Y105.507 E13.47319
G1 X94.466 Y104.723 E13.52739
G1 X103.527 Y113.784 E14.41345
G1 X104.034 Y113.508 E14.45340
G1 X94.742 Y104.216 E15.36201
G1 X95.526 Y104.216 E15.41621
G1 X104.034 Y112.724 E16.24816
G1 X104.034 Y111.940 E16.30237
G1 X96.310 Y104.216 E17.05766
G1 X97.094 Y104.216 E17.11186
G1 X104.034 Y111.156 E17.79050
G1 X104.034 Y110.372 E17.84470
G1 X97.878 Y104.216 E18.44668
G1 X98.662 Y104.216 E18.50088
G1 X104.034 Y109.588 E19.02620
G1 X104.034 Y108.804 E19.08041
G1 X99.446 Y104.216 E19.52907
G1 X100.230 Y104.216 E19.58328
G1 X104.034 Y108.020 E19.95528
G1 X104.034 Y107.236 E20.00949
G1 X101.014 Y104.216 E20.30484
G1 X101.798 Y104.216 E20.35904
G1 X104.034 Y106.452 E20.57774
G1 X104.034 Y105.668 E20.63194
G1 X102.582 Y104.216 E20.77398
G1 X103.366 Y104.216 E20.82818
G1 X104.034 Y104.884 E20.89356
G1 X104.998 Y111.434 F7800.000
G1 X104.831 Y111.266 F360.000 E20.90141
G1 X105.206 Y111.266 E20.91385
G1 X105.374 Y111.434 E20.92170
G1 X105.582 Y111.266 E20.93055
G1 X105.750 Y111.434 E20.93840
G1 X105.958 Y111.266 E20.94725
G1 X106.084 Y111.392 E20.95316
G1 F1800.000 E19.05316
G92 E0
G1 X105.182 Y106.734 F7800.000
G1 F1800.000 E1.90000
G1 X105.014 Y106.566 F360.000 E1.90779
G1 X105.390 Y106.566 F7800.000
G1 X105.557 Y106.734 F360.000 E1.91558
G1 X105.766 Y106.566 F7800.000
G1 X105.933 Y106.734 F360.000 E1.92337
G1 F1800.000 E0.02337
G92 E0
G1 X94.070 Y96.180 F7800.000
G1 F1800.000 E1.90000
G1 X94.070 Y85.820 F540.000 E2.60603
G1 X104.430 Y85.820 E3.31207
G1 X104.430 Y96.180 E4.01810
G1 X94.151 Y96.180 E4.71855
G1 X93.523 Y96.727 F7800.000
G1 X93.523 Y85.273 F540.000 E5.49905
G1 X104.977 Y85.273 E6.27954
G1 X104.977 Y88.173 E6.47716
G1 X106.477 Y88.173 E6.57937
G1 X106.477 Y89.127 E6.64436
G1 X104.977 Y89.127 E6.74657
G1 X104.977 Y92.873 E7.00186
G1 X106.477 Y92.873 E7.10408
G1 X106.477 Y93.827 E7.16906
G1 X104.977 Y93.827 E7.27128
G1 X104.977 Y96.727 E7.46890
G1 X93.605 Y96.727 E8.24381
G1 X93.796 Y96.254 F7800.000
G1 X94.904 Y95.784
G1 X94.466 Y95.346 F1080.000 E8.28664
G1 X94.466 Y94.562 E8.34085
G1 X95.688 Y95.784 E8.46034
G1 X96.472 Y95.784 E8.51455
G1 X94.466 Y93.778 E8.71070
G1 X94.466 Y92.994 E8.76490
G1 X97.255 Y95.784 E9.03771
G1 X98.039 Y95.784 E9.09191
G1 X94.466 Y92.211 E9.44138
G1 X94.466 Y91.427 E9.49558
G1 X98.823 Y95.784 E9.92170
G1 X99.607 Y95.784 E9.97591
G1 X94.466 Y90.643 E10.47869
G1 X94.466 Y89.859 E10.53289
G1 X100.391 Y95.784 E11.11233
G1 X101.175 Y95.784 E11.16653
G1 X94.466 Y89.075 E11.82262
G1 X94.466 Y88.291 E11.87683
G1 X101.959 Y95.784 E12.60958
G1 X102.743 Y95.784 E12.66378
G1 X94.466 Y87.507 E13.47319
G1 X94.466 Y86.723 E13.52739
G1 X103.527 Y95.784 E14.41345
G1 X104.034 Y95.508 E14.45340
G1 X94.742 Y86.216 E15.36201
G1 X95.526 Y86.216 E15.41621
G1 X104.034 Y94.724 E16.24816
G1 X104.034 Y93.940 E16.30237
G1 X96.310 Y86.216 E17.05766
G1 X97.094 Y86.216 E17.11186
G1 X104.034 Y93.156 E17.79050
G1 X104.034 Y92.372 E17.84470
G1 X97.878 Y86.216 E18.44668
G1 X98.662 Y86.216 E18.50088
G1 X104.034 Y91.588 E19.02620
G1 X104.034 Y90.804 E19.08041
G1 X99.446 Y86.216 E19.52907
G1 X100.230 Y86.216 E19.58328
G1 X104.034 Y90.020 E19.95528
G1 X104.034 Y89.236 E20.00949
G1 X101.014 Y86.216 E20.30484
G1 X101.798 Y86.216 E20.35904
G1 X104.034 Y88.452 E20.57774
G1 X104.034 Y87.668 E20.63194
G1 X102.582 Y86.216 E20.77398
G1 X103.366 Y86.216 E20.82818
G1 X104.034 Y86.884 E20.89356
G1 X104.998 Y93.434 F7800.000
G1 X104.831 Y93.266 F360.000 E20.90141
G1 X105.206 Y93.266 E20.91385
G1 X105.374 Y93.434 E20.92170
G1 X105.582 Y93.266 E20.93055
G1 X105.750 Y93.434 E20.93840
G1 X105.958 Y93.266 E20.94725
G1 X106.084 Y93.392 E20.95316
G1 F1800.000 E19.05316
G92 E0
G1 X105.182 Y88.734 F7800.000
G1 F1800.000 E1.90000
G1 X105.014 Y88.566 F360.000 E1.90779
G1 X105.390 Y88.566 F7800.000
G1 X105.557 Y88.734 F360.000 E1.91558
G1 X105.766 Y88.566 F7800.000
G1 X105.933 Y88.734 F360.000 E1.92337
M106 S246
M104 S185 ; set temperature
M140 S60 ; set bed temperature
G1 F1800.000 E0.02337
G92 E0
G1 Z0.600 F7800.000
G1 X93.796 Y103.546
G1 F1800.000 E1.90000
G1 X104.704 Y103.546 F1800.000 E2.39491
G1 X104.704 Y106.446 E2.52648
G1 X106.204 Y106.446 E2.59453
G1 X106.204 Y106.854 E2.61308
G1 X104.704 Y106.854 E2.68113
G1 X104.704 Y111.146 E2.87581
G1 X106.204 Y111.146 E2.94387
G1 X106.204 Y111.554 E2.96241
G1 X104.704 Y111.554 E3.03046
G1 X104.704 Y114.454 E3.16203
G1 X93.796 Y114.454 E3.65694
G1 X93.796 Y103.600 E4.14938
G1 X93.432 Y103.182 F7800.000
G1 X105.068 Y103.182 F1800.000 E4.67729
G1 X105.068 Y106.082 E4.80886
G1 X106.568 Y106.082 E4.87692
G1 X106.568 Y107.218 E4.92846
G1 X105.068 Y107.218 E4.99652
G1 X105.068 Y110.782 E5.15820
G1 X106.568 Y110.782 E5.22625
G1 X106.568 Y111.918 E5.27780
G1 X105.068 Y111.918 E5.34585
G1 X105.068 Y114.818 E5.47742
G1 X93.432 Y114.818 E6.00534
G1 X93.432 Y103.236 E6.53078
G1 X93.747 Y103.364 F7800.000
G1 X94.501 Y103.809
G1 X94.059 Y104.251 F3600.000 E6.55919
G1 X94.059 Y104.767 E6.58260
G1 X95.017 Y103.809 E6.64412
G1 X95.532 Y103.809 E6.66753
G1 X94.059 Y105.282 E6.76215
G1 X94.059 Y105.797 E6.78556
G1 X96.047 Y103.809 E6.91329
G1 X96.562 Y103.809 E6.93669
G1 X94.059 Y106.312 E7.09752
G1 X94.059 Y106.827 E7.12093
G1 X97.077 Y103.809 E7.31487
G1 X97.593 Y103.809 E7.33827
G1 X94.059 Y107.343 E7.56531
G1 X94.059 Y107.858 E7.58872
G1 X98.108 Y103.809 E7.84886
G1 X98.623 Y103.809 E7.87226
G1 X94.059 Y108.373 E8.16551
G1 X94.059 Y108.888 E8.18891
G1 X99.138 Y103.809 E8.51526
G1 X99.653 Y103.809 E8.53867
G1 X94.059 Y109.403 E8.89812
G1 X94.059 Y109.918 E8.92153
G1 X100.168 Y103.809 E9.31408
G1 X100.684 Y103.809 E9.33749
G1 X94.059 Y110.434 E9.76314
G1 X94.059 Y110.949 E9.78655
G1 X101.199 Y103.809 E10.24531
G1 X101.714 Y103.809 E10.26872
G1 X94.059 Y111.464 E10.76058
G1 X94.059 Y111.979 E10.78399
G1 X102.229 Y103.809 E11.30895
G1 X102.744 Y103.809 E11.33236
G1 X94.059 Y112.494 E11.89043
G1 X94.059 Y113.009 E11.91384
G1 X103.259 Y103.809 E12.50501
G1 X103.775 Y103.809 E12.52842
G1 X94.059 Y113.525 E13.15269
G1 X94.059 Y114.040 E13.17610
G1 X104.290 Y103.809 E13.83348
G1 X104.441 Y104.173 E13.85139
G1 X94.423 Y114.191 E14.49506
G1 X94.939 Y114.191 E14.51847
G1 X104.441 Y104.689 E15.12904
G1 X104.441 Y105.204 E15.15245
G1 X95.454 Y114.191 E15.72992
G1 X95.969 Y114.191 E15.75332
G1 X104.441 Y105.719 E16.29769
G1 X104.441 Y106.234 E16.32109
G1 X96.484 Y114.191 E16.83235
G1 X96.999 Y114.191 E16.85576
G1 X104.441 Y106.749 E17.33392
G1 X104.441 Y107.265 E17.35733
G1 X97.515 Y114.191 E17.80238
G1 X98.030 Y114.191 E17.82579
G1 X104.441 Y107.780 E18.23774
G1 X104.441 Y108.295 E18.26114
G1 X98.545 Y114.191 E18.63999
G1 X99.060 Y114.191 E18.66340
G1 X104.441 Y108.810 E19.00914
G1 X104.441 Y109.325 E19.03255
G1 X99.575 Y114.191 E19.34519
G1 X100.090 Y114.191 E19.36860
G1 X104.441 Y109.840 E19.64814
G1 X104.441 Y110.356 E19.67154
G1 X100.606 Y114.191 E19.91798
G1 X101.121 Y114.191 E19.94138
G1 X104.441 Y110.871 E20.15471
G1 X104.441 Y111.386 E20.17812
G1 X101.636 Y114.191 E20.35835
G1 X102.151 Y114.191 E20.38176
G1 X104.441 Y111.901 E20.52888
G1 X104.441 Y112.416 E20.55229
G1 X102.666 Y114.191 E20.66631
G1 X103.181 Y114.191 E20.68972
G1 X104.441 Y112.931 E20.77064
G1 X104.441 Y113.447 E20.79404
G1 X103.697 Y114.191 E20.84186
G1 X104.212 Y114.191 E20.86526
G1 X104.441 Y113.962 E20.87998
G1 F1800.000 E18.97998
G92 E0
G1 X104.704 Y96.454 F7800.000
G1 F1800.000 E1.90000
G1 X93.796 Y96.454 F1800.000 E2.39491
G1 X93.796 Y85.546 E2.88982
G1 X104.704 Y85.546 E3.38473
G1 X104.704 Y88.446 E3.51630
G1 X106.204 Y88.446 E3.58435
G1 X106.204 Y88.854 E3.60290
G1 X104.704 Y88.854 E3.67095
G1 X104.704 Y93.146 E3.86564
G1 X106.204 Y93.146 E3.93369
G1 X106.204 Y93.554 E3.95223
G1 X104.704 Y93.554 E4.02029
G1 X104.704 Y96.400 E4.14938
G1 X105.068 Y96.818 F7800.000
G1 X93.432 Y96.818 F1800.000 E4.67729
G1 X93.432 Y85.182 E5.20521
G1 X105.068 Y85.182 E5.73313
G1 X105.068 Y88.082 E5.86469
G1 X106.568 Y88.082 E5.93275
G1 X106.568 Y89.218 E5.98430
G1 X105.068 Y89.218 E6.05235
G1 X105.068 Y92.782 E6.21403
G1 X106.568 Y92.782 E6.28208
G1 X106.568 Y93.918 E6.33363
G1 X105.068 Y93.918 E6.40168
G1 X105.068 Y96.764 E6.53078
G1 X104.753 Y96.636 F7800.000
G1 X104.441 Y95.962
G1 X104.212 Y96.191 F3600.000 E6.54549
G1 X103.697 Y96.191 E6.56890
G1 X104.441 Y95.447 E6.61671
G1 X104.441 Y94.931 E6.64012
G1 X103.181 Y96.191 E6.72104
G1 X102.666 Y96.191 E6.74444
G1 X104.441 Y94.416 E6.85846
G1 X104.441 Y93.901 E6.88187
G1 X102.151 Y96.191 E7.02900
G1 X101.636 Y96.191 E7.05240
G1 X104.441 Y93.386 E7.23263
G1 X104.441 Y92.871 E7.25604
G1 X101.121 Y96.191 E7.46937
G1 X100.606 Y96.191 E7.49278
G1 X104.441 Y92.356 E7.73921
G1 X104.441 Y91.840 E7.76262
G1 X100.090 Y96.191 E8.04215
G1 X99.575 Y96.191 E8.06556
G1 X104.441 Y91.325 E8.37820
G1 X104.441 Y90.810 E8.40161
G1 X99.060 Y96.191 E8.74735
G1 X98.545 Y96.191 E8.77076
G1 X104.441 Y90.295 E9.14961
G1 X104.441 Y89.780 E9.17302
G1 X98.030 Y96.191 E9.58497
G1 X97.515 Y96.191 E9.60837
G1 X104.441 Y89.265 E10.05343
G1 X104.441 Y88.749 E10.07683
G1 X96.999 Y96.191 E10.55499
G1 X96.484 Y96.191 E10.57840
G1 X104.441 Y88.234 E11.08966
G1 X104.441 Y87.719 E11.11307
G1 X95.969 Y96.191 E11.65743
G1 X95.454 Y96.191 E11.68084
G1 X104.441 Y87.204 E12.25830
G1 X104.441 Y86.689 E12.28171
G1 X94.939 Y96.191 E12.89228
G1 X94.423 Y96.191 E12.91569
G1 X104.441 Y86.173 E13.55936
G1 X104.290 Y85.809 E13.57728
G1 X94.059 Y96.040 E14.23465
G1 X94.059 Y95.525 E14.25806
G1 X103.775 Y85.809 E14.88234
G1 X103.259 Y85.809 E14.90574
G1 X94.059 Y95.009 E15.49692
G1 X94.059 Y94.494 E15.52032
G1 X102.744 Y85.809 E16.07839
G1 X102.229 Y85.809 E16.10180
G1 X94.059 Y93.979 E16.62677
G1 X94.059 Y93.464 E16.65017
G1 X101.714 Y85.809 E17.14204
G1 X101.199 Y85.809 E17.16544
G1 X94.059 Y92.949 E17.62420
G1 X94.059 Y92.434 E17.64761
G1 X100.684 Y85.809 E18.07327
G1 X100.168 Y85.809 E18.09667
G1 X94.059 Y91.918 E18.48923
G1 X94.059 Y91.403 E18.51263
G1 X99.653 Y85.809 E18.87208
G1 X99.138 Y85.809 E18.89549
G1 X94.059 Y90.888 E19.22184
G1 X94.059 Y90.373 E19.24525
G1 X98.623 Y85.809 E19.53849
G1 X98.108 Y85.809 E19.56190
G1 X94.059 Y89.858 E19.82204
G1 X94.059 Y89.343 E19.84544
G1 X97.593 Y85.809 E20.07248
G1 X97.077 Y85.809 E20.09589
G1 X94.059 Y88.827 E20.28982
G1 X94.059 Y88.312 E20.31323
G1 X96.562 Y85.809 E20.47406
G1 X96.047 Y85.809 E20.49747
G1 X94.059 Y87.797 E20.62519
G1 X94.059 Y87.282 E20.64860
G1 X95.532 Y85.809 E20.74322
G1 X95.017 Y85.809 E20.76663
G1 X94.059 Y86.767 E20.82815
G1 X94.059 Y86.251 E20.85156
G1 X94.501 Y85.809 E20.87998
M106 S246
G1 F1800.000 E18.97998
G92 E0
G1 Z0.900 F7800.000
G1 X106.204 Y106.446
G1 F1800.000 E1.90000
G1 X106.204 Y106.854 F1800.000 E1.91854
G1 X104.704 Y106.854 E1.98660
G1 X104.704 Y111.146 E2.18128
G1 X106.204 Y111.146 E2.24934
G1 X106.204 Y111.554 E2.26788
G1 X104.704 Y111.554 E2.33593
G1 X104.704 Y114.454 E2.46750
G1 X93.796 Y114.454 E2.96241
G1 X93.796 Y103.546 E3.45732
G1 X104.704 Y103.546 E3.95223
G1 X104.704 Y106.446 E4.08380
G1 X106.150 Y106.446 E4.14938
G1 X106.568 Y106.082 F7800.000
G1 X106.568 Y107.218 F1800.000 E4.20093
G1 X105.068 Y107.218 E4.26898
G1 X105.068 Y110.782 E4.43066
G1 X106.568 Y110.782 E4.49871
G1 X106.568 Y111.918 E4.55026
G1 X105.068 Y111.918 E4.61832
G1 X105.068 Y114.818 E4.74988
G1 X93.432 Y114.818 E5.27780
G1 X93.432 Y103.182 E5.80572
G1 X105.068 Y103.182 E6.33363
G1 X105.068 Y106.082 E6.46520
G1 X106.514 Y106.082 E6.53078
G1 X106.386 Y106.397 F7800.000
G1 F1800.000 E4.63078
G92 E0
G1 X104.393 Y103.809 F7800.000
G1 F1800.000 E1.90000
G1 X104.441 Y103.857 F3600.000 E1.90306
G1 X104.441 Y104.372 E1.92647
G1 X103.878 Y103.809 E1.96264
G1 X103.363 Y103.809 E1.98605
G1 X104.441 Y104.887 E2.05532
G1 X104.441 Y105.402 E2.07872
G1 X102.848 Y103.809 E2.18110
G1 X102.332 Y103.809 E2.20450
G1 X104.441 Y105.918 E2.33998
