; generated by Slic3r 0.9.10b on 2013-10-06 at 12:50:07

; layer_height = 0.3
; perimeters = 2
; top_solid_layers = 3
; bottom_solid_layers = 3
; fill_density = 0.3
; perimeter_speed = 30
; infill_speed = 60
; travel_speed = 130
; nozzle_diameter = 0.35
; filament_diameter = 1.75
; extrusion_multiplier = 1
; perimeters extrusion width = 0.37mm
; infill extrusion width = 0.37mm
; solid infill extrusion width = 0.37mm
; top infill extrusion width = 0.37mm
; support material extrusion width = 0.37mm
; first layer extrusion width = 0.60mm

G21 ; set units to millimeters
M107
M190 S65 ; wait for bed temperature to be reached
M104 S180 ; set temperature
G28 ; home all axes
M109 S180 ; wait for temperature to be reached
G90 ; use absolute coordinates
G92 E0
M82 ; use absolute distances for extrusion
G1 F1800.000 E-1.90000
G92 E0
G1 Z0.300 F7800.000
G1 X85.210 Y84.958
G1 F1800.000 E1.90000
G1 X85.750 Y84.448 F540.000 E1.95061
G1 X86.830 Y83.528 E2.04729
G1 X87.370 Y83.108 E2.09391
G1 X88.530 Y82.298 E2.19032
G1 X89.140 Y81.918 E2.23929
G1 X90.380 Y81.228 E2.33599
G1 X91.020 Y80.918 E2.38445
G1 X92.320 Y80.358 E2.48091
G1 X92.990 Y80.108 E2.52964
G1 X94.350 Y79.678 E2.62684
G1 X95.090 Y79.488 E2.67890
G1 X96.480 Y79.208 E2.77552
G1 X97.180 Y79.098 E2.82381
G1 X98.590 Y78.958 E2.92036
G1 X99.290 Y78.928 E2.96811
G1 X100.700 Y78.928 E3.06419
G1 X101.400 Y78.958 E3.11193
G1 X102.810 Y79.098 E3.20849
G1 X103.510 Y79.208 E3.25678
G1 X104.900 Y79.488 E3.35340
G1 X105.640 Y79.678 E3.40546
G1 X107.000 Y80.108 E3.50266
G1 X107.670 Y80.358 E3.55139
G1 X108.970 Y80.918 E3.64784
G1 X109.610 Y81.228 E3.69630
G1 X110.850 Y81.918 E3.79300
G1 X111.460 Y82.298 E3.84198
G1 X112.620 Y83.108 E3.93839
G1 X113.160 Y83.528 E3.98500
G1 X114.240 Y84.448 E4.08168
G1 X114.780 Y84.958 E4.13230
G1 X115.760 Y85.988 E4.22918
G1 X116.220 Y86.528 E4.27752
G1 X117.090 Y87.648 E4.37416
G1 X117.500 Y88.238 E4.42312
G1 X118.250 Y89.438 E4.51955
G1 X118.620 Y90.108 E4.57170
G1 X119.240 Y91.388 E4.66862
G1 X119.520 Y92.028 E4.71622
G1 X120.010 Y93.358 E4.81281
G1 X120.210 Y94.008 E4.85915
G1 X120.570 Y95.378 E4.95568
G1 X120.720 Y96.078 E5.00446
G1 X120.940 Y97.588 E5.10845
G1 X121.000 Y98.228 E5.15225
G1 X121.070 Y99.648 E5.24913
G1 X121.070 Y100.348 E5.29683
G1 X121.000 Y101.758 E5.39303
G1 X120.940 Y102.448 E5.44023
G1 X120.730 Y103.858 E5.53737
G1 X120.570 Y104.618 E5.59030
G1 X120.210 Y105.988 E5.68682
G1 X120.010 Y106.638 E5.73317
G1 X119.520 Y107.968 E5.82975
G1 X119.230 Y108.628 E5.87888
G1 X118.610 Y109.898 E5.97518
G1 X118.250 Y110.548 E6.02581
G1 X117.500 Y111.748 E6.12224
G1 X117.110 Y112.318 E6.16931
G1 X116.240 Y113.448 E6.26649
G1 X115.730 Y114.028 E6.31912
G1 X114.750 Y115.048 E6.41551
G1 X114.270 Y115.508 E6.46081
G1 X113.190 Y116.438 E6.55793
G1 X112.620 Y116.888 E6.60742
G1 X111.460 Y117.698 E6.70383
G1 X110.850 Y118.078 E6.75280
G1 X109.610 Y118.768 E6.84950
G1 X108.970 Y119.078 E6.89796
G1 X107.670 Y119.638 E6.99442
G1 X106.950 Y119.908 E7.04682
G1 X105.590 Y120.328 E7.14381
G1 X104.950 Y120.488 E7.18877
G1 X103.560 Y120.778 E7.28553
G1 X102.810 Y120.898 E7.33728
G1 X101.400 Y121.038 E7.43384
G1 X100.700 Y121.068 E7.48158
G1 X99.290 Y121.068 E7.57767
G1 X98.590 Y121.038 E7.62541
G1 X97.180 Y120.898 E7.72197
G1 X96.430 Y120.778 E7.77372
G1 X95.040 Y120.488 E7.87048
G1 X94.400 Y120.328 E7.91544
G1 X93.040 Y119.908 E8.01243
G1 X92.320 Y119.638 E8.06483
G1 X91.020 Y119.078 E8.16129
G1 X90.380 Y118.768 E8.20975
G1 X89.140 Y118.078 E8.30645
G1 X88.530 Y117.698 E8.35542
G1 X87.370 Y116.888 E8.45183
G1 X86.800 Y116.438 E8.50132
G1 X85.720 Y115.508 E8.59844
G1 X85.240 Y115.048 E8.64374
G1 X84.260 Y114.028 E8.74013
G1 X83.750 Y113.448 E8.79276
G1 X82.880 Y112.318 E8.88994
G1 X82.460 Y111.698 E8.94097
G1 X81.680 Y110.428 E9.04253
G1 X81.360 Y109.848 E9.08767
G1 X80.770 Y108.648 E9.17880
G1 X80.470 Y107.968 E9.22944
G1 X79.980 Y106.638 E9.32603
G1 X79.780 Y105.988 E9.37237
G1 X79.420 Y104.618 E9.46890
G1 X79.260 Y103.858 E9.52182
G1 X79.050 Y102.448 E9.61896
G1 X78.990 Y101.758 E9.66616
G1 X78.920 Y100.348 E9.76236
G1 X78.920 Y99.648 E9.81006
G1 X78.990 Y98.228 E9.90694
G1 X79.060 Y97.528 E9.95488
G1 X79.270 Y96.128 E10.05135
G1 X79.420 Y95.378 E10.10347
G1 X79.780 Y94.008 E10.20000
G1 X79.980 Y93.358 E10.24634
G1 X80.470 Y92.028 E10.34293
G1 X80.750 Y91.388 E10.39053
G1 X81.370 Y90.108 E10.48745
G1 X81.740 Y89.438 E10.53960
G1 X82.490 Y88.238 E10.63603
G1 X82.900 Y87.648 E10.68499
G1 X83.770 Y86.528 E10.78163
G1 X84.230 Y85.988 E10.82997
G1 X85.154 Y85.017 E10.92127
G1 X85.610 Y85.338 F7800.000
G1 X86.100 Y84.868 F540.000 E10.96754
G1 X87.180 Y83.948 E11.06421
G1 X87.680 Y83.558 E11.10743
G1 X88.840 Y82.748 E11.20384
G1 X89.410 Y82.398 E11.24942
G1 X90.650 Y81.708 E11.34612
G1 X91.240 Y81.418 E11.39091
G1 X92.540 Y80.858 E11.48737
G1 X93.160 Y80.628 E11.53243
G1 X94.520 Y80.198 E11.62963
G1 X95.200 Y80.018 E11.67756
G1 X96.590 Y79.738 E11.77419
G1 X97.230 Y79.648 E11.81823
G1 X98.640 Y79.508 E11.91478
G1 X99.290 Y79.468 E11.95916
G1 X100.700 Y79.468 E12.05524
G1 X101.350 Y79.508 E12.09962
G1 X102.760 Y79.648 E12.19618
G1 X103.400 Y79.738 E12.24022
G1 X104.790 Y80.018 E12.33684
G1 X105.470 Y80.198 E12.38477
G1 X106.830 Y80.628 E12.48197
G1 X107.450 Y80.858 E12.52703
G1 X108.750 Y81.418 E12.62349
G1 X109.340 Y81.708 E12.66829
G1 X110.580 Y82.398 E12.76499
G1 X111.150 Y82.748 E12.81057
G1 X112.310 Y83.558 E12.90698
G1 X112.810 Y83.948 E12.95019
G1 X113.890 Y84.868 E13.04687
G1 X114.380 Y85.338 E13.09313
G1 X115.360 Y86.368 E13.19002
G1 X115.790 Y86.858 E13.23444
G1 X116.660 Y87.978 E13.33108
G1 X117.040 Y88.528 E13.37664
G1 X117.790 Y89.728 E13.47307
G1 X118.130 Y90.348 E13.52125
G1 X118.750 Y91.628 E13.61817
G1 X119.000 Y92.218 E13.66183
G1 X119.490 Y93.548 E13.75842
G1 X119.680 Y94.148 E13.80131
G1 X120.040 Y95.518 E13.89783
G1 X120.180 Y96.168 E13.94314
G1 X120.400 Y97.668 E14.04645
G1 X120.460 Y98.258 E14.08686
G1 X120.530 Y99.678 E14.18375
G1 X120.530 Y100.318 E14.22736
G1 X120.460 Y101.728 E14.32356
G1 X120.390 Y102.368 E14.36743
G1 X120.180 Y103.778 E14.46457
G1 X120.040 Y104.478 E14.51322
G1 X119.680 Y105.848 E14.60974
G1 X119.490 Y106.448 E14.65263
G1 X119.000 Y107.778 E14.74922
G1 X118.740 Y108.388 E14.79440
G1 X118.120 Y109.658 E14.89071
G1 X117.790 Y110.258 E14.93737
G1 X117.040 Y111.458 E15.03380
G1 X116.680 Y111.978 E15.07690
G1 X115.810 Y113.108 E15.17408
G1 X115.340 Y113.658 E15.22338
G1 X114.360 Y114.678 E15.31977
G1 X113.910 Y115.098 E15.36171
G1 X112.830 Y116.028 E15.45883
G1 X112.310 Y116.438 E15.50396
G1 X111.150 Y117.248 E15.60037
G1 X110.580 Y117.598 E15.64595
G1 X109.340 Y118.288 E15.74265
G1 X108.750 Y118.578 E15.78745
G1 X107.450 Y119.138 E15.88390
G1 X106.790 Y119.378 E15.93176
G1 X105.430 Y119.798 E16.02875
G1 X104.840 Y119.958 E16.07041
G1 X103.450 Y120.248 E16.16717
G1 X102.760 Y120.348 E16.21468
G1 X101.350 Y120.488 E16.31124
G1 X100.700 Y120.528 E16.35561
G1 X99.290 Y120.528 E16.45170
G1 X98.640 Y120.488 E16.49607
G1 X97.230 Y120.348 E16.59263
G1 X96.540 Y120.248 E16.64014
G1 X95.150 Y119.958 E16.73690
G1 X94.560 Y119.798 E16.77856
G1 X93.200 Y119.378 E16.87555
G1 X92.540 Y119.138 E16.92341
G1 X91.240 Y118.578 E17.01986
G1 X90.650 Y118.288 E17.06466
G1 X89.410 Y117.598 E17.16136
G1 X88.840 Y117.248 E17.20694
G1 X87.680 Y116.438 E17.30335
G1 X87.160 Y116.028 E17.34848
G1 X86.080 Y115.098 E17.44560
G1 X85.630 Y114.678 E17.48754
G1 X84.650 Y113.658 E17.58393
G1 X84.180 Y113.108 E17.63323
G1 X83.310 Y111.978 E17.73041
G1 X82.920 Y111.418 E17.77691
G1 X82.140 Y110.148 E17.87848
G1 X81.850 Y109.608 E17.92024
G1 X81.260 Y108.408 E18.01137
G1 X80.990 Y107.778 E18.05807
G1 X80.500 Y106.448 E18.15466
G1 X80.310 Y105.848 E18.19755
G1 X79.950 Y104.478 E18.29407
G1 X79.810 Y103.778 E18.34272
G1 X79.600 Y102.368 E18.43986
G1 X79.530 Y101.728 E18.48373
G1 X79.460 Y100.318 E18.57993
G1 X79.460 Y99.678 E18.62355
G1 X79.530 Y98.258 E18.72043
G1 X79.600 Y97.608 E18.76498
G1 X79.810 Y96.208 E18.86144
G1 X79.950 Y95.518 E18.90942
G1 X80.310 Y94.148 E19.00595
G1 X80.500 Y93.548 E19.04884
G1 X80.990 Y92.218 E19.14542
G1 X81.240 Y91.628 E19.18909
G1 X81.860 Y90.348 E19.28600
G1 X82.200 Y89.728 E19.33419
G1 X82.950 Y88.528 E19.43062
G1 X83.330 Y87.978 E19.47617
G1 X84.200 Y86.858 E19.57282
G1 X84.630 Y86.368 E19.61724
G1 X85.554 Y85.397 E19.70854
G1 F1800.000 E17.80854
G92 E0
G1 X91.377 Y98.287 F7800.000
G1 F1800.000 E1.90000
G1 X91.683 Y98.205 F540.000 E1.92165
G1 X92.000 Y98.177 E1.94330
G1 X92.317 Y98.205 E1.96495
G1 X92.623 Y98.287 E1.98660
G1 X92.911 Y98.422 E2.00825
G1 X93.172 Y98.604 E2.02990
G1 X93.396 Y98.828 E2.05155
G1 X93.578 Y99.089 E2.07320
G1 X93.713 Y99.377 E2.09485
G1 X93.795 Y99.684 E2.11650
G1 X93.823 Y100.000 E2.13815
G1 X93.795 Y100.317 E2.15980
G1 X93.713 Y100.623 E2.18145
G1 X93.578 Y100.911 E2.20310
G1 X93.396 Y101.172 E2.22475
G1 X93.172 Y101.396 E2.24640
G1 X92.911 Y101.578 E2.26805
G1 X92.623 Y101.713 E2.28970
G1 X92.316 Y101.795 E2.31135
G1 X92.000 Y101.823 E2.33300
G1 X91.683 Y101.795 E2.35465
G1 X91.377 Y101.713 E2.37630
G1 X91.089 Y101.578 E2.39795
G1 X90.828 Y101.396 E2.41960
G1 X90.604 Y101.172 E2.44125
G1 X90.422 Y100.911 E2.46290
G1 X90.287 Y100.623 E2.48455
G1 X90.205 Y100.317 E2.50620
G1 X90.177 Y100.000 E2.52785
G1 X90.205 Y99.684 E2.54950
G1 X90.287 Y99.377 E2.57115
G1 X90.422 Y99.089 E2.59280
G1 X90.604 Y98.828 E2.61445
G1 X90.828 Y98.604 E2.63610
G1 X91.089 Y98.422 E2.65775
G1 X91.302 Y98.322 E2.67381
G1 X91.564 Y98.803 F7800.000
G1 X91.779 Y98.745 F540.000 E2.68895
G1 X92.000 Y98.726 E2.70408
G1 X92.221 Y98.745 E2.71922
G1 X92.436 Y98.803 E2.73436
G1 X92.637 Y98.896 E2.74949
G1 X92.819 Y99.024 E2.76463
G1 X92.976 Y99.181 E2.77976
G1 X93.104 Y99.363 E2.79490
G1 X93.197 Y99.564 E2.81003
G1 X93.255 Y99.779 E2.82517
G1 X93.274 Y100.000 E2.84030
G1 X93.255 Y100.221 E2.85544
G1 X93.197 Y100.436 E2.87057
G1 X93.104 Y100.637 E2.88571
G1 X92.976 Y100.819 E2.90085
G1 X92.819 Y100.976 E2.91598
G1 X92.637 Y101.104 E2.93112
G1 X92.436 Y101.197 E2.94625
G1 X92.221 Y101.255 E2.96139
G1 X92.000 Y101.274 E2.97652
G1 X91.779 Y101.255 E2.99166
G1 X91.564 Y101.197 E3.00679
G1 X91.363 Y101.104 E3.02193
G1 X91.181 Y100.976 E3.03706
G1 X91.024 Y100.819 E3.05220
G1 X90.896 Y100.637 E3.06734
G1 X90.803 Y100.436 E3.08247
G1 X90.745 Y100.221 E3.09761
G1 X90.726 Y100.000 E3.11274
G1 X90.745 Y99.779 E3.12788
G1 X90.803 Y99.564 E3.14301
G1 X90.896 Y99.363 E3.15815
G1 X91.024 Y99.181 E3.17328
G1 X91.181 Y99.024 E3.18842
G1 X91.363 Y98.896 E3.20355
G1 X91.490 Y98.837 E3.21310
G1 X91.730 Y98.950 F7800.000
G1 X97.582 Y96.130
G1 X97.466 Y95.697 F540.000 E3.24366
G1 X97.427 Y95.250 E3.27422
G1 X97.466 Y94.803 E3.30478
G1 X97.582 Y94.370 E3.33534
G1 X97.772 Y93.964 E3.36590
G1 X98.030 Y93.596 E3.39650
G1 X98.346 Y93.279 E3.42701
G1 X98.570 Y93.123 E3.44559
G1 X98.422 Y92.911 E3.46319
G1 X98.287 Y92.623 E3.48484
G1 X98.205 Y92.316 E3.50649
G1 X98.177 Y92.000 E3.52814
G1 X98.205 Y91.683 E3.54979
G1 X98.287 Y91.377 E3.57144
G1 X98.422 Y91.089 E3.59309
G1 X98.604 Y90.828 E3.61473
G1 X98.828 Y90.604 E3.63639
G1 X99.089 Y90.422 E3.65804
G1 X99.458 Y90.265 E3.68539
G1 X99.683 Y90.205 E3.70127
G1 X100.000 Y90.177 E3.72292
G1 X100.316 Y90.205 E3.74457
G1 X100.623 Y90.287 E3.76622
G1 X100.911 Y90.422 E3.78787
G1 X101.172 Y90.604 E3.80952
G1 X101.396 Y90.828 E3.83117
G1 X101.578 Y91.089 E3.85282
G1 X101.713 Y91.377 E3.87447
G1 X101.795 Y91.683 E3.89612
G1 X101.823 Y92.000 E3.91777
G1 X101.795 Y92.317 E3.93942
G1 X101.713 Y92.623 E3.96107
G1 X101.578 Y92.911 E3.98272
G1 X101.430 Y93.123 E4.00031
G1 X101.654 Y93.279 E4.01889
G1 X101.971 Y93.596 E4.04945
G1 X102.228 Y93.964 E4.08001
G1 X102.418 Y94.370 E4.11057
G1 X102.534 Y94.803 E4.14113
G1 X102.573 Y95.250 E4.17169
G1 X102.534 Y95.697 E4.20224
G1 X102.418 Y96.130 E4.23280
G1 X102.228 Y96.536 E4.26336
G1 X101.971 Y96.904 E4.29391
G1 X101.654 Y97.221 E4.32448
G1 X101.286 Y97.478 E4.35504
G1 X100.880 Y97.668 E4.38560
G1 X100.447 Y97.784 E4.41616
G1 X100.000 Y97.823 E4.44671
G1 X99.553 Y97.784 E4.47727
G1 X99.120 Y97.668 E4.50783
G1 X98.714 Y97.478 E4.53839
G1 X98.346 Y97.221 E4.56895
G1 X98.029 Y96.904 E4.59951
G1 X97.772 Y96.536 E4.63006
G1 X97.617 Y96.204 E4.65504
G1 X98.098 Y95.942 F7800.000
G1 X98.007 Y95.602 F540.000 E4.67908
G1 X97.980 Y95.203 E4.70627
G1 X98.007 Y94.899 E4.72713
G1 X98.098 Y94.558 E4.75117
G1 X98.247 Y94.238 E4.77522
G1 X98.450 Y93.949 E4.79928
G1 X98.699 Y93.699 E4.82330
G1 X98.988 Y93.497 E4.84735
G1 X99.308 Y93.348 E4.87139
G1 X99.600 Y93.270 E4.89201
G1 X99.181 Y92.976 E4.92687
G1 X99.024 Y92.819 E4.94201
G1 X98.897 Y92.637 E4.95714
G1 X98.803 Y92.436 E4.97228
G1 X98.745 Y92.221 E4.98742
G1 X98.726 Y92.000 E5.00255
G1 X98.745 Y91.779 E5.01769
G1 X98.803 Y91.564 E5.03282
G1 X98.896 Y91.363 E5.04796
G1 X99.024 Y91.181 E5.06309
G1 X99.181 Y91.024 E5.07823
G1 X99.363 Y90.896 E5.09336
G1 X99.600 Y90.793 E5.11098
G1 X99.779 Y90.745 E5.12360
G1 X100.000 Y90.726 E5.13874
G1 X100.221 Y90.745 E5.15387
G1 X100.436 Y90.803 E5.16901
G1 X100.637 Y90.896 E5.18414
G1 X100.819 Y91.024 E5.19928
G1 X100.976 Y91.181 E5.21441
G1 X101.119 Y91.396 E5.23204
G1 X101.197 Y91.564 E5.24465
G1 X101.255 Y91.779 E5.25979
G1 X101.274 Y92.000 E5.27492
G1 X101.255 Y92.221 E5.29006
G1 X101.197 Y92.436 E5.30519
G1 X101.104 Y92.637 E5.32033
G1 X100.976 Y92.819 E5.33547
G1 X100.819 Y92.976 E5.35060
G1 X100.400 Y93.270 E5.38546
G1 X100.692 Y93.348 E5.40608
G1 X101.012 Y93.497 E5.43013
G1 X101.301 Y93.699 E5.45417
G1 X101.551 Y93.949 E5.47822
G1 X101.729 Y94.203 E5.49938
G1 X101.902 Y94.558 E5.52626
G1 X101.993 Y94.898 E5.55031
G1 X102.024 Y95.250 E5.57435
G1 X101.981 Y95.647 E5.60154
G1 X101.902 Y95.942 E5.62240
G1 X101.753 Y96.262 E5.64644
G1 X101.551 Y96.551 E5.67048
G1 X101.301 Y96.801 E5.69453
G1 X101.012 Y97.003 E5.71857
G1 X100.692 Y97.152 E5.74262
G1 X100.351 Y97.243 E5.76666
G1 X100.000 Y97.274 E5.79071
G1 X99.649 Y97.243 E5.81475
G1 X99.308 Y97.152 E5.83879
G1 X98.988 Y97.003 E5.86284
G1 X98.699 Y96.801 E5.88688
G1 X98.449 Y96.551 E5.91093
G1 X98.247 Y96.262 E5.93497
G1 X98.132 Y96.017 E5.95343
G1 X98.332 Y95.679 F7800.000
G1 F1800.000 E4.05343
G92 E0
G1 X106.287 Y99.377 F7800.000
G1 F1800.000 E1.90000
G1 X106.422 Y99.089 F540.000 E1.92165
G1 X106.604 Y98.828 E1.94330
G1 X106.828 Y98.604 E1.96495
G1 X107.089 Y98.422 E1.98660
G1 X107.377 Y98.287 E2.00825
G1 X107.684 Y98.205 E2.02990
G1 X108.000 Y98.177 E2.05155
G1 X108.317 Y98.205 E2.07320
G1 X108.623 Y98.287 E2.09485
G1 X108.911 Y98.422 E2.11650
G1 X109.172 Y98.604 E2.13815
G1 X109.396 Y98.828 E2.15980
G1 X109.578 Y99.089 E2.18145
G1 X109.713 Y99.377 E2.20310
G1 X109.802 Y99.768 E2.23046
G1 X109.823 Y100.000 E2.24633
G1 X109.795 Y100.317 E2.26798
G1 X109.713 Y100.623 E2.28963
G1 X109.578 Y100.911 E2.31128
G1 X109.396 Y101.172 E2.33293
G1 X109.172 Y101.396 E2.35458
G1 X108.834 Y101.614 E2.38194
G1 X108.623 Y101.713 E2.39781
G1 X108.317 Y101.795 E2.41946
G1 X108.000 Y101.823 E2.44111
G1 X107.683 Y101.795 E2.46276
G1 X107.377 Y101.713 E2.48441
G1 X107.089 Y101.578 E2.50606
G1 X106.828 Y101.396 E2.52771
G1 X106.604 Y101.172 E2.54936
G1 X106.422 Y100.911 E2.57101
G1 X106.287 Y100.623 E2.59266
G1 X106.205 Y100.317 E2.61431
G1 X106.177 Y100.000 E2.63596
G1 X106.205 Y99.683 E2.65761
G1 X106.266 Y99.456 E2.67367
G1 X106.803 Y99.564 F7800.000
G1 X106.896 Y99.363 F540.000 E2.68881
G1 X107.024 Y99.181 E2.70395
G1 X107.181 Y99.024 E2.71908
G1 X107.363 Y98.896 E2.73422
G1 X107.564 Y98.803 E2.74935
G1 X107.779 Y98.745 E2.76449
G1 X108.000 Y98.726 E2.77962
G1 X108.221 Y98.745 E2.79476
G1 X108.436 Y98.803 E2.80989
G1 X108.637 Y98.897 E2.82503
G1 X108.819 Y99.024 E2.84016
G1 X108.976 Y99.181 E2.85530
G1 X109.104 Y99.363 E2.87044
G1 X109.197 Y99.564 E2.88557
G1 X109.258 Y99.816 E2.90319
G1 X109.274 Y100.000 E2.91581
G1 X109.255 Y100.221 E2.93094
G1 X109.197 Y100.436 E2.94608
G1 X109.104 Y100.637 E2.96122
G1 X108.976 Y100.819 E2.97635
G1 X108.819 Y100.976 E2.99149
G1 X108.604 Y101.119 E3.00911
G1 X108.436 Y101.197 E3.02173
G1 X108.221 Y101.255 E3.03686
G1 X108.000 Y101.274 E3.05200
G1 X107.779 Y101.255 E3.06713
G1 X107.564 Y101.197 E3.08227
