; generated by Slic3r 0.9.10b on 2013-10-06 at 13:25:06

; layer_height = 0.3
; perimeters = 2
; top_solid_layers = 3
; bottom_solid_layers = 3
; fill_density = 0.3
; perimeter_speed = 30
; infill_speed = 60
; travel_speed = 130
; nozzle_diameter = 0.35
; filament_diameter = 1.75
; extrusion_multiplier = 1
; perimeters extrusion width = 0.37mm
; infill extrusion width = 0.37mm
; solid infill extrusion width = 0.37mm
; top infill extrusion width = 0.37mm
; support material extrusion width = 0.37mm
; first layer extrusion width = 0.60mm

G21 ; set units to millimeters
M107
M190 S65 ; wait for bed temperature to be reached
M104 S180 ; set temperature
G28 ; home all axes
M109 S180 ; wait for temperature to be reached
G90 ; use absolute coordinates
G92 E0
M82 ; use absolute distances for extrusion
G1 F1800.000 E-1.90000
G92 E0
G1 Z0.300 F7800.000
G1 X74.756 Y87.693
G1 F1800.000 E1.90000
G1 X75.836 Y86.773 F540.000 E1.99668
G1 X77.086 Y86.083 E2.09397
G1 X78.446 Y85.663 E2.19097
G1 X79.866 Y85.523 E2.28820
G1 X120.126 Y85.523 E5.03167
G1 X121.546 Y85.663 E5.12890
G1 X122.906 Y86.083 E5.22589
G1 X124.146 Y86.773 E5.32259
G1 X125.236 Y87.693 E5.41979
G1 X126.116 Y88.813 E5.51685
G1 X126.756 Y90.083 E5.61376
G1 X127.126 Y91.453 E5.71046
G1 X127.216 Y92.873 E5.80742
G1 X127.016 Y94.283 E5.90447
G1 X126.426 Y96.713 E6.07487
G1 X125.986 Y98.403 E6.19387
G1 X125.496 Y100.053 E6.31116
G1 X124.916 Y101.793 E6.43614
G1 X124.386 Y103.163 E6.53624
G1 X123.916 Y104.263 E6.61776
G1 X123.266 Y105.583 E6.71802
G1 X122.446 Y107.073 E6.83391
G1 X121.876 Y107.983 E6.90709
G1 X120.946 Y109.283 E7.01601
G1 X120.266 Y110.143 E7.09072
G1 X119.876 Y110.593 E7.13130
G1 X119.446 Y111.043 E7.17371
G1 X118.656 Y111.773 E7.24701
G1 X118.076 Y112.243 E7.29788
G1 X117.676 Y112.533 E7.33155
G1 X117.116 Y112.903 E7.37728
G1 X116.726 Y113.133 E7.40814
G1 X115.956 Y113.523 E7.46695
G1 X115.566 Y113.693 E7.49594
G1 X114.646 Y114.023 E7.56255
G1 X114.216 Y114.143 E7.59297
G1 X113.266 Y114.343 E7.65912
G1 X112.826 Y114.403 E7.68939
G1 X112.106 Y114.463 E7.73862
G1 X88.096 Y114.473 E9.37475
G1 X87.666 Y114.453 E9.40408
G1 X86.806 Y114.353 E9.46308
G1 X86.396 Y114.283 E9.49143
G1 X85.396 Y114.043 E9.56150
G1 X84.996 Y113.913 E9.59016
G1 X84.216 Y113.603 E9.64736
G1 X83.826 Y113.423 E9.67663
G1 X83.196 Y113.093 E9.72509
G1 X82.806 Y112.863 E9.75595
G1 X82.086 Y112.373 E9.81530
G1 X81.276 Y111.723 E9.88607
G1 X80.876 Y111.363 E9.92274
G1 X80.376 Y110.873 E9.97044
G1 X79.966 Y110.423 E10.01193
G1 X79.656 Y110.063 E10.04430
G1 X78.906 Y109.103 E10.12732
G1 X78.146 Y108.023 E10.21731
G1 X77.606 Y107.183 E10.28536
G1 X76.756 Y105.653 E10.40462
G1 X76.276 Y104.703 E10.47716
G1 X76.076 Y104.283 E10.50885
G1 X75.616 Y103.203 E10.58885
G1 X75.096 Y101.853 E10.68743
G1 X74.596 Y100.393 E10.79259
G1 X74.056 Y98.603 E10.92000
G1 X73.656 Y97.093 E11.02645
G1 X72.976 Y94.293 E11.22279
G1 X72.776 Y92.883 E11.31984
G1 X72.866 Y91.463 E11.41680
G1 X73.236 Y90.093 E11.51350
G1 X73.876 Y88.813 E11.61102
G1 X74.706 Y87.757 E11.70249
G1 X75.146 Y88.073 F7800.000
G1 X76.146 Y87.223 F540.000 E11.79193
G1 X77.306 Y86.593 E11.88188
G1 X78.556 Y86.203 E11.97111
G1 X79.866 Y86.063 E12.06089
G1 X120.126 Y86.063 E14.80435
G1 X121.436 Y86.203 E14.89413
G1 X122.686 Y86.593 E14.98336
G1 X123.836 Y87.223 E15.07271
G1 X124.836 Y88.073 E15.16215
G1 X125.656 Y89.103 E15.25186
G1 X126.246 Y90.273 E15.34115
G1 X126.586 Y91.543 E15.43074
G1 X126.666 Y92.853 E15.52018
G1 X126.486 Y94.153 E15.60961
G1 X125.896 Y96.583 E15.78001
G1 X125.396 Y98.493 E15.91455
G1 X124.926 Y100.073 E16.02688
G1 X124.516 Y101.313 E16.11588
G1 X123.976 Y102.723 E16.21877
G1 X123.256 Y104.403 E16.34332
G1 X122.786 Y105.343 E16.41493
G1 X121.986 Y106.783 E16.52719
G1 X121.416 Y107.693 E16.60036
G1 X120.506 Y108.963 E16.70682
G1 X119.836 Y109.803 E16.78004
G1 X119.046 Y110.663 E16.85962
G1 X118.696 Y111.013 E16.89335
G1 X118.296 Y111.373 E16.93002
G1 X117.756 Y111.803 E16.97706
G1 X117.356 Y112.093 E17.01073
G1 X116.846 Y112.433 E17.05249
G1 X116.456 Y112.663 E17.08335
G1 X115.746 Y113.023 E17.13759
G1 X115.356 Y113.193 E17.16659
G1 X114.496 Y113.503 E17.22888
G1 X114.066 Y113.623 E17.25930
G1 X113.186 Y113.803 E17.32051
G1 X112.746 Y113.863 E17.35077
G1 X112.086 Y113.913 E17.39587
G1 X111.566 Y113.933 E17.43133
G1 X88.426 Y113.933 E19.00818
G1 X87.696 Y113.903 E19.05797
G1 X86.896 Y113.813 E19.11283
G1 X86.486 Y113.743 E19.14117
G1 X85.566 Y113.523 E19.20563
G1 X85.166 Y113.393 E19.23429
G1 X84.446 Y113.103 E19.28718
G1 X83.466 Y112.623 E19.36154
G1 X83.076 Y112.393 E19.39240
G1 X82.416 Y111.943 E19.44683
G1 X81.636 Y111.323 E19.51473
G1 X81.236 Y110.963 E19.55140
G1 X80.776 Y110.503 E19.59573
G1 X80.366 Y110.053 E19.63722
G1 X79.576 Y109.083 E19.72246
G1 X79.356 Y108.783 E19.74781
G1 X78.606 Y107.723 E19.83630
G1 X78.066 Y106.883 E19.90435
G1 X77.356 Y105.613 E20.00350
G1 X76.766 Y104.453 E20.09218
G1 X76.026 Y102.763 E20.21790
G1 X75.606 Y101.663 E20.29813
G1 X75.046 Y100.003 E20.41752
G1 X74.646 Y98.673 E20.51216
G1 X74.186 Y96.953 E20.63348
G1 X73.506 Y94.163 E20.82917
G1 X73.326 Y92.863 E20.91860
G1 X73.406 Y91.553 E21.00804
G1 X73.746 Y90.283 E21.09763
G1 X74.336 Y89.113 E21.18692
G1 X75.096 Y88.137 E21.27116
G1 F1800.000 E19.37116
G92 E0
G1 X86.940 Y101.833 F7800.000
G1 F1800.000 E1.90000
G1 X87.272 Y101.601 F540.000 E1.92759
G1 X87.639 Y101.430 E1.95518
G1 X88.030 Y101.325 E1.98277
G1 X88.433 Y101.290 E2.01036
G1 X88.836 Y101.325 E2.03795
G1 X89.227 Y101.430 E2.06553
G1 X89.328 Y101.477 E2.07309
G1 X89.594 Y101.601 E2.09312
G1 X89.926 Y101.833 E2.12071
G1 X90.212 Y102.120 E2.14830
G1 X90.445 Y102.451 E2.17589
G1 X90.616 Y102.818 E2.20348
G1 X90.720 Y103.209 E2.23107
G1 X90.756 Y103.613 E2.25866
G1 X90.720 Y104.016 E2.28625
G1 X90.616 Y104.407 E2.31384
G1 X90.445 Y104.774 E2.34143
G1 X90.212 Y105.106 E2.36901
G1 X89.926 Y105.392 E2.39660
G1 X89.594 Y105.624 E2.42419
G1 X89.227 Y105.795 E2.45178
G1 X88.836 Y105.900 E2.47937
G1 X88.433 Y105.935 E2.50696
G1 X88.323 Y105.926 E2.51452
G1 X88.030 Y105.900 E2.53455
G1 X87.639 Y105.795 E2.56214
G1 X87.272 Y105.624 E2.58973
G1 X86.940 Y105.392 E2.61732
G1 X86.654 Y105.106 E2.64490
G1 X86.422 Y104.774 E2.67249
G1 X86.251 Y104.407 E2.70008
G1 X86.146 Y104.016 E2.72767
G1 X86.110 Y103.613 E2.75526
G1 X86.146 Y103.209 E2.78285
G1 X86.251 Y102.818 E2.81044
G1 X86.422 Y102.451 E2.83803
G1 X86.654 Y102.120 E2.86562
G1 X86.882 Y101.891 E2.88762
G1 X87.293 Y102.254 F7800.000
G1 X87.546 Y102.076 F540.000 E2.90870
G1 X87.887 Y101.929 E2.93402
G1 X88.125 Y101.865 E2.95079
G1 X88.433 Y101.839 E2.97187
G1 X88.741 Y101.865 E2.99294
G1 X89.040 Y101.945 E3.01401
G1 X89.320 Y102.076 E3.03509
G1 X89.574 Y102.254 E3.05616
G1 X89.792 Y102.472 E3.07724
G1 X89.970 Y102.726 E3.09831
G1 X90.100 Y103.006 E3.11939
G1 X90.180 Y103.305 E3.14046
G1 X90.207 Y103.613 E3.16154
G1 X90.180 Y103.921 E3.18261
G1 X90.100 Y104.220 E3.20369
G1 X89.970 Y104.500 E3.22476
G1 X89.792 Y104.753 E3.24583
G1 X89.574 Y104.972 E3.26691
G1 X89.320 Y105.149 E3.28798
G1 X89.040 Y105.280 E3.30906
G1 X88.741 Y105.360 E3.33013
G1 X88.370 Y105.381 E3.35545
G1 X88.125 Y105.360 E3.37223
G1 X87.826 Y105.280 E3.39330
G1 X87.546 Y105.149 E3.41438
G1 X87.293 Y104.972 E3.43545
G1 X87.074 Y104.753 E3.45653
G1 X86.897 Y104.500 E3.47760
G1 X86.766 Y104.220 E3.49868
G1 X86.686 Y103.921 E3.51975
G1 X86.659 Y103.613 E3.54082
G1 X86.686 Y103.305 E3.56190
G1 X86.766 Y103.006 E3.58297
G1 X86.897 Y102.726 E3.60405
G1 X87.074 Y102.472 E3.62512
G1 X87.235 Y102.312 E3.64061
G1 X87.580 Y102.368 F7800.000
G1 X80.909 Y93.432
G1 X95.957 Y93.432 F540.000 E4.66603
G1 X95.612 Y94.847 E4.76524
G1 X95.203 Y96.393 E4.87421
G1 X94.798 Y97.768 E4.97190
G1 X94.393 Y98.979 E5.05891
G1 X93.980 Y100.067 E5.13822
G1 X93.520 Y101.133 E5.21732
G1 X93.072 Y102.042 E5.28639
G1 X92.603 Y102.886 E5.35222
G1 X92.054 Y103.757 E5.42235
G1 X91.470 Y104.572 E5.49069
G1 X90.997 Y105.154 E5.54183
G1 X90.615 Y105.560 E5.57979
G1 X90.265 Y105.875 E5.61190
G1 X89.938 Y106.116 E5.63953
G1 X89.630 Y106.295 E5.66385
G1 X89.335 Y106.423 E5.68571
G1 X89.007 Y106.517 E5.70900
G1 X88.671 Y106.563 E5.73208
G1 X88.087 Y106.553 E5.77190
G1 X87.782 Y106.499 E5.79297
G1 X87.484 Y106.406 E5.81431
G1 X87.183 Y106.268 E5.83687
G1 X86.873 Y106.079 E5.86161
G1 X86.548 Y105.831 E5.88947
G1 X86.203 Y105.513 E5.92142
G1 X85.834 Y105.113 E5.95847
G1 X85.351 Y104.513 E6.01096
G1 X84.797 Y103.735 E6.07606
G1 X84.290 Y102.932 E6.14074
G1 X83.812 Y102.076 E6.20758
G1 X83.359 Y101.160 E6.27720
G1 X82.908 Y100.121 E6.35440
G1 X82.499 Y99.050 E6.43254
G1 X82.102 Y97.873 E6.51718
G1 X81.711 Y96.564 E6.61030
G1 X81.310 Y95.068 E6.71584
G1 X80.929 Y93.512 E6.82499
G1 X80.213 Y92.886 F7800.000
G1 X96.652 Y92.886 F540.000 E7.94524
G1 X96.142 Y94.981 E8.09221
G1 X95.730 Y96.540 E8.20207
G1 X95.319 Y97.932 E8.30094
G1 X94.908 Y99.162 E8.38936
G1 X94.487 Y100.272 E8.47027
G1 X94.016 Y101.362 E8.55113
G1 X93.556 Y102.295 E8.62204
G1 X93.073 Y103.165 E8.68983
G1 X92.508 Y104.062 E8.76209
G1 X91.909 Y104.898 E8.83216
G1 X91.408 Y105.515 E8.88633
G1 X90.997 Y105.951 E8.92715
G1 X90.610 Y106.299 E8.96263
G1 X90.239 Y106.573 E8.99409
G1 X89.877 Y106.784 E9.02263
G1 X89.520 Y106.939 E9.04913
G1 X89.119 Y107.053 E9.07750
G1 X88.714 Y107.108 E9.10538
G1 X88.436 Y107.114 E9.12434
G1 X87.912 Y107.093 E9.16010
G1 X87.912 Y107.077 E9.16117
G1 X87.653 Y107.031 E9.17909
G1 X87.287 Y106.916 E9.20520
G1 X86.926 Y106.751 E9.23226
G1 X86.564 Y106.531 E9.26115
G1 X86.196 Y106.249 E9.29271
G1 X85.817 Y105.899 E9.32788
G1 X85.420 Y105.470 E9.36768
G1 X84.916 Y104.843 E9.42254
G1 X84.343 Y104.040 E9.48977
G1 X83.821 Y103.212 E9.55649
G1 X83.328 Y102.331 E9.62526
G1 X82.864 Y101.390 E9.69674
G1 X82.402 Y100.328 E9.77569
G1 X81.984 Y99.235 E9.85541
G1 X81.581 Y98.038 E9.94144
G1 X81.185 Y96.713 E10.03574
G1 X80.781 Y95.205 E10.14209
G1 X80.232 Y92.965 E10.29921
G1 X80.706 Y93.120 F7800.000
G1 X89.141 Y100.997
G1 X81.972 Y93.828 F1080.000 E10.99485
G1 X81.485 Y94.119 E11.03378
G1 X88.272 Y100.907 E11.69239
G1 X87.614 Y101.027 E11.73829
G1 X81.743 Y95.156 E12.30800
G1 X82.028 Y96.219 E12.38350
G1 X87.069 Y101.260 E12.87268
G1 X86.623 Y101.591 E12.91084
G1 X82.349 Y97.318 E13.32553
G1 X82.720 Y98.466 E13.40832
G1 X86.254 Y102.000 E13.75130
G1 X85.966 Y102.491 E13.79031
G1 X83.168 Y99.692 E14.06188
G1 X83.746 Y101.048 E14.16300
G1 X85.772 Y103.074 E14.35964
G1 X84.607 Y102.688 E14.44384
G1 X85.608 Y103.688 E14.54089
G1 F1800.000 E12.64089
G92 E0
G1 X91.049 Y102.905 F7800.000
G1 F1800.000 E1.90000
G1 X91.708 Y103.564 F1080.000 E1.96394
G1 X91.334 Y103.968 E2.00172
G1 X91.407 Y104.041 E2.00884
G1 X92.009 Y103.087 F7800.000
G1 X82.750 Y93.828 F1080.000 E2.90729
G1 X83.528 Y93.828 E2.96068
G1 X92.306 Y102.606 E3.81247
G1 X92.584 Y102.106 E3.85172
G1 X84.306 Y93.828 E4.65499
G1 X85.084 Y93.828 E4.70837
G1 X92.851 Y101.595 E5.46206
G1 X93.107 Y101.074 E5.50193
G1 X85.862 Y93.828 E6.20502
G1 X86.640 Y93.828 E6.25840
G1 X93.347 Y100.535 E6.90921
G1 X93.582 Y99.992 E6.94982
G1 X87.418 Y93.828 E7.54791
G1 X88.196 Y93.828 E7.60130
G1 X93.798 Y99.430 E8.14493
G1 X94.012 Y98.866 E8.18633
G1 X88.974 Y93.828 E8.67522
G1 X89.752 Y93.828 E8.72860
G1 X94.208 Y98.284 E9.16096
G1 X94.402 Y97.701 E9.20315
G1 X90.530 Y93.828 E9.57892
G1 X91.308 Y93.828 E9.63230
G1 X94.581 Y97.101 E9.94993
G1 X94.759 Y96.501 E9.99290
G1 X92.086 Y93.828 E10.25223
G1 X92.864 Y93.828 E10.30562
G1 X94.927 Y95.891 E10.50575
G1 X95.089 Y95.275 E10.54942
G1 X93.642 Y93.828 E10.68986
G1 X94.420 Y93.828 E10.74324
G1 X95.251 Y94.659 E10.82383
G1 X95.403 Y94.033 E10.86801
G1 X95.198 Y93.828 E10.88788
G1 X85.766 Y104.116 F7800.000
G1 X85.749 Y104.099 F360.000 E10.88867
G1 F1800.000 E8.98867
G92 E0
G1 X91.012 Y104.514 F7800.000
G1 F1800.000 E1.90000
G1 X90.998 Y104.500 F360.000 E1.90067
G1 X91.172 Y104.301 E1.90936
G1 X91.077 Y104.206 E1.91379
G1 F1800.000 E0.01379
G92 E0
G1 X109.244 Y103.613 F7800.000
G1 F1800.000 E1.90000
G1 X109.280 Y103.209 F540.000 E1.92759
G1 X109.384 Y102.818 E1.95518
G1 X109.431 Y102.718 E1.96274
G1 X109.555 Y102.451 E1.98277
G1 X109.788 Y102.120 E2.01036
G1 X110.074 Y101.833 E2.03794
G1 X110.406 Y101.601 E2.06553
G1 X110.772 Y101.430 E2.09312
G1 X111.164 Y101.325 E2.12071
G1 X111.567 Y101.290 E2.14830
G1 X111.970 Y101.325 E2.17589
G1 X112.361 Y101.430 E2.20348
G1 X112.728 Y101.601 E2.23107
G1 X113.060 Y101.833 E2.25866
G1 X113.138 Y101.912 E2.26622
G1 X113.346 Y102.120 E2.28625
G1 X113.578 Y102.451 E2.31384
G1 X113.749 Y102.818 E2.34142
G1 X113.854 Y103.209 E2.36901
G1 X113.890 Y103.613 E2.39660
G1 X113.854 Y104.016 E2.42419
G1 X113.749 Y104.407 E2.45178
G1 X113.703 Y104.508 E2.45934
G1 X113.578 Y104.774 E2.47937
G1 X113.346 Y105.106 E2.50696
G1 X113.060 Y105.392 E2.53455
G1 X112.728 Y105.624 E2.56214
G1 X112.361 Y105.795 E2.58973
G1 X111.970 Y105.900 E2.61732
G1 X111.567 Y105.935 E2.64490
G1 X111.164 Y105.900 E2.67249
G1 X110.773 Y105.795 E2.70008
G1 X110.406 Y105.624 E2.72767
G1 X110.074 Y105.392 E2.75526
G1 X109.788 Y105.106 E2.78285
G1 X109.555 Y104.774 E2.81044
G1 X109.384 Y104.407 E2.83803
G1 X109.280 Y104.016 E2.86562
G1 X109.251 Y103.694 E2.88762
G1 X109.793 Y103.613 F7800.000
G1 X109.820 Y103.305 F540.000 E2.90870
G1 X109.926 Y102.949 E2.93402
G1 X110.030 Y102.726 E2.95079
G1 X110.208 Y102.472 E2.97186
G1 X110.426 Y102.254 E2.99294
G1 X110.680 Y102.076 E3.01401
G1 X110.960 Y101.945 E3.03509
G1 X111.259 Y101.865 E3.05616
G1 X111.567 Y101.839 E3.07724
G1 X111.875 Y101.865 E3.09831
G1 X112.174 Y101.945 E3.11939
G1 X112.454 Y102.076 E3.14046
G1 X112.752 Y102.298 E3.16578
G1 X112.926 Y102.472 E3.18256
G1 X113.103 Y102.726 E3.20363
G1 X113.234 Y103.006 E3.22471
G1 X113.314 Y103.305 E3.24578
G1 X113.341 Y103.613 E3.26685
G1 X113.314 Y103.921 E3.28793
G1 X113.207 Y104.277 E3.31325
G1 X113.103 Y104.500 E3.33002
G1 X112.926 Y104.753 E3.35110
G1 X112.707 Y104.972 E3.37217
G1 X112.454 Y105.149 E3.39325
G1 X112.174 Y105.280 E3.41432
G1 X111.875 Y105.360 E3.43540
G1 X111.567 Y105.387 E3.45647
G1 X111.259 Y105.360 E3.47755
G1 X110.960 Y105.280 E3.49862
G1 X110.680 Y105.149 E3.51970
G1 X110.426 Y104.972 E3.54077
G1 X110.208 Y104.753 E3.56184
G1 X110.030 Y104.500 E3.58292
G1 X109.900 Y104.220 E3.60399
G1 X109.820 Y103.921 E3.62507
G1 X109.800 Y103.694 E3.64056
G1 X110.065 Y103.466 F7800.000
G1 F1800.000 E1.74056
G92 E0
G1 X115.188 Y103.757 F7800.000
G1 F1800.000 E1.90000
G1 X114.567 Y104.620 F540.000 E1.97242
G1 X114.130 Y105.154 E2.01948
G1 X113.749 Y105.560 E2.05745
G1 X113.398 Y105.875 E2.08955
G1 X113.072 Y106.116 E2.11718
G1 X112.763 Y106.295 E2.14151
G1 X112.469 Y106.423 E2.16336
G1 X112.141 Y106.517 E2.18665
G1 X111.805 Y106.563 E2.20973
G1 X111.221 Y106.553 E2.24956
G1 X110.916 Y106.499 E2.27063
G1 X110.617 Y106.406 E2.29196
G1 X110.317 Y106.268 E2.31452
G1 X110.006 Y106.079 E2.33927
G1 X109.681 Y105.831 E2.36713
G1 X109.337 Y105.513 E2.39908
G1 X108.968 Y105.113 E2.43612
G1 X108.485 Y104.513 E2.48861
G1 X107.931 Y103.735 E2.55371
G1 X107.424 Y102.932 E2.61840
G1 X106.946 Y102.076 E2.68523
G1 X106.493 Y101.160 E2.75485
G1 X106.042 Y100.121 E2.83205
G1 X105.632 Y99.050 E2.91020
G1 X105.236 Y97.873 E2.99483
G1 X104.845 Y96.564 E3.08795
G1 X104.444 Y95.068 E3.19349
G1 X104.043 Y93.432 E3.30823
G1 X119.091 Y93.432 E4.33364
G1 X118.746 Y94.847 E4.43286
G1 X118.337 Y96.393 E4.54182
G1 X117.931 Y97.768 E4.63951
G1 X117.527 Y98.979 E4.72652
G1 X117.114 Y100.067 E4.80584
G1 X116.653 Y101.133 E4.88494
G1 X116.206 Y102.042 E4.95400
G1 X115.737 Y102.886 E5.01984
G1 X115.232 Y103.688 E5.08438
G1 X115.680 Y104.001 F7800.000
G1 X114.996 Y104.959 F540.000 E5.16463
G1 X114.541 Y105.515 E5.21355
G1 X114.131 Y105.951 E5.25437
G1 X113.744 Y106.299 E5.28985
G1 X113.372 Y106.573 E5.32131
G1 X113.010 Y106.784 E5.34985
G1 X112.654 Y106.939 E5.37635
G1 X112.253 Y107.053 E5.40473
G1 X111.848 Y107.108 E5.43260
G1 X111.045 Y107.093 E5.48730
G1 X111.045 Y107.077 E5.48837
G1 X110.786 Y107.031 E5.50629
G1 X110.421 Y106.916 E5.53239
G1 X110.060 Y106.751 E5.55946
G1 X109.698 Y106.531 E5.58835
G1 X109.330 Y106.249 E5.61991
G1 X108.950 Y105.899 E5.65508
G1 X108.554 Y105.470 E5.69488
